P3
400 225
255
204 226 255
204 226 255
204 226 255
204 226 255
204 226 255
204 226 255
204 226 255
204 226 255
204 226 255
204 226 255
204 226 255
204 226 255
204 226 255
204 226 255
204 226 255
203 226 255
203 226 255
203 226 255
203 226 255
203 226 255
203 226 255
203 226 255
203 226 255
203 225 255
203 225 255
203 225 255
203 225 255
203 225 255
203 225 255
203 225 255
203 225 255
203 225 255
202 225 255
202 225 255
202 225 255
202 225 255
202 225 255
202 225 255
202 225 255
202 225 255
202 225 255
202 225 255
202 225 255
202 225 255
202 225 255
202 225 255
202 225 255
202 225 255
201 225 255
201 225 255
201 225 255
201 225 255
201 224 255
201 224 255
201 224 255
201 224 255
201 224 255
201 224 255
201 224 255
201 224 255
201 224 255
201 224 255
201 224 255
200 224 255
200 224 255
200 224 255
200 224 255
200 224 255
200 224 255
200 224 255
200 224 255
200 224 255
200 224 255
200 224 255
200 224 255
200 224 255
200 224 255
200 224 255
199 224 255
199 224 255
199 223 255
199 223 255
199 223 255
199 223 255
199 223 255
199 223 255
199 223 255
199 223 255
199 223 255
199 223 255
199 223 255
199 223 255
198 223 255
198 223 255
198 223 255
198 223 255
198 223 255
198 223 255
198 223 255
198 223 255
198 223 255
198 223 255
198 223 255
198 223 255
198 223 255
198 223 255
197 223 255
197 222 255
197 222 255
197 222 255
197 222 255
197 222 255
197 222 255
197 222 255
197 222 255
197 222 255
197 222 255
197 222 255
197 222 255
197 222 255
197 222 255
196 222 255
196 222 255
196 222 255
196 222 255
196 222 255
196 222 255
196 222 255
196 222 255
196 222 255
196 222 255
196 222 255
196 222 255
196 222 255
196 222 255
196 221 255
196 221 255
195 221 255
195 221 255
195 221 255
195 221 255
195 221 255
195 221 255
195 221 255
195 221 255
195 221 255
195 221 255
195 221 255
195 221 255
195 221 255
195 221 255
195 221 255
195 221 255
195 221 255
195 221 255
194 221 255
194 221 255
194 221 255
194 221 255
194 221 255
194 221 255
194 221 255
194 221 255
194 221 255
194 221 255
194 221 255
194 221 255
194 221 255
194 221 255
194 221 255
194 221 255
194 221 255
194 221 255
194 221 255
194 221 255
194 221 255
194 221 255
194 220 255
194 220 255
194 220 255
194 220 255
194 220 255
194 220 255
194 220 255
194 220 255
194 220 255
193 220 255
193 220 255
193 220 255
193 220 255
193 220 255
193 220 255
193 220 255
193 220 255
193 220 255
193 220 255
193 220 255
193 220 255
193 220 255
193 220 255
193 220 255
193 220 255
193 220 255
193 220 255
193 220 255
193 220 255
193 220 255
193 220 255
193 220 255
193 220 255
193 220 255
193 220 255
193 220 255
193 220 255
194 220 255
194 220 255
194 220 255
194 220 255
194 220 255
194 220 255
194 220 255
194 220 255
194 221 255
194 221 255
194 221 255
194 221 255
194 221 255
194 221 255
194 221 255
194 221 255
194 221 255
194 221 255
194 221 255
194 221 255
194 221 255
194 221 255
194 221 255
194 221 255
194 221 255
194 221 255
194 221 255
194 221 255
194 221 255
194 221 255
194 221 255
195 221 255
195 221 255
195 221 255
195 221 255
195 221 255
195 221 255
195 221 255
195 221 255
195 221 255
195 221 255
195 221 255
195 221 255
195 221 255
195 221 255
195 221 255
195 221 255
195 221 255
195 221 255
196 221 255
196 221 255
196 222 255
196 222 255
196 222 255
196 222 255
196 222 255
196 222 255
196 222 255
196 222 255
196 222 255
196 222 255
196 222 255
196 222 255
196 222 255
196 222 255
197 222 255
197 222 255
197 222 255
197 222 255
197 222 255
197 222 255
197 222 255
197 222 255
197 222 255
197 222 255
197 222 255
197 222 255
197 222 255
197 222 255
197 223 255
198 223 255
198 223 255
198 223 255
198 223 255
198 223 255
198 223 255
198 223 255
198 223 255
198 223 255
198 223 255
198 223 255
198 223 255
198 223 255
198 223 255
199 223 255
199 223 255
199 223 255
199 223 255
199 223 255
199 223 255
199 223 255
199 223 255
199 223 255
199 223 255
199 223 255
199 223 255
199 224 255
199 224 255
199 224 255
200 224 255
200 224 255
200 224 255
200 224 255
200 224 255
200 224 255
200 224 255
200 224 255
200 224 255
200 224 255
200 224 255
200 224 255
200 224 255
200 224 255
201 224 255
201 224 255
201 224 255
201 224 255
201 224 255
201 224 255
201 224 255
201 224 255
201 224 255
201 224 255
201 225 255
201 225 255
201 225 255
201 225 255
201 225 255
202 225 255
202 225 255
202 225 255
202 225 255
202 225 255
202 225 255
202 225 255
202 225 255
202 225 255
202 225 255
202 225 255
202 225 255
202 225 255
202 225 255
202 225 255
202 225 255
203 225 255
203 225 255
203 225 255
203 225 255
203 225 255
203 225 255
203 225 255
203 225 255
203 225 255
203 226 255
203 226 255
203 226 255
203 226 255
203 226 255
203 226 255
203 226 255
203 226 255
204 226 255
204 226 255
204 226 255
204 226 255
204 226 255
204 226 255
204 226 255
204 226 255
204 226 255
204 226 255
204 226 255
204 226 255
204 226 255
204 226 255
204 226 255
204 226 255
204 226 255
204 226 255
204 226 255
204 226 255
204 226 255
204 226 255
204 226 255
204 226 255
204 226 255
204 226 255
204 226 255
204 226 255
204 226 255
204 226 255
204 226 255
204 226 255
204 226 255
203 226 255
203 226 255
203 226 255
203 226 255
203 226 255
203 226 255
203 226 255
203 225 255
203 225 255
203 225 255
203 225 255
203 225 255
203 225 255
203 225 255
203 225 255
203 225 255
202 225 255
202 225 255
202 225 255
202 225 255
202 225 255
202 225 255
202 225 255
202 225 255
202 225 255
202 225 255
202 225 255
202 225 255
202 225 255
202 225 255
202 225 255
202 225 255
201 225 255
201 225 255
201 225 255
201 225 255
201 225 255
201 224 255
201 224 255
201 224 255
201 224 255
201 224 255
201 224 255
201 224 255
201 224 255
201 224 255
201 224 255
200 224 255
200 224 255
200 224 255
200 224 255
200 224 255
200 224 255
200 224 255
200 224 255
200 224 255
200 224 255
200 224 255
200 224 255
200 224 255
200 224 255
200 224 255
199 224 255
199 224 255
199 223 255
199 223 255
199 223 255
199 223 255
199 223 255
199 223 255
199 223 255
199 223 255
199 223 255
199 223 255
199 223 255
199 223 255
198 223 255
198 223 255
198 223 255
198 223 255
198 223 255
198 223 255
198 223 255
198 223 255
198 223 255
198 223 255
198 223 255
198 223 255
198 223 255
198 223 255
197 223 255
197 222 255
197 222 255
197 222 255
197 222 255
197 222 255
197 222 255
197 222 255
197 222 255
197 222 255
197 222 255
197 222 255
197 222 255
197 222 255
197 222 255
196 222 255
196 222 255
196 222 255
196 222 255
196 222 255
196 222 255
196 222 255
196 222 255
196 222 255
196 222 255
196 222 255
196 222 255
196 222 255
196 222 255
196 222 255
196 221 255
195 221 255
195 221 255
195 221 255
195 221 255
195 221 255
195 221 255
195 221 255
195 221 255
195 221 255
195 221 255
195 221 255
195 221 255
195 221 255
195 221 255
195 221 255
195 221 255
195 221 255
195 221 255
195 221 255
194 221 255
194 221 255
194 221 255
194 221 255
194 221 255
194 221 255
194 221 255
194 221 255
194 221 255
194 221 255
194 221 255
194 221 255
194 221 255
194 221 255
194 221 255
194 221 255
194 221 255
194 221 255
194 221 255
194 221 255
194 221 255
194 221 255
194 221 255
194 221 255
194 221 255
194 220 255
194 220 255
194 220 255
194 220 255
194 220 255
194 220 255
194 220 255
194 220 255
194 220 255
194 220 255
194 220 255
194 220 255
194 220 255
194 220 255
194 220 255
194 220 255
194 220 255
194 220 255
194 220 255
194 220 255
194 220 255
194 220 255
194 220 255
194 220 255
194 220 255
194 220 255
194 220 255
194 220 255
194 220 255
194 220 255
194 220 255
194 220 255
194 220 255
194 220 255
194 221 255
194 221 255
194 221 255
194 221 255
194 221 255
194 221 255
194 221 255
194 221 255
194 221 255
194 221 255
194 221 255
194 221 255
194 221 255
194 221 255
194 221 255
194 221 255
194 221 255
194 221 255
194 221 255
194 221 255
194 221 255
194 221 255
194 221 255
194 221 255
195 221 255
195 221 255
195 221 255
195 221 255
195 221 255
195 221 255
195 221 255
195 221 255
195 221 255
195 221 255
195 221 255
195 221 255
195 221 255
195 221 255
195 221 255
195 221 255
195 221 255
195 221 255
195 221 255
195 221 255
196 221 255
196 222 255
196 222 255
196 222 255
196 222 255
196 222 255
196 222 255
196 222 255
196 222 255
196 222 255
196 222 255
196 222 255
196 222 255
196 222 255
196 222 255
196 222 255
197 222 255
197 222 255
197 222 255
197 222 255
197 222 255
197 222 255
197 222 255
197 222 255
197 222 255
197 222 255
197 222 255
197 222 255
197 222 255
197 222 255
197 223 255
198 223 255
198 223 255
198 223 255
198 223 255
198 223 255
198 223 255
198 223 255
198 223 255
198 223 255
198 223 255
198 223 255
198 223 255
198 223 255
198 223 255
199 223 255
199 223 255
199 223 255
199 223 255
199 223 255
199 223 255
199 223 255
199 223 255
199 223 255
199 223 255
199 223 255
199 223 255
199 224 255
199 224 255
199 224 255
200 224 255
200 224 255
200 224 255
200 224 255
200 224 255
200 224 255
200 224 255
200 224 255
200 224 255
200 224 255
200 224 255
200 224 255
200 224 255
200 224 255
201 224 255
201 224 255
201 224 255
201 224 255
201 224 255
201 224 255
201 224 255
201 224 255
201 224 255
201 224 255
201 225 255
201 225 255
201 225 255
201 225 255
201 225 255
202 225 255
202 225 255
202 225 255
202 225 255
202 225 255
202 225 255
202 225 255
202 225 255
202 225 255
202 225 255
202 225 255
202 225 255
202 225 255
202 225 255
202 225 255
202 225 255
203 225 255
203 225 255
203 225 255
203 225 255
203 225 255
203 225 255
203 225 255
203 225 255
203 225 255
203 226 255
203 226 255
203 226 255
203 226 255
203 226 255
203 226 255
203 226 255
204 226 255
204 226 255
204 226 255
204 226 255
204 226 255
204 226 255
204 226 255
204 226 255
204 226 255
204 226 255
204 226 255
204 226 255
204 226 255
204 226 255
204 226 255
204 226 255
204 226 255
204 226 255
205 226 255
205 226 255
204 226 255
204 226 255
204 226 255
204 226 255
204 226 255
204 226 255
204 226 255
204 226 255
204 226 255
204 226 255
204 226 255
204 226 255
204 226 255
204 226 255
204 226 255
204 226 255
204 226 255
204 226 255
203 226 255
203 226 255
203 226 255
203 226 255
203 226 255
203 226 255
203 226 255
203 225 255
203 225 255
203 225 255
203 225 255
203 225 255
203 225 255
203 225 255
203 225 255
203 225 255
202 225 255
202 225 255
202 225 255
202 225 255
202 225 255
202 225 255
202 225 255
202 225 255
202 225 255
202 225 255
202 225 255
202 225 255
202 225 255
202 225 255
202 225 255
202 225 255
201 225 255
201 225 255
201 225 255
201 225 255
201 225 255
201 224 255
201 224 255
201 224 255
201 224 255
201 224 255
201 224 255
201 224 255
201 224 255
201 224 255
201 224 255
200 224 255
200 224 255
200 224 255
200 224 255
200 224 255
200 224 255
200 224 255
200 224 255
200 224 255
200 224 255
200 224 255
200 224 255
200 224 255
200 224 255
200 224 255
199 224 255
199 224 255
199 223 255
199 223 255
199 223 255
199 223 255
199 223 255
199 223 255
199 223 255
199 223 255
199 223 255
199 223 255
199 223 255
199 223 255
198 223 255
198 223 255
198 223 255
198 223 255
198 223 255
198 223 255
198 223 255
198 223 255
198 223 255
198 223 255
198 223 255
198 223 255
198 223 255
198 223 255
197 223 255
197 222 255
197 222 255
197 222 255
197 222 255
197 222 255
197 222 255
197 222 255
197 222 255
197 222 255
197 222 255
197 222 255
197 222 255
197 222 255
197 222 255
196 222 255
196 222 255
196 222 255
196 222 255
196 222 255
196 222 255
196 222 255
196 222 255
196 222 255
196 222 255
196 222 255
196 222 255
196 222 255
196 222 255
196 222 255
196 221 255
195 221 255
195 221 255
195 221 255
195 221 255
195 221 255
195 221 255
195 221 255
195 221 255
195 221 255
195 221 255
195 221 255
195 221 255
195 221 255
195 221 255
195 221 255
195 221 255
195 221 255
195 221 255
195 221 255
195 221 255
194 221 255
194 221 255
194 221 255
194 221 255
194 221 255
194 221 255
194 221 255
194 221 255
194 221 255
194 221 255
194 221 255
194 221 255
194 221 255
194 221 255
194 221 255
194 221 255
194 221 255
194 221 255
194 221 255
194 221 255
194 221 255
194 221 255
194 221 255
194 221 255
194 221 255
194 221 255
194 221 255
194 221 255
194 221 255
194 221 255
194 221 255
194 220 255
194 220 255
194 220 255
194 220 255
194 220 255
194 220 255
194 220 255
194 220 255
194 220 255
194 220 255
194 220 255
194 220 255
194 220 255
194 220 255
194 220 255
194 220 255
194 221 255
194 221 255
194 221 255
194 221 255
194 221 255
194 221 255
194 221 255
194 221 255
194 221 255
194 221 255
194 221 255
194 221 255
194 221 255
194 221 255
194 221 255
194 221 255
194 221 255
194 221 255
194 221 255
194 221 255
194 221 255
194 221 255
194 221 255
194 221 255
194 221 255
194 221 255
194 221 255
194 221 255
194 221 255
194 221 255
195 221 255
195 221 255
195 221 255
195 221 255
195 221 255
195 221 255
195 221 255
195 221 255
195 221 255
195 221 255
195 221 255
195 221 255
195 221 255
195 221 255
195 221 255
195 221 255
195 221 255
195 221 255
195 221 255
195 221 255
196 221 255
196 221 255
196 222 255
196 222 255
196 222 255
196 222 255
196 222 255
196 222 255
196 222 255
196 222 255
196 222 255
196 222 255
196 222 255
196 222 255
196 222 255
196 222 255
196 222 255
197 222 255
197 222 255
197 222 255
197 222 255
197 222 255
197 222 255
197 222 255
197 222 255
197 222 255
197 222 255
197 222 255
197 222 255
197 222 255
197 222 255
197 223 255
198 223 255
198 223 255
198 223 255
198 223 255
198 223 255
198 223 255
198 223 255
198 223 255
198 223 255
198 223 255
198 223 255
198 223 255
198 223 255
198 223 255
199 223 255
199 223 255
199 223 255
199 223 255
199 223 255
199 223 255
199 223 255
199 223 255
199 223 255
199 223 255
199 223 255
199 223 255
199 224 255
199 224 255
200 224 255
200 224 255
200 224 255
200 224 255
200 224 255
200 224 255
200 224 255
200 224 255
200 224 255
200 224 255
200 224 255
200 224 255
200 224 255
200 224 255
200 224 255
201 224 255
201 224 255
201 224 255
201 224 255
201 224 255
201 224 255
201 224 255
201 224 255
201 224 255
201 224 255
201 225 255
201 225 255
201 225 255
201 225 255
201 225 255
202 225 255
202 225 255
202 225 255
202 225 255
202 225 255
202 225 255
202 225 255
202 225 255
202 225 255
202 225 255
202 225 255
202 225 255
202 225 255
202 225 255
202 225 255
203 225 255
203 225 255
203 225 255
203 225 255
203 225 255
203 225 255
203 225 255
203 225 255
203 225 255
203 225 255
203 226 255
203 226 255
203 226 255
203 226 255
203 226 255
203 226 255
203 226 255
204 226 255
204 226 255
204 226 255
204 226 255
204 226 255
204 226 255
204 226 255
204 226 255
204 226 255
204 226 255
204 226 255
204 226 255
204 226 255
204 226 255
204 226 255
204 226 255
204 226 255
204 226 255
205 226 255
205 226 255
205 226 255
205 226 255
205 226 255
205 226 255
204 226 255
204 226 255
204 226 255
204 226 255
204 226 255
204 226 255
204 226 255
204 226 255
204 226 255
204 226 255
204 226 255
204 226 255
204 226 255
204 226 255
204 226 255
204 226 255
204 226 255
204 226 255
203 226 255
203 226 255
203 226 255
203 226 255
203 226 255
203 226 255
203 226 255
203 226 255
203 225 255
203 225 255
203 225 255
203 225 255
203 225 255
203 225 255
203 225 255
203 225 255
203 225 255
202 225 255
202 225 255
202 225 255
202 225 255
202 225 255
202 225 255
202 225 255
202 225 255
202 225 255
202 225 255
202 225 255
202 225 255
202 225 255
202 225 255
202 225 255
201 225 255
201 225 255
201 225 255
201 225 255
201 225 255
201 224 255
201 224 255
201 224 255
201 224 255
201 224 255
201 224 255
201 224 255
201 224 255
201 224 255
201 224 255
200 224 255
200 224 255
200 224 255
200 224 255
200 224 255
200 224 255
200 224 255
200 224 255
200 224 255
200 224 255
200 224 255
200 224 255
200 224 255
200 224 255
200 224 255
199 224 255
199 224 255
199 223 255
199 223 255
199 223 255
199 223 255
199 223 255
199 223 255
199 223 255
199 223 255
199 223 255
199 223 255
199 223 255
199 223 255
198 223 255
198 223 255
198 223 255
198 223 255
198 223 255
198 223 255
198 223 255
198 223 255
198 223 255
198 223 255
198 223 255
198 223 255
198 223 255
198 223 255
197 223 255
197 222 255
197 222 255
197 222 255
197 222 255
197 222 255
197 222 255
197 222 255
197 222 255
197 222 255
197 222 255
197 222 255
197 222 255
197 222 255
197 222 255
196 222 255
196 222 255
196 222 255
196 222 255
196 222 255
196 222 255
196 222 255
196 222 255
196 222 255
196 222 255
196 222 255
196 222 255
196 222 255
196 222 255
196 222 255
196 221 255
196 221 255
195 221 255
195 221 255
195 221 255
195 221 255
195 221 255
195 221 255
195 221 255
195 221 255
195 221 255
195 221 255
195 221 255
195 221 255
195 221 255
195 221 255
195 221 255
195 221 255
195 221 255
195 221 255
195 221 255
195 221 255
195 221 255
194 221 255
194 221 255
194 221 255
194 221 255
194 221 255
194 221 255
194 221 255
194 221 255
194 221 255
194 221 255
194 221 255
194 221 255
194 221 255
194 221 255
194 221 255
194 221 255
194 221 255
194 221 255
194 221 255
194 221 255
194 221 255
194 221 255
194 221 255
194 221 255
194 221 255
194 221 255
194 221 255
194 221 255
194 221 255
194 221 255
194 221 255
194 221 255
194 221 255
194 221 255
194 221 255
194 221 255
194 221 255
194 221 255
194 221 255
194 221 255
194 221 255
194 221 255
194 221 255
194 221 255
194 221 255
194 221 255
194 221 255
194 221 255
194 221 255
194 221 255
194 221 255
194 221 255
194 221 255
194 221 255
194 221 255
194 221 255
194 221 255
194 221 255
194 221 255
194 221 255
194 221 255
194 221 255
194 221 255
194 221 255
194 221 255
194 221 255
194 221 255
194 221 255
194 221 255
194 221 255
195 221 255
195 221 255
195 221 255
195 221 255
195 221 255
195 221 255
195 221 255
195 221 255
195 221 255
195 221 255
195 221 255
195 221 255
195 221 255
195 221 255
195 221 255
195 221 255
195 221 255
195 221 255
195 221 255
195 221 255
195 221 255
196 221 255
196 221 255
196 222 255
196 222 255
196 222 255
196 222 255
196 222 255
196 222 255
196 222 255
196 222 255
196 222 255
196 222 255
196 222 255
196 222 255
196 222 255
196 222 255
196 222 255
197 222 255
197 222 255
197 222 255
197 222 255
197 222 255
197 222 255
197 222 255
197 222 255
197 222 255
197 222 255
197 222 255
197 222 255
197 222 255
197 222 255
197 223 255
198 223 255
198 223 255
198 223 255
198 223 255
198 223 255
198 223 255
198 223 255
198 223 255
198 223 255
198 223 255
198 223 255
198 223 255
198 223 255
198 223 255
199 223 255
199 223 255
199 223 255
199 223 255
199 223 255
199 223 255
199 223 255
199 223 255
199 223 255
199 223 255
199 223 255
199 223 255
199 224 255
199 224 255
200 224 255
200 224 255
200 224 255
200 224 255
200 224 255
200 224 255
200 224 255
200 224 255
200 224 255
200 224 255
200 224 255
200 224 255
200 224 255
200 224 255
200 224 255
201 224 255
201 224 255
201 224 255
201 224 255
201 224 255
201 224 255
201 224 255
201 224 255
201 224 255
201 224 255
201 225 255
201 225 255
201 225 255
201 225 255
201 225 255
202 225 255
202 225 255
202 225 255
202 225 255
202 225 255
202 225 255
202 225 255
202 225 255
202 225 255
202 225 255
202 225 255
202 225 255
202 225 255
202 225 255
202 225 255
203 225 255
203 225 255
203 225 255
203 225 255
203 225 255
203 225 255
203 225 255
203 225 255
203 225 255
203 226 255
203 226 255
203 226 255
203 226 255
203 226 255
203 226 255
203 226 255
203 226 255
204 226 255
204 226 255
204 226 255
204 226 255
204 226 255
204 226 255
204 226 255
204 226 255
204 226 255
204 226 255
204 226 255
204 226 255
204 226 255
204 226 255
204 226 255
204 226 255
204 226 255
204 226 255
205 226 255
205 226 255
205 226 255
205 226 255
205 226 255
205 226 255
205 226 255
205 226 255
205 226 255
205 226 255
205 226 255
204 226 255
204 226 255
204 226 255
204 226 255
204 226 255
204 226 255
204 226 255
204 226 255
204 226 255
204 226 255
204 226 255
204 226 255
204 226 255
204 226 255
204 226 255
204 226 255
204 226 255
204 226 255
203 226 255
203 226 255
203 226 255
203 226 255
203 226 255
203 226 255
203 226 255
203 225 255
203 225 255
203 225 255
203 225 255
203 225 255
203 225 255
203 225 255
203 225 255
203 225 255
202 225 255
202 225 255
202 225 255
202 225 255
202 225 255
202 225 255
202 225 255
202 225 255
202 225 255
202 225 255
202 225 255
202 225 255
202 225 255
202 225 255
202 225 255
201 225 255
201 225 255
201 225 255
201 225 255
201 225 255
201 224 255
201 224 255
201 224 255
201 224 255
201 224 255
201 224 255
201 224 255
201 224 255
201 224 255
201 224 255
200 224 255
200 224 255
200 224 255
200 224 255
200 224 255
200 224 255
200 224 255
200 224 255
200 224 255
200 224 255
200 224 255
200 224 255
200 224 255
200 224 255
200 224 255
199 224 255
199 224 255
199 223 255
199 223 255
199 223 255
199 223 255
199 223 255
199 223 255
199 223 255
199 223 255
199 223 255
199 223 255
199 223 255
199 223 255
198 223 255
198 223 255
198 223 255
198 223 255
198 223 255
198 223 255
198 223 255
198 223 255
198 223 255
198 223 255
198 223 255
198 223 255
198 223 255
198 223 255
197 223 255
197 222 255
197 222 255
197 222 255
197 222 255
197 222 255
197 222 255
197 222 255
197 222 255
197 222 255
197 222 255
197 222 255
197 222 255
197 222 255
197 222 255
197 222 255
196 222 255
196 222 255
196 222 255
196 222 255
196 222 255
196 222 255
196 222 255
196 222 255
196 222 255
196 222 255
196 222 255
196 222 255
196 222 255
196 222 255
196 222 255
196 221 255
196 221 255
195 221 255
195 221 255
195 221 255
195 221 255
195 221 255
195 221 255
195 221 255
195 221 255
195 221 255
195 221 255
195 221 255
195 221 255
195 221 255
195 221 255
195 221 255
195 221 255
195 221 255
195 221 255
195 221 255
195 221 255
195 221 255
195 221 255
194 221 255
194 221 255
194 221 255
194 221 255
194 221 255
194 221 255
194 221 255
194 221 255
194 221 255
194 221 255
194 221 255
194 221 255
194 221 255
194 221 255
194 221 255
194 221 255
194 221 255
194 221 255
194 221 255
194 221 255
194 221 255
194 221 255
194 221 255
194 221 255
194 221 255
194 221 255
194 221 255
194 221 255
194 221 255
194 221 255
194 221 255
194 221 255
194 221 255
194 221 255
194 221 255
194 221 255
194 221 255
194 221 255
194 221 255
194 221 255
194 221 255
194 221 255
194 221 255
194 221 255
194 221 255
194 221 255
194 221 255
194 221 255
194 221 255
194 221 255
194 221 255
194 221 255
194 221 255
194 221 255
194 221 255
194 221 255
194 221 255
194 221 255
194 221 255
194 221 255
194 221 255
194 221 255
195 221 255
195 221 255
195 221 255
195 221 255
195 221 255
195 221 255
195 221 255
195 221 255
195 221 255
195 221 255
195 221 255
195 221 255
195 221 255
195 221 255
195 221 255
195 221 255
195 221 255
195 221 255
195 221 255
195 221 255
195 221 255
195 221 255
196 221 255
196 221 255
196 222 255
196 222 255
196 222 255
196 222 255
196 222 255
196 222 255
196 222 255
196 222 255
196 222 255
196 222 255
196 222 255
196 222 255
196 222 255
196 222 255
196 222 255
197 222 255
197 222 255
197 222 255
197 222 255
197 222 255
197 222 255
197 222 255
197 222 255
197 222 255
197 222 255
197 222 255
197 222 255
197 222 255
197 222 255
197 222 255
198 223 255
198 223 255
198 223 255
198 223 255
198 223 255
198 223 255
198 223 255
198 223 255
198 223 255
198 223 255
198 223 255
198 223 255
198 223 255
198 223 255
198 223 255
199 223 255
199 223 255
199 223 255
199 223 255
199 223 255
199 223 255
199 223 255
199 223 255
199 223 255
199 223 255
199 223 255
199 223 255
199 224 255
199 224 255
200 224 255
200 224 255
200 224 255
200 224 255
200 224 255
200 224 255
200 224 255
200 224 255
200 224 255
200 224 255
200 224 255
200 224 255
200 224 255
200 224 255
200 224 255
201 224 255
201 224 255
201 224 255
201 224 255
201 224 255
201 224 255
201 224 255
201 224 255
201 224 255
201 224 255
201 225 255
201 225 255
201 225 255
201 225 255
201 225 255
202 225 255
202 225 255
202 225 255
202 225 255
202 225 255
202 225 255
202 225 255
202 225 255
202 225 255
202 225 255
202 225 255
202 225 255
202 225 255
202 225 255
202 225 255
203 225 255
203 225 255
203 225 255
203 225 255
203 225 255
203 225 255
203 225 255
203 225 255
203 225 255
203 226 255
203 226 255
203 226 255
203 226 255
203 226 255
203 226 255
203 226 255
203 226 255
204 226 255
204 226 255
204 226 255
204 226 255
204 226 255
204 226 255
204 226 255
204 226 255
204 226 255
204 226 255
204 226 255
204 226 255
204 226 255
204 226 255
204 226 255
204 226 255
204 226 255
205 226 255
205 226 255
205 226 255
205 226 255
205 226 255
205 226 255
205 226 255
205 227 255
205 227 255
205 226 255
205 226 255
205 226 255
205 226 255
205 226 255
205 226 255
205 226 255
204 226 255
204 226 255
204 226 255
204 226 255
204 226 255
204 226 255
204 226 255
204 226 255
204 226 255
204 226 255
204 226 255
204 226 255
204 226 255
204 226 255
204 226 255
204 226 255
204 226 255
204 226 255
203 226 255
203 226 255
203 226 255
203 226 255
203 226 255
203 226 255
203 226 255
203 225 255
203 225 255
203 225 255
203 225 255
203 225 255
203 225 255
203 225 255
203 225 255
203 225 255
202 225 255
202 225 255
202 225 255
202 225 255
202 225 255
202 225 255
202 225 255
202 225 255
202 225 255
202 225 255
202 225 255
202 225 255
202 225 255
202 225 255
202 225 255
201 225 255
201 225 255
201 225 255
201 225 255
201 225 255
201 224 255
201 224 255
201 224 255
201 224 255
201 224 255
201 224 255
201 224 255
201 224 255
201 224 255
201 224 255
200 224 255
200 224 255
200 224 255
200 224 255
200 224 255
200 224 255
200 224 255
200 224 255
200 224 255
200 224 255
200 224 255
200 224 255
200 224 255
200 224 255
200 224 255
199 224 255
199 224 255
199 223 255
199 223 255
199 223 255
199 223 255
199 223 255
199 223 255
199 223 255
199 223 255
199 223 255
199 223 255
199 223 255
199 223 255
198 223 255
198 223 255
198 223 255
198 223 255
198 223 255
198 223 255
198 223 255
198 223 255
198 223 255
198 223 255
198 223 255
198 223 255
198 223 255
198 223 255
198 223 255
197 222 255
197 222 255
197 222 255
197 222 255
197 222 255
197 222 255
197 222 255
197 222 255
197 222 255
197 222 255
197 222 255
197 222 255
197 222 255
197 222 255
197 222 255
196 222 255
196 222 255
196 222 255
196 222 255
196 222 255
196 222 255
196 222 255
196 222 255
196 222 255
196 222 255
196 222 255
196 222 255
196 222 255
196 222 255
196 222 255
196 222 255
196 221 255
195 221 255
195 221 255
195 221 255
195 221 255
195 221 255
195 221 255
195 221 255
195 221 255
195 221 255
195 221 255
195 221 255
195 221 255
195 221 255
195 221 255
195 221 255
195 221 255
195 221 255
195 221 255
195 221 255
195 221 255
195 221 255
195 221 255
195 221 255
195 221 255
194 221 255
194 221 255
194 221 255
194 221 255
194 221 255
194 221 255
194 221 255
194 221 255
194 221 255
194 221 255
194 221 255
194 221 255
194 221 255
194 221 255
194 221 255
194 221 255
194 221 255
194 221 255
194 221 255
194 221 255
194 221 255
194 221 255
194 221 255
194 221 255
194 221 255
194 221 255
194 221 255
194 221 255
194 221 255
194 221 255
194 221 255
194 221 255
194 221 255
194 221 255
194 221 255
194 221 255
194 221 255
194 221 255
194 221 255
194 221 255
194 221 255
194 221 255
194 221 255
194 221 255
194 221 255
194 221 255
194 221 255
194 221 255
194 221 255
194 221 255
194 221 255
194 221 255
194 221 255
194 221 255
195 221 255
195 221 255
195 221 255
195 221 255
195 221 255
195 221 255
195 221 255
195 221 255
195 221 255
195 221 255
195 221 255
195 221 255
195 221 255
195 221 255
195 221 255
195 221 255
195 221 255
195 221 255
195 221 255
195 221 255
195 221 255
195 221 255
195 221 255
196 221 255
196 221 255
196 222 255
196 222 255
196 222 255
196 222 255
196 222 255
196 222 255
196 222 255
196 222 255
196 222 255
196 222 255
196 222 255
196 222 255
196 222 255
196 222 255
196 222 255
196 222 255
197 222 255
197 222 255
197 222 255
197 222 255
197 222 255
197 222 255
197 222 255
197 222 255
197 222 255
197 222 255
197 222 255
197 222 255
197 222 255
197 222 255
197 222 255
198 223 255
198 223 255
198 223 255
198 223 255
198 223 255
198 223 255
198 223 255
198 223 255
198 223 255
198 223 255
198 223 255
198 223 255
198 223 255
198 223 255
198 223 255
199 223 255
199 223 255
199 223 255
199 223 255
199 223 255
199 223 255
199 223 255
199 223 255
199 223 255
199 223 255
199 223 255
199 223 255
199 224 255
199 224 255
200 224 255
200 224 255
200 224 255
200 224 255
200 224 255
200 224 255
200 224 255
200 224 255
200 224 255
200 224 255
200 224 255
200 224 255
200 224 255
200 224 255
201 224 255
201 224 255
201 224 255
201 224 255
201 224 255
201 224 255
201 224 255
201 224 255
201 224 255
201 224 255
201 224 255
201 225 255
201 225 255
201 225 255
201 225 255
202 225 255
202 225 255
202 225 255
202 225 255
202 225 255
202 225 255
202 225 255
202 225 255
202 225 255
202 225 255
202 225 255
202 225 255
202 225 255
202 225 255
202 225 255
202 225 255
203 225 255
203 225 255
203 225 255
203 225 255
203 225 255
203 225 255
203 225 255
203 225 255
203 225 255
203 226 255
203 226 255
203 226 255
203 226 255
203 226 255
203 226 255
203 226 255
204 226 255
204 226 255
204 226 255
204 226 255
204 226 255
204 226 255
204 226 255
204 226 255
204 226 255
204 226 255
204 226 255
204 226 255
204 226 255
204 226 255
204 226 255
204 226 255
204 226 255
204 226 255
205 226 255
205 226 255
205 226 255
205 226 255
205 226 255
205 226 255
205 226 255
205 227 255
205 227 255
205 227 255
205 227 255
205 227 255
205 227 255
205 226 255
205 226 255
205 226 255
205 226 255
205 226 255
205 226 255
205 226 255
205 226 255
204 226 255
204 226 255
204 226 255
204 226 255
204 226 255
204 226 255
204 226 255
204 226 255
204 226 255
204 226 255
204 226 255
204 226 255
204 226 255
204 226 255
204 226 255
204 226 255
204 226 255
203 226 255
203 226 255
203 226 255
203 226 255
203 226 255
203 226 255
203 226 255
203 225 255
203 225 255
203 225 255
203 225 255
203 225 255
203 225 255
203 225 255
203 225 255
203 225 255
202 225 255
202 225 255
202 225 255
202 225 255
202 225 255
202 225 255
202 225 255
202 225 255
202 225 255
202 225 255
202 225 255
202 225 255
202 225 255
202 225 255
202 225 255
202 225 255
201 225 255
201 225 255
201 225 255
201 225 255
201 224 255
201 224 255
201 224 255
201 224 255
201 224 255
201 224 255
201 224 255
201 224 255
201 224 255
201 224 255
201 224 255
200 224 255
200 224 255
200 224 255
200 224 255
200 224 255
200 224 255
200 224 255
200 224 255
200 224 255
200 224 255
200 224 255
200 224 255
200 224 255
200 224 255
199 224 255
199 224 255
199 223 255
199 223 255
199 223 255
199 223 255
199 223 255
199 223 255
199 223 255
199 223 255
199 223 255
199 223 255
199 223 255
199 223 255
198 223 255
198 223 255
198 223 255
198 223 255
198 223 255
198 223 255
198 223 255
198 223 255
198 223 255
198 223 255
198 223 255
198 223 255
198 223 255
198 223 255
198 223 255
197 222 255
197 222 255
197 222 255
197 222 255
197 222 255
197 222 255
197 222 255
197 222 255
197 222 255
197 222 255
197 222 255
197 222 255
197 222 255
197 222 255
197 222 255
196 222 255
196 222 255
196 222 255
196 222 255
196 222 255
196 222 255
196 222 255
196 222 255
196 222 255
196 222 255
196 222 255
196 222 255
196 222 255
196 222 255
196 222 255
196 222 255
196 221 255
196 221 255
195 221 255
195 221 255
195 221 255
195 221 255
195 221 255
195 221 255
195 221 255
195 221 255
195 221 255
195 221 255
195 221 255
195 221 255
195 221 255
195 221 255
195 221 255
195 221 255
195 221 255
195 221 255
195 221 255
195 221 255
195 221 255
195 221 255
195 221 255
195 221 255
195 221 255
195 221 255
194 221 255
194 221 255
194 221 255
194 221 255
194 221 255
194 221 255
194 221 255
194 221 255
194 221 255
194 221 255
194 221 255
194 221 255
194 221 255
194 221 255
194 221 255
194 221 255
194 221 255
194 221 255
194 221 255
194 221 255
194 221 255
194 221 255
194 221 255
194 221 255
194 221 255
194 221 255
194 221 255
194 221 255
194 221 255
194 221 255
194 221 255
194 221 255
194 221 255
194 221 255
194 221 255
194 221 255
194 221 255
194 221 255
194 221 255
194 221 255
194 221 255
194 221 255
194 221 255
194 221 255
195 221 255
195 221 255
195 221 255
195 221 255
195 221 255
195 221 255
195 221 255
195 221 255
195 221 255
195 221 255
195 221 255
195 221 255
195 221 255
195 221 255
195 221 255
195 221 255
195 221 255
195 221 255
195 221 255
195 221 255
195 221 255
195 221 255
195 221 255
195 221 255
195 221 255
195 221 255
196 221 255
196 222 255
196 222 255
196 222 255
196 222 255
196 222 255
196 222 255
196 222 255
196 222 255
196 222 255
196 222 255
196 222 255
196 222 255
196 222 255
196 222 255
196 222 255
196 222 255
196 222 255
197 222 255
197 222 255
197 222 255
197 222 255
197 222 255
197 222 255
197 222 255
197 222 255
197 222 255
197 222 255
197 222 255
197 222 255
197 222 255
197 222 255
197 222 255
198 223 255
198 223 255
198 223 255
198 223 255
198 223 255
198 223 255
198 223 255
198 223 255
198 223 255
198 223 255
198 223 255
198 223 255
198 223 255
198 223 255
198 223 255
199 223 255
199 223 255
199 223 255
199 223 255
199 223 255
199 223 255
199 223 255
199 223 255
199 223 255
199 223 255
199 223 255
199 223 255
199 224 255
199 224 255
200 224 255
200 224 255
200 224 255
200 224 255
200 224 255
200 224 255
200 224 255
200 224 255
200 224 255
200 224 255
200 224 255
200 224 255
200 224 255
200 224 255
200 224 255
201 224 255
201 224 255
201 224 255
201 224 255
201 224 255
201 224 255
201 224 255
201 224 255
201 224 255
201 224 255
201 225 255
201 225 255
201 225 255
201 225 255
202 225 255
202 225 255
202 225 255
202 225 255
202 225 255
202 225 255
202 225 255
202 225 255
202 225 255
202 225 255
202 225 255
202 225 255
202 225 255
202 225 255
202 225 255
202 225 255
203 225 255
203 225 255
203 225 255
203 225 255
203 225 255
203 225 255
203 225 255
203 225 255
203 225 255
203 226 255
203 226 255
203 226 255
203 226 255
203 226 255
203 226 255
203 226 255
204 226 255
204 226 255
204 226 255
204 226 255
204 226 255
204 226 255
204 226 255
204 226 255
204 226 255
204 226 255
204 226 255
204 226 255
204 226 255
204 226 255
204 226 255
204 226 255
204 226 255
205 226 255
205 226 255
205 226 255
205 226 255
205 226 255
205 226 255
205 226 255
205 226 255
205 227 255
205 227 255
205 227 255
205 227 255
205 227 255
205 227 255
205 227 255
205 227 255
205 227 255
205 227 255
205 227 255
205 226 255
205 226 255
205 226 255
205 226 255
205 226 255
205 226 255
205 226 255
204 226 255
204 226 255
204 226 255
204 226 255
204 226 255
204 226 255
204 226 255
204 226 255
204 226 255
204 226 255
204 226 255
204 226 255
204 226 255
204 226 255
204 226 255
204 226 255
204 226 255
203 226 255
203 226 255
203 226 255
203 226 255
203 226 255
203 226 255
203 226 255
203 226 255
203 225 255
203 225 255
203 225 255
203 225 255
203 225 255
203 225 255
203 225 255
203 225 255
203 225 255
202 225 255
202 225 255
202 225 255
202 225 255
202 225 255
202 225 255
202 225 255
202 225 255
202 225 255
202 225 255
202 225 255
202 225 255
202 225 255
202 225 255
202 225 255
201 225 255
201 225 255
201 225 255
201 225 255
201 224 255
201 224 255
201 224 255
201 224 255
201 224 255
201 224 255
201 224 255
201 224 255
201 224 255
201 224 255
201 224 255
200 224 255
200 224 255
200 224 255
200 224 255
200 224 255
200 224 255
200 224 255
200 224 255
200 224 255
200 224 255
200 224 255
200 224 255
200 224 255
200 224 255
199 224 255
199 224 255
199 223 255
199 223 255
199 223 255
199 223 255
199 223 255
199 223 255
199 223 255
199 223 255
199 223 255
199 223 255
199 223 255
199 223 255
199 223 255
198 223 255
198 223 255
198 223 255
198 223 255
198 223 255
198 223 255
198 223 255
198 223 255
198 223 255
198 223 255
198 223 255
198 223 255
198 223 255
198 223 255
197 223 255
197 222 255
197 222 255
197 222 255
197 222 255
197 222 255
197 222 255
197 222 255
197 222 255
197 222 255
197 222 255
197 222 255
197 222 255
197 222 255
197 222 255
197 222 255
196 222 255
196 222 255
196 222 255
196 222 255
196 222 255
196 222 255
196 222 255
196 222 255
196 222 255
196 222 255
196 222 255
196 222 255
196 222 255
196 222 255
196 222 255
196 222 255
196 222 255
196 221 255
195 221 255
195 221 255
195 221 255
195 221 255
195 221 255
195 221 255
195 221 255
195 221 255
195 221 255
195 221 255
195 221 255
195 221 255
195 221 255
195 221 255
195 221 255
195 221 255
195 221 255
195 221 255
195 221 255
195 221 255
195 221 255
195 221 255
195 221 255
195 221 255
195 221 255
195 221 255
195 221 255
195 221 255
195 221 255
195 221 255
194 221 255
194 221 255
194 221 255
194 221 255
194 221 255
194 221 255
194 221 255
194 221 255
194 221 255
194 221 255
194 221 255
194 221 255
194 221 255
194 221 255
194 221 255
194 221 255
194 221 255
194 221 255
194 221 255
194 221 255
194 221 255
194 221 255
194 221 255
194 221 255
194 221 255
194 221 255
194 221 255
194 221 255
194 221 255
194 221 255
195 221 255
195 221 255
195 221 255
195 221 255
195 221 255
195 221 255
195 221 255
195 221 255
195 221 255
195 221 255
195 221 255
195 221 255
195 221 255
195 221 255
195 221 255
195 221 255
195 221 255
195 221 255
195 221 255
195 221 255
195 221 255
195 221 255
195 221 255
195 221 255
195 221 255
195 221 255
195 221 255
195 221 255
195 221 255
195 221 255
196 221 255
196 222 255
196 222 255
196 222 255
196 222 255
196 222 255
196 222 255
196 222 255
196 222 255
196 222 255
196 222 255
196 222 255
196 222 255
196 222 255
196 222 255
196 222 255
196 222 255
196 222 255
197 222 255
197 222 255
197 222 255
197 222 255
197 222 255
197 222 255
197 222 255
197 222 255
197 222 255
197 222 255
197 222 255
197 222 255
197 222 255
197 222 255
197 222 255
197 222 255
198 223 255
198 223 255
198 223 255
198 223 255
198 223 255
198 223 255
198 223 255
198 223 255
198 223 255
198 223 255
198 223 255
198 223 255
198 223 255
198 223 255
198 223 255
199 223 255
199 223 255
199 223 255
199 223 255
199 223 255
199 223 255
199 223 255
199 223 255
199 223 255
199 223 255
199 223 255
199 223 255
199 224 255
199 224 255
200 224 255
200 224 255
200 224 255
200 224 255
200 224 255
200 224 255
200 224 255
200 224 255
200 224 255
200 224 255
200 224 255
200 224 255
200 224 255
200 224 255
201 224 255
201 224 255
201 224 255
201 224 255
201 224 255
201 224 255
201 224 255
201 224 255
201 224 255
201 224 255
201 224 255
201 225 255
201 225 255
201 225 255
201 225 255
202 225 255
202 225 255
202 225 255
202 225 255
202 225 255
202 225 255
202 225 255
202 225 255
202 225 255
202 225 255
202 225 255
202 225 255
202 225 255
202 225 255
202 225 255
203 225 255
203 225 255
203 225 255
203 225 255
203 225 255
203 225 255
203 225 255
203 225 255
203 225 255
203 226 255
203 226 255
203 226 255
203 226 255
203 226 255
203 226 255
203 226 255
203 226 255
204 226 255
204 226 255
204 226 255
204 226 255
204 226 255
204 226 255
204 226 255
204 226 255
204 226 255
204 226 255
204 226 255
204 226 255
204 226 255
204 226 255
204 226 255
204 226 255
204 226 255
205 226 255
205 226 255
205 226 255
205 226 255
205 226 255
205 226 255
205 226 255
205 227 255
205 227 255
205 227 255
205 227 255
205 227 255
205 227 255
205 227 255
205 227 255
205 227 255
205 227 255
205 227 255
205 227 255
205 227 255
205 227 255
205 227 255
205 227 255
205 226 255
205 226 255
205 226 255
205 226 255
205 226 255
205 226 255
205 226 255
204 226 255
204 226 255
204 226 255
204 226 255
204 226 255
204 226 255
204 226 255
204 226 255
204 226 255
204 226 255
204 226 255
204 226 255
204 226 255
204 226 255
204 226 255
204 226 255
204 226 255
204 226 255
203 226 255
203 226 255
203 226 255
203 226 255
203 226 255
203 226 255
203 226 255
203 225 255
203 225 255
203 225 255
203 225 255
203 225 255
203 225 255
203 225 255
203 225 255
203 225 255
202 225 255
202 225 255
202 225 255
202 225 255
202 225 255
202 225 255
202 225 255
202 225 255
202 225 255
202 225 255
202 225 255
202 225 255
202 225 255
202 225 255
202 225 255
201 225 255
201 225 255
201 225 255
201 225 255
201 225 255
201 224 255
201 224 255
201 224 255
201 224 255
201 224 255
201 224 255
201 224 255
201 224 255
201 224 255
201 224 255
200 224 255
200 224 255
200 224 255
200 224 255
200 224 255
200 224 255
200 224 255
200 224 255
200 224 255
200 224 255
200 224 255
200 224 255
200 224 255
200 224 255
199 224 255
199 224 255
199 224 255
199 223 255
199 223 255
199 223 255
199 223 255
199 223 255
199 223 255
199 223 255
199 223 255
199 223 255
199 223 255
199 223 255
199 223 255
198 223 255
198 223 255
198 223 255
198 223 255
198 223 255
198 223 255
198 223 255
198 223 255
198 223 255
198 223 255
198 223 255
198 223 255
198 223 255
198 223 255
197 223 255
197 222 255
197 222 255
197 222 255
197 222 255
197 222 255
197 222 255
197 222 255
197 222 255
197 222 255
197 222 255
197 222 255
197 222 255
197 222 255
197 222 255
197 222 255
196 222 255
196 222 255
196 222 255
196 222 255
196 222 255
196 222 255
196 222 255
196 222 255
196 222 255
196 222 255
196 222 255
196 222 255
196 222 255
196 222 255
196 222 255
196 222 255
196 222 255
196 222 255
196 221 255
195 221 255
195 221 255
195 221 255
195 221 255
195 221 255
195 221 255
195 221 255
195 221 255
195 221 255
195 221 255
195 221 255
195 221 255
195 221 255
195 221 255
195 221 255
195 221 255
195 221 255
195 221 255
195 221 255
195 221 255
195 221 255
195 221 255
195 221 255
195 221 255
195 221 255
195 221 255
195 221 255
195 221 255
195 221 255
195 221 255
195 221 255
195 221 255
195 221 255
195 221 255
195 221 255
195 221 255
195 221 255
195 221 255
195 221 255
195 221 255
195 221 255
195 221 255
195 221 255
195 221 255
195 221 255
195 221 255
195 221 255
195 221 255
195 221 255
195 221 255
195 221 255
195 221 255
195 221 255
195 221 255
195 221 255
195 221 255
195 221 255
195 221 255
195 221 255
195 221 255
195 221 255
195 221 255
195 221 255
195 221 255
195 221 255
195 221 255
195 221 255
195 221 255
195 221 255
195 221 255
195 221 255
195 221 255
195 221 255
195 221 255
195 221 255
195 221 255
195 221 255
195 221 255
195 221 255
195 221 255
195 221 255
195 221 255
195 221 255
195 221 255
196 221 255
196 222 255
196 222 255
196 222 255
196 222 255
196 222 255
196 222 255
196 222 255
196 222 255
196 222 255
196 222 255
196 222 255
196 222 255
196 222 255
196 222 255
196 222 255
196 222 255
196 222 255
197 222 255
197 222 255
197 222 255
197 222 255
197 222 255
197 222 255
197 222 255
197 222 255
197 222 255
197 222 255
197 222 255
197 222 255
197 222 255
197 222 255
197 222 255
197 222 255
197 223 255
198 223 255
198 223 255
198 223 255
198 223 255
198 223 255
198 223 255
198 223 255
198 223 255
198 223 255
198 223 255
198 223 255
198 223 255
198 223 255
198 223 255
199 223 255
199 223 255
199 223 255
199 223 255
199 223 255
199 223 255
199 223 255
199 223 255
199 223 255
199 223 255
199 223 255
199 223 255
199 224 255
199 224 255
199 224 255
200 224 255
200 224 255
200 224 255
200 224 255
200 224 255
200 224 255
200 224 255
200 224 255
200 224 255
200 224 255
200 224 255
200 224 255
200 224 255
200 224 255
201 224 255
201 224 255
201 224 255
201 224 255
201 224 255
201 224 255
201 224 255
201 224 255
201 224 255
201 224 255
201 225 255
201 225 255
201 225 255
201 225 255
201 225 255
202 225 255
202 225 255
202 225 255
202 225 255
202 225 255
202 225 255
202 225 255
202 225 255
202 225 255
202 225 255
202 225 255
202 225 255
202 225 255
202 225 255
202 225 255
203 225 255
203 225 255
203 225 255
203 225 255
203 225 255
203 225 255
203 225 255
203 225 255
203 225 255
203 226 255
203 226 255
203 226 255
203 226 255
203 226 255
203 226 255
203 226 255
204 226 255
204 226 255
204 226 255
204 226 255
204 226 255
204 226 255
204 226 255
204 226 255
204 226 255
204 226 255
204 226 255
204 226 255
204 226 255
204 226 255
204 226 255
204 226 255
204 226 255
204 226 255
205 226 255
205 226 255
205 226 255
205 226 255
205 226 255
205 226 255
205 226 255
205 227 255
205 227 255
205 227 255
205 227 255
205 227 255
205 227 255
205 227 255
205 227 255
205 227 255
205 227 255
205 227 255
205 227 255
205 227 255
205 227 255
205 227 255
205 227 255
205 227 255
205 227 255
205 227 255
205 227 255
205 227 255
205 226 255
205 226 255
205 226 255
205 226 255
205 226 255
205 226 255
205 226 255
204 226 255
204 226 255
204 226 255
204 226 255
204 226 255
204 226 255
204 226 255
204 226 255
204 226 255
204 226 255
204 226 255
204 226 255
204 226 255
204 226 255
204 226 255
204 226 255
204 226 255
203 226 255
203 226 255
203 226 255
203 226 255
203 226 255
203 226 255
203 226 255
203 225 255
203 225 255
203 225 255
203 225 255
203 225 255
203 225 255
203 225 255
203 225 255
203 225 255
202 225 255
202 225 255
202 225 255
202 225 255
202 225 255
202 225 255
202 225 255
202 225 255
202 225 255
202 225 255
202 225 255
202 225 255
202 225 255
202 225 255
202 225 255
201 225 255
201 225 255
201 225 255
201 225 255
201 225 255
201 224 255
201 224 255
201 224 255
201 224 255
201 224 255
201 224 255
201 224 255
201 224 255
201 224 255
201 224 255
200 224 255
200 224 255
200 224 255
200 224 255
200 224 255
200 224 255
200 224 255
200 224 255
200 224 255
200 224 255
200 224 255
200 224 255
200 224 255
200 224 255
199 224 255
199 224 255
199 224 255
199 223 255
199 223 255
199 223 255
199 223 255
199 223 255
199 223 255
199 223 255
199 223 255
199 223 255
199 223 255
199 223 255
199 223 255
198 223 255
198 223 255
198 223 255
198 223 255
198 223 255
198 223 255
198 223 255
198 223 255
198 223 255
198 223 255
198 223 255
198 223 255
198 223 255
198 223 255
198 223 255
197 222 255
197 222 255
197 222 255
197 222 255
197 222 255
197 222 255
197 222 255
197 222 255
197 222 255
197 222 255
197 222 255
197 222 255
197 222 255
197 222 255
197 222 255
197 222 255
196 222 255
196 222 255
196 222 255
196 222 255
196 222 255
196 222 255
196 222 255
196 222 255
196 222 255
196 222 255
196 222 255
196 222 255
196 222 255
196 222 255
196 222 255
196 222 255
196 222 255
196 222 255
196 221 255
196 221 255
195 221 255
195 221 255
195 221 255
195 221 255
195 221 255
195 221 255
195 221 255
195 221 255
195 221 255
195 221 255
195 221 255
195 221 255
195 221 255
195 221 255
195 221 255
195 221 255
195 221 255
195 221 255
195 221 255
195 221 255
195 221 255
195 221 255
195 221 255
195 221 255
195 221 255
195 221 255
195 221 255
195 221 255
195 221 255
195 221 255
195 221 255
195 221 255
195 221 255
195 221 255
195 221 255
195 221 255
195 221 255
195 221 255
195 221 255
195 221 255
195 221 255
195 221 255
195 221 255
195 221 255
195 221 255
195 221 255
195 221 255
195 221 255
195 221 255
195 221 255
195 221 255
195 221 255
195 221 255
195 221 255
195 221 255
195 221 255
195 221 255
195 221 255
195 221 255
195 221 255
195 221 255
195 221 255
195 221 255
195 221 255
195 221 255
195 221 255
195 221 255
195 221 255
195 221 255
195 221 255
195 221 255
195 221 255
195 221 255
195 221 255
195 221 255
195 221 255
196 221 255
196 221 255
196 222 255
196 222 255
196 222 255
196 222 255
196 222 255
196 222 255
196 222 255
196 222 255
196 222 255
196 222 255
196 222 255
196 222 255
196 222 255
196 222 255
196 222 255
196 222 255
196 222 255
196 222 255
197 222 255
197 222 255
197 222 255
197 222 255
197 222 255
197 222 255
197 222 255
197 222 255
197 222 255
197 222 255
197 222 255
197 222 255
197 222 255
197 222 255
197 222 255
197 222 255
198 223 255
198 223 255
198 223 255
198 223 255
198 223 255
198 223 255
198 223 255
198 223 255
198 223 255
198 223 255
198 223 255
198 223 255
198 223 255
198 223 255
198 223 255
199 223 255
199 223 255
199 223 255
199 223 255
199 223 255
199 223 255
199 223 255
199 223 255
199 223 255
199 223 255
199 223 255
199 223 255
199 224 255
199 224 255
199 224 255
200 224 255
200 224 255
200 224 255
200 224 255
200 224 255
200 224 255
200 224 255
200 224 255
200 224 255
200 224 255
200 224 255
200 224 255
200 224 255
200 224 255
201 224 255
201 224 255
201 224 255
201 224 255
201 224 255
201 224 255
201 224 255
201 224 255
201 224 255
201 224 255
201 225 255
201 225 255
201 225 255
201 225 255
201 225 255
202 225 255
202 225 255
202 225 255
202 225 255
202 225 255
202 225 255
202 225 255
202 225 255
202 225 255
202 225 255
202 225 255
202 225 255
202 225 255
202 225 255
202 225 255
203 225 255
203 225 255
203 225 255
203 225 255
203 225 255
203 225 255
203 225 255
203 225 255
203 225 255
203 226 255
203 226 255
203 226 255
203 226 255
203 226 255
203 226 255
203 226 255
204 226 255
204 226 255
204 226 255
204 226 255
204 226 255
204 226 255
204 226 255
204 226 255
204 226 255
204 226 255
204 226 255
204 226 255
204 226 255
204 226 255
204 226 255
204 226 255
204 226 255
205 226 255
205 226 255
205 226 255
205 226 255
205 226 255
205 226 255
205 226 255
205 227 255
205 227 255
205 227 255
205 227 255
205 227 255
205 227 255
205 227 255
205 227 255
205 227 255
205 227 255
205 227 255
205 227 255
206 227 255
206 227 255
206 227 255
205 227 255
205 227 255
205 227 255
205 227 255
205 227 255
205 227 255
205 227 255
205 227 255
205 227 255
205 227 255
205 227 255
205 226 255
205 226 255
205 226 255
205 226 255
205 226 255
205 226 255
205 226 255
204 226 255
204 226 255
204 226 255
204 226 255
204 226 255
204 226 255
204 226 255
204 226 255
204 226 255
204 226 255
204 226 255
204 226 255
204 226 255
204 226 255
204 226 255
204 226 255
204 226 255
203 226 255
203 226 255
203 226 255
203 226 255
203 226 255
203 226 255
203 226 255
203 226 255
203 225 255
203 225 255
203 225 255
203 225 255
203 225 255
203 225 255
203 225 255
203 225 255
202 225 255
202 225 255
202 225 255
202 225 255
202 225 255
202 225 255
202 225 255
202 225 255
202 225 255
202 225 255
202 225 255
202 225 255
202 225 255
202 225 255
202 225 255
202 225 255
201 225 255
201 225 255
201 225 255
201 225 255
201 224 255
201 224 255
201 224 255
201 224 255
201 224 255
201 224 255
201 224 255
201 224 255
201 224 255
201 224 255
200 224 255
200 224 255
200 224 255
200 224 255
200 224 255
200 224 255
200 224 255
200 224 255
200 224 255
200 224 255
200 224 255
200 224 255
200 224 255
200 224 255
200 224 255
199 224 255
199 224 255
199 223 255
199 223 255
199 223 255
199 223 255
199 223 255
199 223 255
199 223 255
199 223 255
199 223 255
199 223 255
199 223 255
199 223 255
198 223 255
198 223 255
198 223 255
198 223 255
198 223 255
198 223 255
198 223 255
198 223 255
198 223 255
198 223 255
198 223 255
198 223 255
198 223 255
198 223 255
198 223 255
197 223 255
197 222 255
197 222 255
197 222 255
197 222 255
197 222 255
197 222 255
197 222 255
197 222 255
197 222 255
197 222 255
197 222 255
197 222 255
197 222 255
197 222 255
197 222 255
197 222 255
196 222 255
196 222 255
196 222 255
196 222 255
196 222 255
196 222 255
196 222 255
196 222 255
196 222 255
196 222 255
196 222 255
196 222 255
196 222 255
196 222 255
196 222 255
196 222 255
196 222 255
196 222 255
196 221 255
196 221 255
196 221 255
195 221 255
195 221 255
195 221 255
195 221 255
195 221 255
195 221 255
195 221 255
195 221 255
195 221 255
195 221 255
195 221 255
195 221 255
195 221 255
195 221 255
195 221 255
195 221 255
195 221 255
195 221 255
195 221 255
195 221 255
195 221 255
195 221 255
195 221 255
195 221 255
195 221 255
195 221 255
195 221 255
195 221 255
195 221 255
195 221 255
195 221 255
195 221 255
195 221 255
195 221 255
195 221 255
195 221 255
195 221 255
195 221 255
195 221 255
195 221 255
195 221 255
195 221 255
195 221 255
195 221 255
195 221 255
195 221 255
195 221 255
195 221 255
195 221 255
195 221 255
195 221 255
195 221 255
195 221 255
195 221 255
195 221 255
195 221 255
195 221 255
195 221 255
195 221 255
195 221 255
195 221 255
195 221 255
195 221 255
195 221 255
195 221 255
195 221 255
195 221 255
195 221 255
196 221 255
196 221 255
196 221 255
196 222 255
196 222 255
196 222 255
196 222 255
196 222 255
196 222 255
196 222 255
196 222 255
196 222 255
196 222 255
196 222 255
196 222 255
196 222 255
196 222 255
196 222 255
196 222 255
196 222 255
196 222 255
197 222 255
197 222 255
197 222 255
197 222 255
197 222 255
197 222 255
197 222 255
197 222 255
197 222 255
197 222 255
197 222 255
197 222 255
197 222 255
197 222 255
197 222 255
197 222 255
197 223 255
198 223 255
198 223 255
198 223 255
198 223 255
198 223 255
198 223 255
198 223 255
198 223 255
198 223 255
198 223 255
198 223 255
198 223 255
198 223 255
198 223 255
198 223 255
199 223 255
199 223 255
199 223 255
199 223 255
199 223 255
199 223 255
199 223 255
199 223 255
199 223 255
199 223 255
199 223 255
199 223 255
199 224 255
199 224 255
200 224 255
200 224 255
200 224 255
200 224 255
200 224 255
200 224 255
200 224 255
200 224 255
200 224 255
200 224 255
200 224 255
200 224 255
200 224 255
200 224 255
200 224 255
201 224 255
201 224 255
201 224 255
201 224 255
201 224 255
201 224 255
201 224 255
201 224 255
201 224 255
201 224 255
201 225 255
201 225 255
201 225 255
201 225 255
202 225 255
202 225 255
202 225 255
202 225 255
202 225 255
202 225 255
202 225 255
202 225 255
202 225 255
202 225 255
202 225 255
202 225 255
202 225 255
202 225 255
202 225 255
202 225 255
203 225 255
203 225 255
203 225 255
203 225 255
203 225 255
203 225 255
203 225 255
203 225 255
203 226 255
203 226 255
203 226 255
203 226 255
203 226 255
203 226 255
203 226 255
203 226 255
204 226 255
204 226 255
204 226 255
204 226 255
204 226 255
204 226 255
204 226 255
204 226 255
204 226 255
204 226 255
204 226 255
204 226 255
204 226 255
204 226 255
204 226 255
204 226 255
204 226 255
205 226 255
205 226 255
205 226 255
205 226 255
205 226 255
205 226 255
205 226 255
205 227 255
205 227 255
205 227 255
205 227 255
205 227 255
205 227 255
205 227 255
205 227 255
205 227 255
205 227 255
205 227 255
206 227 255
206 227 255
206 227 255
206 227 255
206 227 255
206 227 255
206 227 255
206 227 255
205 227 255
205 227 255
205 227 255
205 227 255
205 227 255
205 227 255
205 227 255
205 227 255
205 227 255
205 227 255
205 227 255
205 226 255
205 226 255
205 226 255
205 226 255
205 226 255
205 226 255
205 226 255
205 226 255
204 226 255
204 226 255
204 226 255
204 226 255
204 226 255
204 226 255
204 226 255
204 226 255
204 226 255
204 226 255
204 226 255
204 226 255
204 226 255
204 226 255
204 226 255
204 226 255
204 226 255
203 226 255
203 226 255
203 226 255
203 226 255
203 226 255
203 226 255
203 226 255
203 225 255
203 225 255
203 225 255
203 225 255
203 225 255
203 225 255
203 225 255
203 225 255
203 225 255
202 225 255
202 225 255
202 225 255
202 225 255
202 225 255
202 225 255
202 225 255
202 225 255
202 225 255
202 225 255
202 225 255
202 225 255
202 225 255
202 225 255
202 225 255
201 225 255
201 225 255
201 225 255
201 225 255
201 224 255
201 224 255
201 224 255
201 224 255
201 224 255
201 224 255
201 224 255
201 224 255
201 224 255
201 224 255
201 224 255
200 224 255
200 224 255
200 224 255
200 224 255
200 224 255
200 224 255
200 224 255
200 224 255
200 224 255
200 224 255
200 224 255
200 224 255
200 224 255
200 224 255
199 224 255
199 224 255
199 223 255
199 223 255
199 223 255
199 223 255
199 223 255
199 223 255
199 223 255
199 223 255
199 223 255
199 223 255
199 223 255
199 223 255
198 223 255
198 223 255
198 223 255
198 223 255
198 223 255
198 223 255
198 223 255
198 223 255
198 223 255
198 223 255
198 223 255
198 223 255
198 223 255
198 223 255
198 223 255
198 223 255
197 222 255
197 222 255
197 222 255
197 222 255
197 222 255
197 222 255
197 222 255
197 222 255
197 222 255
197 222 255
197 222 255
197 222 255
197 222 255
197 222 255
197 222 255
197 222 255
197 222 255
196 222 255
196 222 255
196 222 255
196 222 255
196 222 255
196 222 255
196 222 255
196 222 255
196 222 255
196 222 255
196 222 255
196 222 255
196 222 255
196 222 255
196 222 255
196 222 255
196 222 255
196 222 255
196 222 255
196 222 255
196 221 255
196 221 255
195 221 255
195 221 255
195 221 255
195 221 255
195 221 255
195 221 255
195 221 255
195 221 255
195 221 255
195 221 255
195 221 255
195 221 255
195 221 255
195 221 255
195 221 255
195 221 255
195 221 255
195 221 255
195 221 255
195 221 255
195 221 255
195 221 255
195 221 255
195 221 255
195 221 255
195 221 255
195 221 255
195 221 255
195 221 255
195 221 255
195 221 255
195 221 255
195 221 255
195 221 255
195 221 255
195 221 255
195 221 255
195 221 255
195 221 255
195 221 255
195 221 255
195 221 255
195 221 255
195 221 255
195 221 255
195 221 255
195 221 255
195 221 255
195 221 255
195 221 255
195 221 255
195 221 255
195 221 255
195 221 255
195 221 255
195 221 255
195 221 255
195 221 255
195 221 255
195 221 255
196 221 255
196 221 255
196 222 255
196 222 255
196 222 255
196 222 255
196 222 255
196 222 255
196 222 255
196 222 255
196 222 255
196 222 255
196 222 255
196 222 255
196 222 255
196 222 255
196 222 255
196 222 255
196 222 255
196 222 255
196 222 255
196 222 255
197 222 255
197 222 255
197 222 255
197 222 255
197 222 255
197 222 255
197 222 255
197 222 255
197 222 255
197 222 255
197 222 255
197 222 255
197 222 255
197 222 255
197 222 255
197 222 255
197 222 255
198 223 255
198 223 255
198 223 255
198 223 255
198 223 255
198 223 255
198 223 255
198 223 255
198 223 255
198 223 255
198 223 255
198 223 255
198 223 255
198 223 255
198 223 255
198 223 255
199 223 255
199 223 255
199 223 255
199 223 255
199 223 255
199 223 255
199 223 255
199 223 255
199 223 255
199 223 255
199 223 255
199 223 255
199 224 255
199 224 255
200 224 255
200 224 255
200 224 255
200 224 255
200 224 255
200 224 255
200 224 255
200 224 255
200 224 255
200 224 255
200 224 255
200 224 255
200 224 255
200 224 255
200 224 255
201 224 255
201 224 255
201 224 255
201 224 255
201 224 255
201 224 255
201 224 255
201 224 255
201 224 255
201 224 255
201 225 255
201 225 255
201 225 255
201 225 255
202 225 255
202 225 255
202 225 255
202 225 255
202 225 255
202 225 255
202 225 255
202 225 255
202 225 255
202 225 255
202 225 255
202 225 255
202 225 255
202 225 255
202 225 255
203 225 255
203 225 255
203 225 255
203 225 255
203 225 255
203 225 255
203 225 255
203 225 255
203 225 255
203 226 255
203 226 255
203 226 255
203 226 255
203 226 255
203 226 255
203 226 255
204 226 255
204 226 255
204 226 255
204 226 255
204 226 255
204 226 255
204 226 255
204 226 255
204 226 255
204 226 255
204 226 255
204 226 255
204 226 255
204 226 255
204 226 255
204 226 255
204 226 255
205 226 255
205 226 255
205 226 255
205 226 255
205 226 255
205 226 255
205 226 255
205 227 255
205 227 255
205 227 255
205 227 255
205 227 255
205 227 255
205 227 255
205 227 255
205 227 255
205 227 255
205 227 255
206 227 255
206 227 255
206 227 255
206 227 255
206 227 255
206 227 255
206 227 255
206 227 255
206 227 255
206 227 255
206 227 255
206 227 255
206 227 255
206 227 255
205 227 255
205 227 255
205 227 255
205 227 255
205 227 255
205 227 255
205 227 255
205 227 255
205 227 255
205 227 255
205 227 255
205 226 255
205 226 255
205 226 255
205 226 255
205 226 255
205 226 255
205 226 255
204 226 255
204 226 255
204 226 255
204 226 255
204 226 255
204 226 255
204 226 255
204 226 255
204 226 255
204 226 255
204 226 255
204 226 255
204 226 255
204 226 255
204 226 255
204 226 255
204 226 255
203 226 255
203 226 255
203 226 255
203 226 255
203 226 255
203 226 255
203 226 255
203 225 255
203 225 255
203 225 255
203 225 255
203 225 255
203 225 255
203 225 255
203 225 255
203 225 255
202 225 255
202 225 255
202 225 255
202 225 255
202 225 255
202 225 255
202 225 255
202 225 255
202 225 255
202 225 255
202 225 255
202 225 255
202 225 255
202 225 255
202 225 255
201 225 255
201 225 255
201 225 255
201 225 255
201 224 255
201 224 255
201 224 255
201 224 255
201 224 255
201 224 255
201 224 255
201 224 255
201 224 255
201 224 255
201 224 255
200 224 255
200 224 255
200 224 255
200 224 255
200 224 255
200 224 255
200 224 255
200 224 255
200 224 255
200 224 255
200 224 255
200 224 255
200 224 255
200 224 255
199 224 255
199 224 255
199 223 255
199 223 255
199 223 255
199 223 255
199 223 255
199 223 255
199 223 255
199 223 255
199 223 255
199 223 255
199 223 255
199 223 255
199 223 255
198 223 255
198 223 255
198 223 255
198 223 255
198 223 255
198 223 255
198 223 255
198 223 255
198 223 255
198 223 255
198 223 255
198 223 255
198 223 255
198 223 255
198 223 255
197 223 255
197 222 255
197 222 255
197 222 255
197 222 255
197 222 255
197 222 255
197 222 255
197 222 255
197 222 255
197 222 255
197 222 255
197 222 255
197 222 255
197 222 255
197 222 255
197 222 255
197 222 255
196 222 255
196 222 255
196 222 255
196 222 255
196 222 255
196 222 255
196 222 255
196 222 255
196 222 255
196 222 255
196 222 255
196 222 255
196 222 255
196 222 255
196 222 255
196 222 255
196 222 255
196 222 255
196 222 255
196 222 255
196 222 255
196 221 255
196 221 255
196 221 255
195 221 255
195 221 255
195 221 255
195 221 255
195 221 255
195 221 255
195 221 255
195 221 255
195 221 255
195 221 255
195 221 255
195 221 255
195 221 255
195 221 255
195 221 255
195 221 255
195 221 255
195 221 255
195 221 255
195 221 255
195 221 255
195 221 255
195 221 255
195 221 255
195 221 255
195 221 255
195 221 255
195 221 255
195 221 255
195 221 255
195 221 255
195 221 255
195 221 255
195 221 255
195 221 255
195 221 255
195 221 255
195 221 255
195 221 255
195 221 255
195 221 255
195 221 255
195 221 255
195 221 255
195 221 255
195 221 255
195 221 255
195 221 255
195 221 255
195 221 255
196 221 255
196 221 255
196 221 255
196 222 255
196 222 255
196 222 255
196 222 255
196 222 255
196 222 255
196 222 255
196 222 255
196 222 255
196 222 255
196 222 255
196 222 255
196 222 255
196 222 255
196 222 255
196 222 255
196 222 255
196 222 255
196 222 255
196 222 255
196 222 255
197 222 255
197 222 255
197 222 255
197 222 255
197 222 255
197 222 255
197 222 255
197 222 255
197 222 255
197 222 255
197 222 255
197 222 255
197 222 255
197 222 255
197 222 255
197 222 255
197 222 255
197 223 255
198 223 255
198 223 255
198 223 255
198 223 255
198 223 255
198 223 255
198 223 255
198 223 255
198 223 255
198 223 255
198 223 255
198 223 255
198 223 255
198 223 255
198 223 255
199 223 255
199 223 255
199 223 255
199 223 255
199 223 255
199 223 255
199 223 255
199 223 255
199 223 255
199 223 255
199 223 255
199 223 255
199 223 255
199 224 255
199 224 255
200 224 255
200 224 255
200 224 255
200 224 255
200 224 255
200 224 255
200 224 255
200 224 255
200 224 255
200 224 255
200 224 255
200 224 255
200 224 255
200 224 255
201 224 255
201 224 255
201 224 255
201 224 255
201 224 255
201 224 255
201 224 255
201 224 255
201 224 255
201 224 255
201 224 255
201 225 255
201 225 255
201 225 255
201 225 255
202 225 255
202 225 255
202 225 255
202 225 255
202 225 255
202 225 255
202 225 255
202 225 255
202 225 255
202 225 255
202 225 255
202 225 255
202 225 255
202 225 255
202 225 255
203 225 255
203 225 255
203 225 255
203 225 255
203 225 255
203 225 255
203 225 255
203 225 255
203 225 255
203 226 255
203 226 255
203 226 255
203 226 255
203 226 255
203 226 255
203 226 255
204 226 255
204 226 255
204 226 255
204 226 255
204 226 255
204 226 255
204 226 255
204 226 255
204 226 255
204 226 255
204 226 255
204 226 255
204 226 255
204 226 255
204 226 255
204 226 255
204 226 255
205 226 255
205 226 255
205 226 255
205 226 255
205 226 255
205 226 255
205 226 255
205 227 255
205 227 255
205 227 255
205 227 255
205 227 255
205 227 255
205 227 255
205 227 255
205 227 255
205 227 255
205 227 255
206 227 255
206 227 255
206 227 255
206 227 255
206 227 255
206 227 255
206 227 255
206 227 255
206 227 255
206 227 255
206 227 255
206 227 255
206 227 255
206 227 255
206 227 255
206 227 255
206 227 255
206 227 255
206 227 255
205 227 255
205 227 255
205 227 255
205 227 255
205 227 255
205 227 255
205 227 255
205 227 255
205 227 255
205 227 255
205 227 255
205 226 255
205 226 255
205 226 255
205 226 255
205 226 255
205 226 255
205 226 255
204 226 255
204 226 255
204 226 255
204 226 255
204 226 255
204 226 255
204 226 255
204 226 255
204 226 255
204 226 255
204 226 255
204 226 255
204 226 255
204 226 255
204 226 255
204 226 255
204 226 255
203 226 255
203 226 255
203 226 255
203 226 255
203 226 255
203 226 255
203 226 255
203 225 255
203 225 255
203 225 255
203 225 255
203 225 255
203 225 255
203 225 255
203 225 255
202 225 255
202 225 255
202 225 255
202 225 255
202 225 255
202 225 255
202 225 255
202 225 255
202 225 255
202 225 255
202 225 255
202 225 255
202 225 255
202 225 255
202 225 255
201 225 255
201 225 255
201 225 255
201 225 255
201 225 255
201 224 255
201 224 255
201 224 255
201 224 255
201 224 255
201 224 255
201 224 255
201 224 255
201 224 255
201 224 255
200 224 255
200 224 255
200 224 255
200 224 255
200 224 255
200 224 255
200 224 255
200 224 255
200 224 255
200 224 255
200 224 255
200 224 255
200 224 255
200 224 255
200 224 255
199 224 255
199 224 255
199 223 255
199 223 255
199 223 255
199 223 255
199 223 255
199 223 255
199 223 255
199 223 255
199 223 255
199 223 255
199 223 255
199 223 255
198 223 255
198 223 255
198 223 255
198 223 255
198 223 255
198 223 255
198 223 255
198 223 255
198 223 255
198 223 255
198 223 255
198 223 255
198 223 255
198 223 255
198 223 255
198 223 255
197 222 255
197 222 255
197 222 255
197 222 255
197 222 255
197 222 255
197 222 255
197 222 255
197 222 255
197 222 255
197 222 255
197 222 255
197 222 255
197 222 255
197 222 255
197 222 255
197 222 255
197 222 255
196 222 255
196 222 255
196 222 255
196 222 255
196 222 255
196 222 255
196 222 255
196 222 255
196 222 255
196 222 255
196 222 255
196 222 255
196 222 255
196 222 255
196 222 255
196 222 255
196 222 255
196 222 255
196 222 255
196 222 255
196 222 255
196 222 255
196 222 255
196 221 255
196 221 255
196 221 255
196 221 255
195 221 255
195 221 255
195 221 255
195 221 255
195 221 255
195 221 255
195 221 255
195 221 255
195 221 255
195 221 255
195 221 255
195 221 255
195 221 255
195 221 255
195 221 255
195 221 255
195 221 255
195 221 255
195 221 255
195 221 255
195 221 255
195 221 255
195 221 255
195 221 255
195 221 255
195 221 255
195 221 255
195 221 255
195 221 255
195 221 255
195 221 255
195 221 255
195 221 255
195 221 255
195 221 255
195 221 255
195 221 255
195 221 255
196 221 255
196 221 255
196 221 255
196 222 255
196 222 255
196 222 255
196 222 255
196 222 255
196 222 255
196 222 255
196 222 255
196 222 255
196 222 255
196 222 255
196 222 255
196 222 255
196 222 255
196 222 255
196 222 255
196 222 255
196 222 255
196 222 255
196 222 255
196 222 255
196 222 255
196 222 255
196 222 255
197 222 255
197 222 255
197 222 255
197 222 255
197 222 255
197 222 255
197 222 255
197 222 255
197 222 255
197 222 255
197 222 255
197 222 255
197 222 255
197 222 255
197 222 255
197 222 255
197 222 255
197 222 255
198 223 255
198 223 255
198 223 255
198 223 255
198 223 255
198 223 255
198 223 255
198 223 255
198 223 255
198 223 255
198 223 255
198 223 255
198 223 255
198 223 255
198 223 255
198 223 255
199 223 255
199 223 255
199 223 255
199 223 255
199 223 255
199 223 255
199 223 255
199 223 255
199 223 255
199 223 255
199 223 255
199 223 255
199 224 255
199 224 255
199 224 255
200 224 255
200 224 255
200 224 255
200 224 255
200 224 255
200 224 255
200 224 255
200 224 255
200 224 255
200 224 255
200 224 255
200 224 255
200 224 255
200 224 255
201 224 255
201 224 255
201 224 255
201 224 255
201 224 255
201 224 255
201 224 255
201 224 255
201 224 255
201 224 255
201 225 255
201 225 255
201 225 255
201 225 255
201 225 255
202 225 255
202 225 255
202 225 255
202 225 255
202 225 255
202 225 255
202 225 255
202 225 255
202 225 255
202 225 255
202 225 255
202 225 255
202 225 255
202 225 255
202 225 255
203 225 255
203 225 255
203 225 255
203 225 255
203 225 255
203 225 255
203 225 255
203 225 255
203 226 255
203 226 255
203 226 255
203 226 255
203 226 255
203 226 255
203 226 255
204 226 255
204 226 255
204 226 255
204 226 255
204 226 255
204 226 255
204 226 255
204 226 255
204 226 255
204 226 255
204 226 255
204 226 255
204 226 255
204 226 255
204 226 255
204 226 255
204 226 255
205 226 255
205 226 255
205 226 255
205 226 255
205 226 255
205 226 255
205 226 255
205 227 255
205 227 255
205 227 255
205 227 255
205 227 255
205 227 255
205 227 255
205 227 255
205 227 255
205 227 255
205 227 255
206 227 255
206 227 255
206 227 255
206 227 255
206 227 255
206 227 255
206 227 255
206 227 255
206 227 255
206 227 255
206 227 255
206 227 255
206 227 255
206 227 255
206 227 255
206 227 255
206 227 255
206 227 255
206 227 255
206 227 255
206 227 255
206 227 255
206 227 255
206 227 255
205 227 255
205 227 255
205 227 255
205 227 255
205 227 255
205 227 255
205 227 255
205 227 255
205 227 255
205 227 255
205 227 255
205 226 255
205 226 255
205 226 255
205 226 255
205 226 255
205 226 255
205 226 255
204 226 255
204 226 255
204 226 255
204 226 255
204 226 255
204 226 255
204 226 255
204 226 255
204 226 255
204 226 255
204 226 255
204 226 255
204 226 255
204 226 255
204 226 255
204 226 255
204 226 255
203 226 255
203 226 255
203 226 255
203 226 255
203 226 255
203 226 255
203 226 255
203 225 255
203 225 255
203 225 255
203 225 255
203 225 255
203 225 255
203 225 255
203 225 255
203 225 255
202 225 255
202 225 255
202 225 255
202 225 255
202 225 255
202 225 255
202 225 255
202 225 255
202 225 255
202 225 255
202 225 255
202 225 255
202 225 255
202 225 255
202 225 255
201 225 255
201 225 255
201 225 255
201 225 255
201 224 255
201 224 255
201 224 255
201 224 255
201 224 255
201 224 255
201 224 255
201 224 255
201 224 255
201 224 255
200 224 255
200 224 255
200 224 255
200 224 255
200 224 255
200 224 255
200 224 255
200 224 255
200 224 255
200 224 255
200 224 255
200 224 255
200 224 255
200 224 255
200 224 255
199 224 255
199 224 255
199 223 255
199 223 255
199 223 255
199 223 255
199 223 255
199 223 255
199 223 255
199 223 255
199 223 255
199 223 255
199 223 255
199 223 255
199 223 255
198 223 255
198 223 255
198 223 255
198 223 255
198 223 255
198 223 255
198 223 255
198 223 255
198 223 255
198 223 255
198 223 255
198 223 255
198 223 255
198 223 255
198 223 255
197 223 255
197 222 255
197 222 255
197 222 255
197 222 255
197 222 255
197 222 255
197 222 255
197 222 255
197 222 255
197 222 255
197 222 255
197 222 255
197 222 255
197 222 255
197 222 255
197 222 255
197 222 255
197 222 255
196 222 255
196 222 255
196 222 255
196 222 255
196 222 255
196 222 255
196 222 255
196 222 255
196 222 255
196 222 255
196 222 255
196 222 255
196 222 255
196 222 255
196 222 255
196 222 255
196 222 255
196 222 255
196 222 255
196 222 255
196 222 255
196 222 255
196 222 255
196 222 255
196 222 255
196 222 255
196 222 255
196 221 255
196 221 255
196 221 255
196 221 255
196 221 255
196 221 255
195 221 255
195 221 255
195 221 255
195 221 255
195 221 255
195 221 255
195 221 255
195 221 255
195 221 255
195 221 255
195 221 255
195 221 255
195 221 255
195 221 255
195 221 255
195 221 255
195 221 255
195 221 255
195 221 255
195 221 255
196 221 255
196 221 255
196 221 255
196 221 255
196 221 255
196 221 255
196 222 255
196 222 255
196 222 255
196 222 255
196 222 255
196 222 255
196 222 255
196 222 255
196 222 255
196 222 255
196 222 255
196 222 255
196 222 255
196 222 255
196 222 255
196 222 255
196 222 255
196 222 255
196 222 255
196 222 255
196 222 255
196 222 255
196 222 255
196 222 255
196 222 255
196 222 255
196 222 255
197 222 255
197 222 255
197 222 255
197 222 255
197 222 255
197 222 255
197 222 255
197 222 255
197 222 255
197 222 255
197 222 255
197 222 255
197 222 255
197 222 255
197 222 255
197 222 255
197 222 255
197 222 255
197 223 255
198 223 255
198 223 255
198 223 255
198 223 255
198 223 255
198 223 255
198 223 255
198 223 255
198 223 255
198 223 255
198 223 255
198 223 255
198 223 255
198 223 255
198 223 255
198 223 255
199 223 255
199 223 255
199 223 255
199 223 255
199 223 255
199 223 255
199 223 255
199 223 255
199 223 255
199 223 255
199 223 255
199 223 255
199 224 255
199 224 255
200 224 255
200 224 255
200 224 255
200 224 255
200 224 255
200 224 255
200 224 255
200 224 255
200 224 255
200 224 255
200 224 255
200 224 255
200 224 255
200 224 255
200 224 255
201 224 255
201 224 255
201 224 255
201 224 255
201 224 255
201 224 255
201 224 255
201 224 255
201 224 255
201 224 255
201 225 255
201 225 255
201 225 255
201 225 255
202 225 255
202 225 255
202 225 255
202 225 255
202 225 255
202 225 255
202 225 255
202 225 255
202 225 255
202 225 255
202 225 255
202 225 255
202 225 255
202 225 255
202 225 255
203 225 255
203 225 255
203 225 255
203 225 255
203 225 255
203 225 255
203 225 255
203 225 255
203 225 255
203 226 255
203 226 255
203 226 255
203 226 255
203 226 255
203 226 255
203 226 255
204 226 255
204 226 255
204 226 255
204 226 255
204 226 255
204 226 255
204 226 255
204 226 255
204 226 255
204 226 255
204 226 255
204 226 255
204 226 255
204 226 255
204 226 255
204 226 255
204 226 255
205 226 255
205 226 255
205 226 255
205 226 255
205 226 255
205 226 255
205 226 255
205 227 255
205 227 255
205 227 255
205 227 255
205 227 255
205 227 255
205 227 255
205 227 255
205 227 255
205 227 255
205 227 255
206 227 255
206 227 255
206 227 255
206 227 255
206 227 255
206 227 255
206 227 255
206 227 255
206 227 255
206 227 255
206 227 255
206 227 255
206 227 255
206 227 255
206 227 255
206 227 255
206 227 255
206 227 255
206 227 255
206 227 255
206 227 255
206 227 255
206 227 255
206 227 255
206 227 255
206 227 255
206 227 255
206 227 255
206 227 255
205 227 255
205 227 255
205 227 255
205 227 255
205 227 255
205 227 255
205 227 255
205 227 255
205 227 255
205 227 255
205 227 255
205 226 255
205 226 255
205 226 255
205 226 255
205 226 255
205 226 255
205 226 255
204 226 255
204 226 255
204 226 255
204 226 255
204 226 255
204 226 255
204 226 255
204 226 255
204 226 255
204 226 255
204 226 255
204 226 255
204 226 255
204 226 255
204 226 255
204 226 255
203 226 255
203 226 255
203 226 255
203 226 255
203 226 255
203 226 255
203 226 255
203 225 255
203 225 255
203 225 255
203 225 255
203 225 255
203 225 255
203 225 255
203 225 255
203 225 255
202 225 255
202 225 255
202 225 255
202 225 255
202 225 255
202 225 255
202 225 255
202 225 255
202 225 255
202 225 255
202 225 255
202 225 255
202 225 255
202 225 255
202 225 255
201 225 255
201 225 255
201 225 255
201 225 255
201 224 255
201 224 255
201 224 255
201 224 255
201 224 255
201 224 255
201 224 255
201 224 255
201 224 255
201 224 255
200 224 255
200 224 255
200 224 255
200 224 255
200 224 255
200 224 255
200 224 255
200 224 255
200 224 255
200 224 255
200 224 255
200 224 255
200 224 255
200 224 255
200 224 255
199 224 255
199 224 255
199 223 255
199 223 255
199 223 255
199 223 255
199 223 255
199 223 255
199 223 255
199 223 255
199 223 255
199 223 255
199 223 255
199 223 255
199 223 255
198 223 255
198 223 255
198 223 255
198 223 255
198 223 255
198 223 255
198 223 255
198 223 255
198 223 255
198 223 255
198 223 255
198 223 255
198 223 255
198 223 255
198 223 255
198 223 255
197 223 255
197 222 255
197 222 255
197 222 255
197 222 255
197 222 255
197 222 255
197 222 255
197 222 255
197 222 255
197 222 255
197 222 255
197 222 255
197 222 255
197 222 255
197 222 255
197 222 255
197 222 255
197 222 255
197 222 255
196 222 255
196 222 255
196 222 255
196 222 255
196 222 255
196 222 255
196 222 255
196 222 255
196 222 255
196 222 255
196 222 255
196 222 255
196 222 255
196 222 255
196 222 255
196 222 255
196 222 255
196 222 255
196 222 255
196 222 255
196 222 255
196 222 255
196 222 255
196 222 255
196 222 255
196 222 255
196 222 255
196 222 255
196 222 255
196 222 255
196 222 255
196 222 255
196 222 255
196 222 255
196 222 255
196 222 255
196 222 255
196 222 255
196 222 255
196 222 255
196 222 255
196 222 255
196 222 255
196 222 255
196 222 255
196 222 255
196 222 255
196 222 255
196 222 255
196 222 255
196 222 255
196 222 255
196 222 255
196 222 255
196 222 255
196 222 255
196 222 255
196 222 255
196 222 255
196 222 255
196 222 255
196 222 255
196 222 255
196 222 255
196 222 255
196 222 255
196 222 255
196 222 255
196 222 255
196 222 255
196 222 255
196 222 255
196 222 255
196 222 255
196 222 255
196 222 255
196 222 255
196 222 255
197 222 255
197 222 255
197 222 255
197 222 255
197 222 255
197 222 255
197 222 255
197 222 255
197 222 255
197 222 255
197 222 255
197 222 255
197 222 255
197 222 255
197 222 255
197 222 255
197 222 255
197 222 255
197 222 255
197 223 255
198 223 255
198 223 255
198 223 255
198 223 255
198 223 255
198 223 255
198 223 255
198 223 255
198 223 255
198 223 255
198 223 255
198 223 255
198 223 255
198 223 255
198 223 255
198 223 255
199 223 255
199 223 255
199 223 255
199 223 255
199 223 255
199 223 255
199 223 255
199 223 255
199 223 255
199 223 255
199 223 255
199 223 255
199 224 255
199 224 255
199 224 255
200 224 255
200 224 255
200 224 255
200 224 255
200 224 255
200 224 255
200 224 255
200 224 255
200 224 255
200 224 255
200 224 255
200 224 255
200 224 255
200 224 255
200 224 255
201 224 255
201 224 255
201 224 255
201 224 255
201 224 255
201 224 255
201 224 255
201 224 255
201 224 255
201 224 255
201 225 255
201 225 255
201 225 255
201 225 255
202 225 255
202 225 255
202 225 255
202 225 255
202 225 255
202 225 255
202 225 255
202 225 255
202 225 255
202 225 255
202 225 255
202 225 255
202 225 255
202 225 255
202 225 255
203 225 255
203 225 255
203 225 255
203 225 255
203 225 255
203 225 255
203 225 255
203 225 255
203 225 255
203 226 255
203 226 255
203 226 255
203 226 255
203 226 255
203 226 255
203 226 255
204 226 255
204 226 255
204 226 255
204 226 255
204 226 255
204 226 255
204 226 255
204 226 255
204 226 255
204 226 255
204 226 255
204 226 255
204 226 255
204 226 255
204 226 255
204 226 255
205 226 255
205 226 255
205 226 255
205 226 255
205 226 255
205 226 255
205 226 255
205 227 255
205 227 255
205 227 255
205 227 255
205 227 255
205 227 255
205 227 255
205 227 255
205 227 255
205 227 255
205 227 255
206 227 255
206 227 255
206 227 255
206 227 255
206 227 255
206 227 255
206 227 255
206 227 255
206 227 255
206 227 255
206 227 255
206 227 255
206 227 255
206 227 255
206 227 255
206 227 255
206 227 255
206 227 255
206 227 255
206 227 255
206 227 255
206 227 255
206 227 255
206 227 255
206 227 255
206 227 255
206 227 255
206 227 255
206 227 255
206 227 255
206 227 255
206 227 255
206 227 255
206 227 255
205 227 255
205 227 255
205 227 255
205 227 255
205 227 255
205 227 255
205 227 255
205 227 255
205 227 255
205 227 255
205 227 255
205 226 255
205 226 255
205 226 255
205 226 255
205 226 255
205 226 255
205 226 255
204 226 255
204 226 255
204 226 255
204 226 255
204 226 255
204 226 255
204 226 255
204 226 255
204 226 255
204 226 255
204 226 255
204 226 255
204 226 255
204 226 255
204 226 255
204 226 255
204 226 255
203 226 255
203 226 255
203 226 255
203 226 255
203 226 255
203 226 255
203 226 255
203 225 255
203 225 255
203 225 255
203 225 255
203 225 255
203 225 255
203 225 255
203 225 255
202 225 255
202 225 255
202 225 255
202 225 255
202 225 255
202 225 255
202 225 255
202 225 255
202 225 255
202 225 255
202 225 255
202 225 255
202 225 255
202 225 255
202 225 255
201 225 255
201 225 255
201 225 255
201 225 255
201 225 255
201 224 255
201 224 255
201 224 255
201 224 255
201 224 255
201 224 255
201 224 255
201 224 255
201 224 255
201 224 255
200 224 255
200 224 255
200 224 255
200 224 255
200 224 255
200 224 255
200 224 255
200 224 255
200 224 255
200 224 255
200 224 255
200 224 255
200 224 255
200 224 255
199 224 255
199 224 255
199 224 255
199 223 255
199 223 255
199 223 255
199 223 255
199 223 255
199 223 255
199 223 255
199 223 255
199 223 255
199 223 255
199 223 255
199 223 255
199 223 255
198 223 255
198 223 255
198 223 255
198 223 255
198 223 255
198 223 255
198 223 255
198 223 255
198 223 255
198 223 255
198 223 255
198 223 255
198 223 255
198 223 255
198 223 255
198 223 255
197 223 255
197 222 255
197 222 255
197 222 255
197 222 255
197 222 255
197 222 255
197 222 255
197 222 255
197 222 255
197 222 255
197 222 255
197 222 255
197 222 255
197 222 255
197 222 255
197 222 255
197 222 255
197 222 255
197 222 255
196 222 255
196 222 255
196 222 255
196 222 255
196 222 255
196 222 255
196 222 255
196 222 255
196 222 255
196 222 255
196 222 255
196 222 255
196 222 255
196 222 255
196 222 255
196 222 255
196 222 255
196 222 255
196 222 255
196 222 255
196 222 255
196 222 255
196 222 255
196 222 255
196 222 255
196 222 255
196 222 255
196 222 255
196 222 255
196 222 255
196 222 255
196 222 255
196 222 255
196 222 255
196 222 255
196 222 255
196 222 255
196 222 255
196 222 255
196 222 255
196 222 255
196 222 255
196 222 255
196 222 255
196 222 255
196 222 255
196 222 255
196 222 255
196 222 255
196 222 255
196 222 255
196 222 255
196 222 255
196 222 255
196 222 255
196 222 255
196 222 255
196 222 255
196 222 255
196 222 255
196 222 255
196 222 255
196 222 255
196 222 255
196 222 255
196 222 255
196 222 255
196 222 255
196 222 255
196 222 255
196 222 255
196 222 255
197 222 255
197 222 255
197 222 255
197 222 255
197 222 255
197 222 255
197 222 255
197 222 255
197 222 255
197 222 255
197 222 255
197 222 255
197 222 255
197 222 255
197 222 255
197 222 255
197 222 255
197 222 255
197 222 255
197 223 255
198 223 255
198 223 255
198 223 255
198 223 255
198 223 255
198 223 255
198 223 255
198 223 255
198 223 255
198 223 255
198 223 255
198 223 255
198 223 255
198 223 255
198 223 255
198 223 255
199 223 255
199 223 255
199 223 255
199 223 255
199 223 255
199 223 255
199 223 255
199 223 255
199 223 255
199 223 255
199 223 255
199 223 255
199 223 255
199 224 255
199 224 255
200 224 255
200 224 255
200 224 255
200 224 255
200 224 255
200 224 255
200 224 255
200 224 255
200 224 255
200 224 255
200 224 255
200 224 255
200 224 255
200 224 255
200 224 255
201 224 255
201 224 255
201 224 255
201 224 255
201 224 255
201 224 255
201 224 255
201 224 255
201 224 255
201 224 255
201 225 255
201 225 255
201 225 255
201 225 255
201 225 255
202 225 255
202 225 255
202 225 255
202 225 255
202 225 255
202 225 255
202 225 255
202 225 255
202 225 255
202 225 255
202 225 255
202 225 255
202 225 255
202 225 255
202 225 255
203 225 255
203 225 255
203 225 255
203 225 255
203 225 255
203 225 255
203 225 255
203 225 255
203 226 255
203 226 255
203 226 255
203 226 255
203 226 255
203 226 255
203 226 255
204 226 255
204 226 255
204 226 255
204 226 255
204 226 255
204 226 255
204 226 255
204 226 255
204 226 255
204 226 255
204 226 255
204 226 255
204 226 255
204 226 255
204 226 255
204 226 255
204 226 255
205 226 255
205 226 255
205 226 255
205 226 255
205 226 255
205 226 255
205 226 255
205 227 255
205 227 255
205 227 255
205 227 255
205 227 255
205 227 255
205 227 255
205 227 255
205 227 255
205 227 255
205 227 255
206 227 255
206 227 255
206 227 255
206 227 255
206 227 255
206 227 255
206 227 255
206 227 255
206 227 255
206 227 255
206 227 255
206 227 255
206 227 255
206 227 255
206 227 255
206 227 255
206 227 255
206 227 255
207 227 255
207 227 255
206 227 255
206 227 255
206 227 255
206 227 255
206 227 255
206 227 255
206 227 255
206 227 255
206 227 255
206 227 255
206 227 255
206 227 255
206 227 255
206 227 255
206 227 255
206 227 255
206 227 255
206 227 255
206 227 255
205 227 255
205 227 255
205 227 255
205 227 255
205 227 255
205 227 255
205 227 255
205 227 255
205 227 255
205 227 255
205 227 255
205 226 255
205 226 255
205 226 255
205 226 255
205 226 255
205 226 255
205 226 255
204 226 255
204 226 255
204 226 255
204 226 255
204 226 255
204 226 255
204 226 255
204 226 255
204 226 255
204 226 255
204 226 255
204 226 255
204 226 255
204 226 255
204 226 255
204 226 255
203 226 255
203 226 255
203 226 255
203 226 255
203 226 255
203 226 255
203 226 255
203 225 255
203 225 255
203 225 255
203 225 255
203 225 255
203 225 255
203 225 255
203 225 255
203 225 255
202 225 255
202 225 255
202 225 255
202 225 255
202 225 255
202 225 255
202 225 255
202 225 255
202 225 255
202 225 255
202 225 255
202 225 255
202 225 255
202 225 255
201 225 255
201 225 255
201 225 255
201 225 255
201 225 255
201 224 255
201 224 255
201 224 255
201 224 255
201 224 255
201 224 255
201 224 255
201 224 255
201 224 255
201 224 255
200 224 255
200 224 255
200 224 255
200 224 255
200 224 255
200 224 255
200 224 255
200 224 255
200 224 255
200 224 255
200 224 255
200 224 255
200 224 255
200 224 255
200 224 255
199 224 255
199 224 255
199 223 255
199 223 255
199 223 255
199 223 255
199 223 255
199 223 255
199 223 255
199 223 255
199 223 255
199 223 255
199 223 255
199 223 255
199 223 255
198 223 255
198 223 255
198 223 255
198 223 255
198 223 255
198 223 255
198 223 255
198 223 255
198 223 255
198 223 255
198 223 255
198 223 255
198 223 255
198 223 255
198 223 255
198 223 255
198 223 255
197 223 255
197 222 255
197 222 255
197 222 255
197 222 255
197 222 255
197 222 255
197 222 255
197 222 255
197 222 255
197 222 255
197 222 255
197 222 255
197 222 255
197 222 255
197 222 255
197 222 255
197 222 255
197 222 255
197 222 255
197 222 255
197 222 255
196 222 255
196 222 255
196 222 255
196 222 255
196 222 255
196 222 255
196 222 255
196 222 255
196 222 255
196 222 255
196 222 255
196 222 255
196 222 255
196 222 255
196 222 255
196 222 255
196 222 255
196 222 255
196 222 255
196 222 255
196 222 255
196 222 255
196 222 255
196 222 255
196 222 255
196 222 255
196 222 255
196 222 255
196 222 255
196 222 255
196 222 255
196 222 255
196 222 255
196 222 255
196 222 255
196 222 255
196 222 255
196 222 255
196 222 255
196 222 255
196 222 255
196 222 255
196 222 255
196 222 255
196 222 255
196 222 255
196 222 255
196 222 255
196 222 255
196 222 255
196 222 255
196 222 255
196 222 255
196 222 255
196 222 255
196 222 255
196 222 255
196 222 255
196 222 255
196 222 255
196 222 255
196 222 255
197 222 255
197 222 255
197 222 255
197 222 255
197 222 255
197 222 255
197 222 255
197 222 255
197 222 255
197 222 255
197 222 255
197 222 255
197 222 255
197 222 255
197 222 255
197 222 255
197 222 255
197 222 255
197 222 255
197 222 255
197 222 255
197 223 255
198 223 255
198 223 255
198 223 255
198 223 255
198 223 255
198 223 255
198 223 255
198 223 255
198 223 255
198 223 255
198 223 255
198 223 255
198 223 255
198 223 255
198 223 255
198 223 255
198 223 255
199 223 255
199 223 255
199 223 255
199 223 255
199 223 255
199 223 255
199 223 255
199 223 255
199 223 255
199 223 255
199 223 255
199 223 255
199 223 255
199 224 255
199 224 255
200 224 255
200 224 255
200 224 255
200 224 255
200 224 255
200 224 255
200 224 255
200 224 255
200 224 255
200 224 255
200 224 255
200 224 255
200 224 255
200 224 255
200 224 255
201 224 255
201 224 255
201 224 255
201 224 255
201 224 255
201 224 255
201 224 255
201 224 255
201 224 255
201 224 255
201 225 255
201 225 255
201 225 255
201 225 255
202 225 255
202 225 255
202 225 255
202 225 255
202 225 255
202 225 255
202 225 255
202 225 255
202 225 255
202 225 255
202 225 255
202 225 255
202 225 255
202 225 255
202 225 255
203 225 255
203 225 255
203 225 255
203 225 255
203 225 255
203 225 255
203 225 255
203 225 255
203 225 255
203 226 255
203 226 255
203 226 255
203 226 255
203 226 255
203 226 255
203 226 255
204 226 255
204 226 255
204 226 255
204 226 255
204 226 255
204 226 255
204 226 255
204 226 255
204 226 255
204 226 255
204 226 255
204 226 255
204 226 255
204 226 255
204 226 255
204 226 255
205 226 255
205 226 255
205 226 255
205 226 255
205 226 255
205 226 255
205 226 255
205 227 255
205 227 255
205 227 255
205 227 255
205 227 255
205 227 255
205 227 255
205 227 255
205 227 255
205 227 255
205 227 255
206 227 255
206 227 255
206 227 255
206 227 255
206 227 255
206 227 255
206 227 255
206 227 255
206 227 255
206 227 255
206 227 255
206 227 255
206 227 255
206 227 255
206 227 255
206 227 255
206 227 255
206 227 255
206 227 255
207 227 255
207 227 255
207 227 255
207 227 255
207 227 255
207 227 255
207 227 255
206 227 255
206 227 255
206 227 255
206 227 255
206 227 255
206 227 255
206 227 255
206 227 255
206 227 255
206 227 255
206 227 255
206 227 255
206 227 255
206 227 255
206 227 255
206 227 255
206 227 255
206 227 255
206 227 255
205 227 255
205 227 255
205 227 255
205 227 255
205 227 255
205 227 255
205 227 255
205 227 255
205 227 255
205 227 255
205 226 255
205 226 255
205 226 255
205 226 255
205 226 255
205 226 255
205 226 255
204 226 255
204 226 255
204 226 255
204 226 255
204 226 255
204 226 255
204 226 255
204 226 255
204 226 255
204 226 255
204 226 255
204 226 255
204 226 255
204 226 255
204 226 255
204 226 255
204 226 255
203 226 255
203 226 255
203 226 255
203 226 255
203 226 255
203 226 255
203 225 255
203 225 255
203 225 255
203 225 255
203 225 255
203 225 255
203 225 255
203 225 255
203 225 255
202 225 255
202 225 255
202 225 255
202 225 255
202 225 255
202 225 255
202 225 255
202 225 255
202 225 255
202 225 255
202 225 255
202 225 255
202 225 255
202 225 255
202 225 255
201 225 255
201 225 255
201 225 255
201 225 255
201 224 255
201 224 255
201 224 255
201 224 255
201 224 255
201 224 255
201 224 255
201 224 255
201 224 255
201 224 255
201 224 255
200 224 255
200 224 255
200 224 255
200 224 255
200 224 255
200 224 255
200 224 255
200 224 255
200 224 255
200 224 255
200 224 255
200 224 255
200 224 255
200 224 255
199 224 255
199 224 255
199 224 255
199 223 255
199 223 255
199 223 255
199 223 255
199 223 255
199 223 255
199 223 255
199 223 255
199 223 255
199 223 255
199 223 255
199 223 255
199 223 255
198 223 255
198 223 255
198 223 255
198 223 255
198 223 255
198 223 255
198 223 255
198 223 255
198 223 255
198 223 255
198 223 255
198 223 255
198 223 255
198 223 255
198 223 255
198 223 255
198 223 255
197 223 255
197 222 255
197 222 255
197 222 255
197 222 255
197 222 255
197 222 255
197 222 255
197 222 255
197 222 255
197 222 255
197 222 255
197 222 255
197 222 255
197 222 255
197 222 255
197 222 255
197 222 255
197 222 255
197 222 255
197 222 255
197 222 255
197 222 255
197 222 255
196 222 255
196 222 255
196 222 255
196 222 255
196 222 255
196 222 255
196 222 255
196 222 255
196 222 255
196 222 255
196 222 255
196 222 255
196 222 255
196 222 255
196 222 255
196 222 255
196 222 255
196 222 255
196 222 255
196 222 255
196 222 255
196 222 255
196 222 255
196 222 255
196 222 255
196 222 255
196 222 255
196 222 255
196 222 255
196 222 255
196 222 255
196 222 255
196 222 255
196 222 255
196 222 255
196 222 255
196 222 255
196 222 255
196 222 255
196 222 255
196 222 255
196 222 255
196 222 255
196 222 255
196 222 255
196 222 255
196 222 255
196 222 255
196 222 255
196 222 255
196 222 255
196 222 255
197 222 255
197 222 255
197 222 255
197 222 255
197 222 255
197 222 255
197 222 255
197 222 255
197 222 255
197 222 255
197 222 255
197 222 255
197 222 255
197 222 255
197 222 255
197 222 255
197 222 255
197 222 255
197 222 255
197 222 255
197 222 255
197 222 255
197 222 255
197 223 255
198 223 255
198 223 255
198 223 255
198 223 255
198 223 255
198 223 255
198 223 255
198 223 255
198 223 255
198 223 255
198 223 255
198 223 255
198 223 255
198 223 255
198 223 255
198 223 255
198 223 255
199 223 255
199 223 255
199 223 255
199 223 255
199 223 255
199 223 255
199 223 255
199 223 255
199 223 255
199 223 255
199 223 255
199 223 255
199 223 255
199 224 255
199 224 255
199 224 255
200 224 255
200 224 255
200 224 255
200 224 255
200 224 255
200 224 255
200 224 255
200 224 255
200 224 255
200 224 255
200 224 255
200 224 255
200 224 255
200 224 255
201 224 255
201 224 255
201 224 255
201 224 255
201 224 255
201 224 255
201 224 255
201 224 255
201 224 255
201 224 255
201 224 255
201 225 255
201 225 255
201 225 255
201 225 255
202 225 255
202 225 255
202 225 255
202 225 255
202 225 255
202 225 255
202 225 255
202 225 255
202 225 255
202 225 255
202 225 255
202 225 255
202 225 255
202 225 255
202 225 255
203 225 255
203 225 255
203 225 255
203 225 255
203 225 255
203 225 255
203 225 255
203 225 255
203 225 255
203 226 255
203 226 255
203 226 255
203 226 255
203 226 255
203 226 255
203 226 255
204 226 255
204 226 255
204 226 255
204 226 255
204 226 255
204 226 255
204 226 255
204 226 255
204 226 255
204 226 255
204 226 255
204 226 255
204 226 255
204 226 255
204 226 255
204 226 255
205 226 255
205 226 255
205 226 255
205 226 255
205 226 255
205 226 255
205 226 255
205 227 255
205 227 255
205 227 255
205 227 255
205 227 255
205 227 255
205 227 255
205 227 255
205 227 255
205 227 255
206 227 255
206 227 255
206 227 255
206 227 255
206 227 255
206 227 255
206 227 255
206 227 255
206 227 255
206 227 255
206 227 255
206 227 255
206 227 255
206 227 255
206 227 255
206 227 255
206 227 255
206 227 255
206 227 255
206 227 255
207 227 255
207 227 255
207 227 255
207 227 255
207 228 255
207 228 255
207 227 255
207 227 255
207 227 255
207 227 255
207 227 255
206 227 255
206 227 255
206 227 255
206 227 255
206 227 255
206 227 255
206 227 255
206 227 255
206 227 255
206 227 255
206 227 255
206 227 255
206 227 255
206 227 255
206 227 255
206 227 255
206 227 255
206 227 255
206 227 255
205 227 255
205 227 255
205 227 255
205 227 255
205 227 255
205 227 255
205 227 255
205 227 255
205 227 255
205 227 255
205 227 255
205 226 255
205 226 255
205 226 255
205 226 255
205 226 255
205 226 255
205 226 255
204 226 255
204 226 255
204 226 255
204 226 255
204 226 255
204 226 255
204 226 255
204 226 255
204 226 255
204 226 255
204 226 255
204 226 255
204 226 255
204 226 255
204 226 255
204 226 255
203 226 255
203 226 255
203 226 255
203 226 255
203 226 255
203 226 255
203 226 255
203 225 255
203 225 255
203 225 255
203 225 255
203 225 255
203 225 255
203 225 255
203 225 255
203 225 255
202 225 255
202 225 255
202 225 255
202 225 255
202 225 255
202 225 255
202 225 255
202 225 255
202 225 255
202 225 255
202 225 255
202 225 255
202 225 255
202 225 255
202 225 255
201 225 255
201 225 255
201 225 255
201 225 255
201 224 255
201 224 255
201 224 255
201 224 255
201 224 255
201 224 255
201 224 255
201 224 255
201 224 255
201 224 255
200 224 255
200 224 255
200 224 255
200 224 255
200 224 255
200 224 255
200 224 255
200 224 255
200 224 255
200 224 255
200 224 255
200 224 255
200 224 255
200 224 255
200 224 255
199 224 255
199 224 255
199 223 255
199 223 255
199 223 255
199 223 255
199 223 255
199 223 255
199 223 255
199 223 255
199 223 255
199 223 255
199 223 255
199 223 255
199 223 255
199 223 255
198 223 255
198 223 255
198 223 255
198 223 255
198 223 255
198 223 255
198 223 255
198 223 255
198 223 255
198 223 255
198 223 255
198 223 255
198 223 255
198 223 255
198 223 255
198 223 255
198 223 255
198 223 255
197 222 255
197 222 255
197 222 255
197 222 255
197 222 255
197 222 255
197 222 255
197 222 255
197 222 255
197 222 255
197 222 255
197 222 255
197 222 255
197 222 255
197 222 255
197 222 255
197 222 255
197 222 255
197 222 255
197 222 255
197 222 255
197 222 255
197 222 255
197 222 255
197 222 255
197 222 255
196 222 255
196 222 255
196 222 255
196 222 255
196 222 255
196 222 255
196 222 255
196 222 255
196 222 255
196 222 255
196 222 255
196 222 255
196 222 255
196 222 255
196 222 255
196 222 255
196 222 255
196 222 255
196 222 255
196 222 255
196 222 255
196 222 255
196 222 255
196 222 255
196 222 255
196 222 255
196 222 255
196 222 255
196 222 255
196 222 255
196 222 255
196 222 255
196 222 255
196 222 255
196 222 255
196 222 255
196 222 255
196 222 255
196 222 255
196 222 255
197 222 255
197 222 255
197 222 255
197 222 255
197 222 255
197 222 255
197 222 255
197 222 255
197 222 255
197 222 255
197 222 255
197 222 255
197 222 255
197 222 255
197 222 255
197 222 255
197 222 255
197 222 255
197 222 255
197 222 255
197 222 255
197 222 255
197 222 255
197 222 255
197 222 255
197 222 255
198 223 255
198 223 255
198 223 255
198 223 255
198 223 255
198 223 255
198 223 255
198 223 255
198 223 255
198 223 255
198 223 255
198 223 255
198 223 255
198 223 255
198 223 255
198 223 255
198 223 255
198 223 255
199 223 255
199 223 255
199 223 255
199 223 255
199 223 255
199 223 255
199 223 255
199 223 255
199 223 255
199 223 255
199 223 255
199 223 255
199 223 255
199 223 255
199 224 255
199 224 255
200 224 255
200 224 255
200 224 255
200 224 255
200 224 255
200 224 255
200 224 255
200 224 255
200 224 255
200 224 255
200 224 255
200 224 255
200 224 255
200 224 255
200 224 255
201 224 255
201 224 255
201 224 255
201 224 255
201 224 255
201 224 255
201 224 255
201 224 255
201 224 255
201 224 255
201 225 255
201 225 255
201 225 255
201 225 255
201 225 255
202 225 255
202 225 255
202 225 255
202 225 255
202 225 255
202 225 255
202 225 255
202 225 255
202 225 255
202 225 255
202 225 255
202 225 255
202 225 255
202 225 255
202 225 255
203 225 255
203 225 255
203 225 255
203 225 255
203 225 255
203 225 255
203 225 255
203 225 255
203 226 255
203 226 255
203 226 255
203 226 255
203 226 255
203 226 255
203 226 255
204 226 255
204 226 255
204 226 255
204 226 255
204 226 255
204 226 255
204 226 255
204 226 255
204 226 255
204 226 255
204 226 255
204 226 255
204 226 255
204 226 255
204 226 255
204 226 255
205 226 255
205 226 255
205 226 255
205 226 255
205 226 255
205 226 255
205 226 255
205 227 255
205 227 255
205 227 255
205 227 255
205 227 255
205 227 255
205 227 255
205 227 255
205 227 255
205 227 255
205 227 255
206 227 255
206 227 255
206 227 255
206 227 255
206 227 255
206 227 255
206 227 255
206 227 255
206 227 255
206 227 255
206 227 255
206 227 255
206 227 255
206 227 255
206 227 255
206 227 255
206 227 255
206 227 255
206 227 255
207 227 255
207 227 255
207 227 255
207 227 255
207 228 255
207 228 255
207 228 255
207 228 255
207 228 255
207 228 255
207 228 255
207 228 255
207 227 255
207 227 255
207 227 255
207 227 255
207 227 255
206 227 255
206 227 255
206 227 255
206 227 255
206 227 255
206 227 255
206 227 255
206 227 255
206 227 255
206 227 255
206 227 255
206 227 255
206 227 255
206 227 255
206 227 255
206 227 255
206 227 255
206 227 255
206 227 255
205 227 255
205 227 255
205 227 255
205 227 255
205 227 255
205 227 255
205 227 255
205 227 255
205 227 255
205 227 255
205 227 255
205 226 255
205 226 255
205 226 255
205 226 255
205 226 255
205 226 255
204 226 255
204 226 255
204 226 255
204 226 255
204 226 255
204 226 255
204 226 255
204 226 255
204 226 255
204 226 255
204 226 255
204 226 255
204 226 255
204 226 255
204 226 255
204 226 255
204 226 255
203 226 255
203 226 255
203 226 255
203 226 255
203 226 255
203 226 255
203 226 255
203 225 255
203 225 255
203 225 255
203 225 255
203 225 255
203 225 255
203 225 255
203 225 255
202 225 255
202 225 255
202 225 255
202 225 255
202 225 255
202 225 255
202 225 255
202 225 255
202 225 255
202 225 255
202 225 255
202 225 255
202 225 255
202 225 255
202 225 255
201 225 255
201 225 255
201 225 255
201 225 255
201 224 255
201 224 255
201 224 255
201 224 255
201 224 255
201 224 255
201 224 255
201 224 255
201 224 255
201 224 255
200 224 255
200 224 255
200 224 255
200 224 255
200 224 255
200 224 255
200 224 255
200 224 255
200 224 255
200 224 255
200 224 255
200 224 255
200 224 255
200 224 255
200 224 255
200 224 255
199 224 255
199 224 255
199 223 255
199 223 255
199 223 255
199 223 255
199 223 255
199 223 255
199 223 255
199 223 255
199 223 255
199 223 255
199 223 255
199 223 255
199 223 255
199 223 255
198 223 255
198 223 255
198 223 255
198 223 255
198 223 255
198 223 255
198 223 255
198 223 255
198 223 255
198 223 255
198 223 255
198 223 255
198 223 255
198 223 255
198 223 255
198 223 255
198 223 255
198 223 255
197 223 255
197 222 255
197 222 255
197 222 255
197 222 255
197 222 255
197 222 255
197 222 255
197 222 255
197 222 255
197 222 255
197 222 255
197 222 255
197 222 255
197 222 255
197 222 255
197 222 255
197 222 255
197 222 255
197 222 255
197 222 255
197 222 255
197 222 255
197 222 255
197 222 255
197 222 255
197 222 255
197 222 255
197 222 255
197 222 255
197 222 255
197 222 255
196 222 255
196 222 255
196 222 255
196 222 255
196 222 255
196 222 255
196 222 255
196 222 255
196 222 255
196 222 255
196 222 255
196 222 255
196 222 255
196 222 255
196 222 255
196 222 255
196 222 255
196 222 255
196 222 255
196 222 255
196 222 255
196 222 255
197 222 255
197 222 255
197 222 255
197 222 255
197 222 255
197 222 255
197 222 255
197 222 255
197 222 255
197 222 255
197 222 255
197 222 255
197 222 255
197 222 255
197 222 255
197 222 255
197 222 255
197 222 255
197 222 255
197 222 255
197 222 255
197 222 255
197 222 255
197 222 255
197 222 255
197 222 255
197 222 255
197 222 255
197 222 255
197 222 255
197 222 255
197 223 255
198 223 255
198 223 255
198 223 255
198 223 255
198 223 255
198 223 255
198 223 255
198 223 255
198 223 255
198 223 255
198 223 255
198 223 255
198 223 255
198 223 255
198 223 255
198 223 255
198 223 255
198 223 255
198 223 255
199 223 255
199 223 255
199 223 255
199 223 255
199 223 255
199 223 255
199 223 255
199 223 255
199 223 255
199 223 255
199 223 255
199 223 255
199 223 255
199 224 255
199 224 255
200 224 255
200 224 255
200 224 255
200 224 255
200 224 255
200 224 255
200 224 255
200 224 255
200 224 255
200 224 255
200 224 255
200 224 255
200 224 255
200 224 255
200 224 255
200 224 255
201 224 255
201 224 255
201 224 255
201 224 255
201 224 255
201 224 255
201 224 255
201 224 255
201 224 255
201 224 255
201 225 255
201 225 255
201 225 255
201 225 255
202 225 255
202 225 255
202 225 255
202 225 255
202 225 255
202 225 255
202 225 255
202 225 255
202 225 255
202 225 255
202 225 255
202 225 255
202 225 255
202 225 255
202 225 255
203 225 255
203 225 255
203 225 255
203 225 255
203 225 255
203 225 255
203 225 255
203 225 255
203 226 255
203 226 255
203 226 255
203 226 255
203 226 255
203 226 255
203 226 255
204 226 255
204 226 255
204 226 255
204 226 255
204 226 255
204 226 255
204 226 255
204 226 255
204 226 255
204 226 255
204 226 255
204 226 255
204 226 255
204 226 255
204 226 255
204 226 255
204 226 255
205 226 255
205 226 255
205 226 255
205 226 255
205 226 255
205 226 255
205 227 255
205 227 255
205 227 255
205 227 255
205 227 255
205 227 255
205 227 255
205 227 255
205 227 255
205 227 255
205 227 255
206 227 255
206 227 255
206 227 255
206 227 255
206 227 255
206 227 255
206 227 255
206 227 255
206 227 255
206 227 255
206 227 255
206 227 255
206 227 255
206 227 255
206 227 255
206 227 255
206 227 255
206 227 255
206 227 255
207 227 255
207 227 255
207 227 255
207 227 255
207 227 255
207 228 255
207 228 255
207 228 255
207 228 255
207 228 255
207 228 255
207 228 255
207 228 255
207 228 255
207 228 255
207 228 255
207 228 255
207 228 255
207 227 255
207 227 255
207 227 255
207 227 255
207 227 255
206 227 255
206 227 255
206 227 255
206 227 255
206 227 255
206 227 255
206 227 255
206 227 255
206 227 255
206 227 255
206 227 255
206 227 255
206 227 255
206 227 255
206 227 255
206 227 255
206 227 255
206 227 255
206 227 255
205 227 255
205 227 255
205 227 255
205 227 255
205 227 255
205 227 255
205 227 255
205 227 255
205 227 255
205 227 255
205 226 255
205 226 255
205 226 255
205 226 255
205 226 255
205 226 255
205 226 255
204 226 255
204 226 255
204 226 255
204 226 255
204 226 255
204 226 255
204 226 255
204 226 255
204 226 255
204 226 255
204 226 255
204 226 255
204 226 255
204 226 255
204 226 255
204 226 255
203 226 255
203 226 255
203 226 255
203 226 255
203 226 255
203 226 255
203 226 255
203 225 255
203 225 255
203 225 255
203 225 255
203 225 255
203 225 255
203 225 255
203 225 255
202 225 255
202 225 255
202 225 255
202 225 255
202 225 255
202 225 255
202 225 255
202 225 255
202 225 255
202 225 255
202 225 255
202 225 255
202 225 255
202 225 255
202 225 255
201 225 255
201 225 255
201 225 255
201 225 255
201 225 255
201 224 255
201 224 255
201 224 255
201 224 255
201 224 255
201 224 255
201 224 255
201 224 255
201 224 255
201 224 255
200 224 255
200 224 255
200 224 255
200 224 255
200 224 255
200 224 255
200 224 255
200 224 255
200 224 255
200 224 255
200 224 255
200 224 255
200 224 255
200 224 255
200 224 255
199 224 255
199 224 255
199 224 255
199 223 255
199 223 255
199 223 255
199 223 255
199 223 255
199 223 255
199 223 255
199 223 255
199 223 255
199 223 255
199 223 255
199 223 255
199 223 255
198 223 255
198 223 255
198 223 255
198 223 255
198 223 255
198 223 255
198 223 255
198 223 255
198 223 255
198 223 255
198 223 255
198 223 255
198 223 255
198 223 255
198 223 255
198 223 255
198 223 255
198 223 255
198 223 255
198 223 255
197 223 255
197 222 255
197 222 255
197 222 255
197 222 255
197 222 255
197 222 255
197 222 255
197 222 255
197 222 255
197 222 255
197 222 255
197 222 255
197 222 255
197 222 255
197 222 255
197 222 255
197 222 255
197 222 255
197 222 255
197 222 255
197 222 255
197 222 255
197 222 255
197 222 255
197 222 255
197 222 255
197 222 255
197 222 255
197 222 255
197 222 255
197 222 255
197 222 255
197 222 255
197 222 255
197 222 255
197 222 255
197 222 255
197 222 255
197 222 255
197 222 255
197 222 255
197 222 255
197 222 255
197 222 255
197 222 255
197 222 255
197 222 255
197 222 255
197 222 255
197 222 255
197 222 255
197 222 255
197 222 255
197 222 255
197 222 255
197 222 255
197 222 255
197 222 255
197 222 255
197 222 255
197 222 255
197 222 255
197 222 255
197 222 255
197 222 255
197 222 255
197 222 255
197 222 255
197 222 255
197 222 255
197 222 255
197 222 255
197 222 255
197 222 255
197 222 255
197 222 255
197 223 255
198 223 255
198 223 255
198 223 255
198 223 255
198 223 255
198 223 255
198 223 255
198 223 255
198 223 255
198 223 255
198 223 255
198 223 255
198 223 255
198 223 255
198 223 255
198 223 255
198 223 255
198 223 255
198 223 255
198 223 255
199 223 255
199 223 255
199 223 255
199 223 255
199 223 255
199 223 255
199 223 255
199 223 255
199 223 255
199 223 255
199 223 255
199 223 255
199 223 255
199 224 255
199 224 255
199 224 255
200 224 255
200 224 255
200 224 255
200 224 255
200 224 255
200 224 255
200 224 255
200 224 255
200 224 255
200 224 255
200 224 255
200 224 255
200 224 255
200 224 255
200 224 255
201 224 255
201 224 255
201 224 255
201 224 255
201 224 255
201 224 255
201 224 255
201 224 255
201 224 255
201 224 255
201 225 255
201 225 255
201 225 255
201 225 255
201 225 255
202 225 255
202 225 255
202 225 255
202 225 255
202 225 255
202 225 255
202 225 255
202 225 255
202 225 255
202 225 255
202 225 255
202 225 255
202 225 255
202 225 255
202 225 255
203 225 255
203 225 255
203 225 255
203 225 255
203 225 255
203 225 255
203 225 255
203 225 255
203 226 255
203 226 255
203 226 255
203 226 255
203 226 255
203 226 255
203 226 255
204 226 255
204 226 255
204 226 255
204 226 255
204 226 255
204 226 255
204 226 255
204 226 255
204 226 255
204 226 255
204 226 255
204 226 255
204 226 255
204 226 255
204 226 255
204 226 255
205 226 255
205 226 255
205 226 255
205 226 255
205 226 255
205 226 255
205 226 255
205 227 255
205 227 255
205 227 255
205 227 255
205 227 255
205 227 255
205 227 255
205 227 255
205 227 255
205 227 255
206 227 255
206 227 255
206 227 255
206 227 255
206 227 255
206 227 255
206 227 255
206 227 255
206 227 255
206 227 255
206 227 255
206 227 255
206 227 255
206 227 255
206 227 255
206 227 255
206 227 255
206 227 255
206 227 255
207 227 255
207 227 255
207 227 255
207 227 255
207 227 255
207 228 255
207 228 255
207 228 255
207 228 255
207 228 255
207 228 255
207 228 255
207 228 255
207 228 255
207 228 255
207 228 255
207 228 255
207 228 255
207 228 255
207 228 255
207 228 255
207 228 255
207 228 255
207 228 255
207 227 255
207 227 255
207 227 255
207 227 255
207 227 255
206 227 255
206 227 255
206 227 255
206 227 255
206 227 255
206 227 255
206 227 255
206 227 255
206 227 255
206 227 255
206 227 255
206 227 255
206 227 255
206 227 255
206 227 255
206 227 255
206 227 255
206 227 255
205 227 255
205 227 255
205 227 255
205 227 255
205 227 255
205 227 255
205 227 255
205 227 255
205 227 255
205 227 255
205 227 255
205 226 255
205 226 255
205 226 255
205 226 255
205 226 255
205 226 255
205 226 255
204 226 255
204 226 255
204 226 255
204 226 255
204 226 255
204 226 255
204 226 255
204 226 255
204 226 255
204 226 255
204 226 255
204 226 255
204 226 255
204 226 255
204 226 255
204 226 255
203 226 255
203 226 255
203 226 255
203 226 255
203 226 255
203 226 255
203 225 255
203 225 255
203 225 255
203 225 255
203 225 255
203 225 255
203 225 255
203 225 255
203 225 255
202 225 255
202 225 255
202 225 255
202 225 255
202 225 255
202 225 255
202 225 255
202 225 255
202 225 255
202 225 255
202 225 255
202 225 255
202 225 255
202 225 255
202 225 255
201 225 255
201 225 255
201 225 255
201 225 255
201 224 255
201 224 255
201 224 255
201 224 255
201 224 255
201 224 255
201 224 255
201 224 255
201 224 255
201 224 255
200 224 255
200 224 255
200 224 255
200 224 255
200 224 255
200 224 255
200 224 255
200 224 255
200 224 255
200 224 255
200 224 255
200 224 255
200 224 255
200 224 255
200 224 255
200 224 255
199 224 255
199 224 255
199 223 255
199 223 255
199 223 255
199 223 255
199 223 255
199 223 255
199 223 255
199 223 255
199 223 255
199 223 255
199 223 255
199 223 255
199 223 255
199 223 255
198 223 255
198 223 255
198 223 255
198 223 255
198 223 255
198 223 255
198 223 255
198 223 255
198 223 255
198 223 255
198 223 255
198 223 255
198 223 255
198 223 255
198 223 255
198 223 255
198 223 255
198 223 255
198 223 255
198 223 255
198 223 255
197 223 255
197 222 255
197 222 255
197 222 255
197 222 255
197 222 255
197 222 255
197 222 255
197 222 255
197 222 255
197 222 255
197 222 255
197 222 255
197 222 255
197 222 255
197 222 255
197 222 255
197 222 255
197 222 255
197 222 255
197 222 255
197 222 255
197 222 255
197 222 255
197 222 255
197 222 255
197 222 255
197 222 255
197 222 255
197 222 255
197 222 255
197 222 255
197 222 255
197 222 255
197 222 255
197 222 255
197 222 255
197 222 255
197 222 255
197 222 255
197 222 255
197 222 255
197 222 255
197 222 255
197 222 255
197 222 255
197 222 255
197 222 255
197 222 255
197 222 255
197 222 255
197 222 255
197 222 255
197 222 255
197 222 255
197 222 255
197 222 255
197 222 255
197 222 255
197 222 255
197 222 255
197 222 255
197 222 255
197 222 255
197 222 255
197 222 255
197 222 255
197 222 255
197 222 255
197 223 255
198 223 255
198 223 255
198 223 255
198 223 255
198 223 255
198 223 255
198 223 255
198 223 255
198 223 255
198 223 255
198 223 255
198 223 255
198 223 255
198 223 255
198 223 255
198 223 255
198 223 255
198 223 255
198 223 255
198 223 255
199 223 255
199 223 255
199 223 255
199 223 255
199 223 255
199 223 255
199 223 255
199 223 255
199 223 255
199 223 255
199 223 255
199 223 255
199 223 255
199 223 255
199 223 255
199 224 255
199 224 255
200 224 255
200 224 255
200 224 255
200 224 255
200 224 255
200 224 255
200 224 255
200 224 255
200 224 255
200 224 255
200 224 255
200 224 255
200 224 255
200 224 255
200 224 255
201 224 255
201 224 255
201 224 255
201 224 255
201 224 255
201 224 255
201 224 255
201 224 255
201 224 255
201 224 255
201 224 255
201 225 255
201 225 255
201 225 255
201 225 255
202 225 255
202 225 255
202 225 255
202 225 255
202 225 255
202 225 255
202 225 255
202 225 255
202 225 255
202 225 255
202 225 255
202 225 255
202 225 255
202 225 255
202 225 255
203 225 255
203 225 255
203 225 255
203 225 255
203 225 255
203 225 255
203 225 255
203 225 255
203 225 255
203 226 255
203 226 255
203 226 255
203 226 255
203 226 255
203 226 255
204 226 255
204 226 255
204 226 255
204 226 255
204 226 255
204 226 255
204 226 255
204 226 255
204 226 255
204 226 255
204 226 255
204 226 255
204 226 255
204 226 255
204 226 255
204 226 255
204 226 255
205 226 255
205 226 255
205 226 255
205 226 255
205 226 255
205 226 255
205 227 255
205 227 255
205 227 255
205 227 255
205 227 255
205 227 255
205 227 255
205 227 255
205 227 255
205 227 255
205 227 255
206 227 255
206 227 255
206 227 255
206 227 255
206 227 255
206 227 255
206 227 255
206 227 255
206 227 255
206 227 255
206 227 255
206 227 255
206 227 255
206 227 255
206 227 255
206 227 255
206 227 255
206 227 255
207 227 255
207 227 255
207 227 255
207 227 255
207 227 255
207 228 255
207 228 255
207 228 255
207 228 255
207 228 255
207 228 255
207 228 255
207 228 255
207 228 255
207 228 255
207 228 255
207 228 255
207 228 255
207 228 255
207 228 255
207 228 255
207 228 255
207 228 255
207 228 255
207 228 255
207 228 255
207 228 255
207 228 255
207 228 255
207 228 255
207 227 255
207 227 255
207 227 255
207 227 255
206 227 255
206 227 255
206 227 255
206 227 255
206 227 255
206 227 255
206 227 255
206 227 255
206 227 255
206 227 255
206 227 255
206 227 255
206 227 255
206 227 255
206 227 255
206 227 255
206 227 255
206 227 255
206 227 255
205 227 255
205 227 255
205 227 255
205 227 255
205 227 255
205 227 255
205 227 255
205 227 255
205 227 255
205 227 255
205 226 255
205 226 255
205 226 255
205 226 255
205 226 255
205 226 255
205 226 255
204 226 255
204 226 255
204 226 255
204 226 255
204 226 255
204 226 255
204 226 255
204 226 255
204 226 255
204 226 255
204 226 255
204 226 255
204 226 255
204 226 255
204 226 255
204 226 255
203 226 255
203 226 255
203 226 255
203 226 255
203 226 255
203 226 255
203 226 255
203 225 255
203 225 255
203 225 255
203 225 255
203 225 255
203 225 255
203 225 255
203 225 255
202 225 255
202 225 255
202 225 255
202 225 255
202 225 255
202 225 255
202 225 255
202 225 255
202 225 255
202 225 255
202 225 255
202 225 255
202 225 255
202 225 255
202 225 255
201 225 255
201 225 255
201 225 255
201 225 255
201 225 255
201 224 255
201 224 255
201 224 255
201 224 255
201 224 255
201 224 255
201 224 255
201 224 255
201 224 255
201 224 255
200 224 255
200 224 255
200 224 255
200 224 255
200 224 255
200 224 255
200 224 255
200 224 255
200 224 255
200 224 255
200 224 255
200 224 255
200 224 255
200 224 255
200 224 255
200 224 255
199 224 255
199 224 255
199 223 255
199 223 255
199 223 255
199 223 255
199 223 255
199 223 255
199 223 255
199 223 255
199 223 255
199 223 255
199 223 255
199 223 255
199 223 255
199 223 255
199 223 255
198 223 255
198 223 255
198 223 255
198 223 255
198 223 255
198 223 255
198 223 255
198 223 255
198 223 255
198 223 255
198 223 255
198 223 255
198 223 255
198 223 255
198 223 255
198 223 255
198 223 255
198 223 255
198 223 255
198 223 255
198 223 255
198 223 255
197 223 255
197 222 255
197 222 255
197 222 255
197 222 255
197 222 255
197 222 255
197 222 255
197 222 255
197 222 255
197 222 255
197 222 255
197 222 255
197 222 255
197 222 255
197 222 255
197 222 255
197 222 255
197 222 255
197 222 255
197 222 255
197 222 255
197 222 255
197 222 255
197 222 255
197 222 255
197 222 255
197 222 255
197 222 255
197 222 255
197 222 255
197 222 255
197 222 255
197 222 255
197 222 255
197 222 255
197 222 255
197 222 255
197 222 255
197 222 255
197 222 255
197 222 255
197 222 255
197 222 255
197 222 255
197 222 255
197 222 255
197 222 255
197 222 255
197 222 255
197 222 255
197 222 255
197 222 255
197 222 255
197 222 255
197 222 255
197 222 255
197 222 255
197 222 255
197 223 255
198 223 255
198 223 255
198 223 255
198 223 255
198 223 255
198 223 255
198 223 255
198 223 255
198 223 255
198 223 255
198 223 255
198 223 255
198 223 255
198 223 255
198 223 255
198 223 255
198 223 255
198 223 255
198 223 255
198 223 255
198 223 255
198 223 255
199 223 255
199 223 255
199 223 255
199 223 255
199 223 255
199 223 255
199 223 255
199 223 255
199 223 255
199 223 255
199 223 255
199 223 255
199 223 255
199 223 255
199 223 255
199 224 255
199 224 255
200 224 255
200 224 255
200 224 255
200 224 255
200 224 255
200 224 255
200 224 255
200 224 255
200 224 255
200 224 255
200 224 255
200 224 255
200 224 255
200 224 255
200 224 255
200 224 255
201 224 255
201 224 255
201 224 255
201 224 255
201 224 255
201 224 255
201 224 255
201 224 255
201 224 255
201 224 255
201 225 255
201 225 255
201 225 255
201 225 255
201 225 255
202 225 255
202 225 255
202 225 255
202 225 255
202 225 255
202 225 255
202 225 255
202 225 255
202 225 255
202 225 255
202 225 255
202 225 255
202 225 255
202 225 255
202 225 255
203 225 255
203 225 255
203 225 255
203 225 255
203 225 255
203 225 255
203 225 255
203 225 255
203 226 255
203 226 255
203 226 255
203 226 255
203 226 255
203 226 255
203 226 255
204 226 255
204 226 255
204 226 255
204 226 255
204 226 255
204 226 255
204 226 255
204 226 255
204 226 255
204 226 255
204 226 255
204 226 255
204 226 255
204 226 255
204 226 255
204 226 255
205 226 255
205 226 255
205 226 255
205 226 255
205 226 255
205 226 255
205 226 255
205 227 255
205 227 255
205 227 255
205 227 255
205 227 255
205 227 255
205 227 255
205 227 255
205 227 255
205 227 255
206 227 255
206 227 255
206 227 255
206 227 255
206 227 255
206 227 255
206 227 255
206 227 255
206 227 255
206 227 255
206 227 255
206 227 255
206 227 255
206 227 255
206 227 255
206 227 255
206 227 255
206 227 255
206 227 255
207 227 255
207 227 255
207 227 255
207 227 255
207 228 255
207 228 255
207 228 255
207 228 255
207 228 255
207 228 255
207 228 255
207 228 255
207 228 255
207 228 255
207 228 255
207 228 255
207 228 255
207 228 255
208 228 255
207 228 255
207 228 255
207 228 255
207 228 255
207 228 255
207 228 255
207 228 255
207 228 255
207 228 255
207 228 255
207 228 255
207 228 255
207 228 255
207 228 255
207 228 255
207 228 255
207 227 255
207 227 255
207 227 255
207 227 255
206 227 255
206 227 255
206 227 255
206 227 255
206 227 255
206 227 255
206 227 255
206 227 255
206 227 255
206 227 255
206 227 255
206 227 255
206 227 255
206 227 255
206 227 255
206 227 255
206 227 255
206 227 255
206 227 255
205 227 255
205 227 255
205 227 255
205 227 255
205 227 255
205 227 255
205 227 255
205 227 255
205 227 255
205 227 255
205 226 255
205 226 255
205 226 255
205 226 255
205 226 255
205 226 255
205 226 255
204 226 255
204 226 255
204 226 255
204 226 255
204 226 255
204 226 255
204 226 255
204 226 255
204 226 255
204 226 255
204 226 255
204 226 255
204 226 255
204 226 255
204 226 255
204 226 255
203 226 255
203 226 255
203 226 255
203 226 255
203 226 255
203 226 255
203 226 255
203 225 255
203 225 255
203 225 255
203 225 255
203 225 255
203 225 255
203 225 255
203 225 255
202 225 255
202 225 255
202 225 255
202 225 255
202 225 255
202 225 255
202 225 255
202 225 255
202 225 255
202 225 255
202 225 255
202 225 255
202 225 255
202 225 255
202 225 255
201 225 255
201 225 255
201 225 255
201 225 255
201 224 255
201 224 255
201 224 255
201 224 255
201 224 255
201 224 255
201 224 255
201 224 255
201 224 255
201 224 255
201 224 255
200 224 255
200 224 255
200 224 255
200 224 255
200 224 255
200 224 255
200 224 255
200 224 255
200 224 255
200 224 255
200 224 255
200 224 255
200 224 255
200 224 255
200 224 255
200 224 255
199 224 255
199 224 255
199 223 255
199 223 255
199 223 255
199 223 255
199 223 255
199 223 255
199 223 255
199 223 255
199 223 255
199 223 255
199 223 255
199 223 255
199 223 255
199 223 255
199 223 255
198 223 255
198 223 255
198 223 255
198 223 255
198 223 255
198 223 255
198 223 255
198 223 255
198 223 255
198 223 255
198 223 255
198 223 255
198 223 255
198 223 255
198 223 255
198 223 255
198 223 255
198 223 255
198 223 255
198 223 255
198 223 255
198 223 255
198 223 255
198 223 255
197 223 255
197 222 255
197 222 255
197 222 255
197 222 255
197 222 255
197 222 255
197 222 255
197 222 255
197 222 255
197 222 255
197 222 255
197 222 255
197 222 255
197 222 255
197 222 255
197 222 255
197 222 255
197 222 255
197 222 255
197 222 255
197 222 255
197 222 255
197 222 255
197 222 255
197 222 255
197 222 255
197 222 255
197 222 255
197 222 255
197 222 255
197 222 255
197 222 255
197 222 255
197 222 255
197 222 255
197 222 255
197 222 255
197 222 255
197 222 255
197 222 255
197 222 255
197 222 255
197 222 255
197 222 255
197 222 255
197 222 255
197 222 255
197 222 255
197 223 255
198 223 255
198 223 255
198 223 255
198 223 255
198 223 255
198 223 255
198 223 255
198 223 255
198 223 255
198 223 255
198 223 255
198 223 255
198 223 255
198 223 255
198 223 255
198 223 255
198 223 255
198 223 255
198 223 255
198 223 255
198 223 255
198 223 255
198 223 255
198 223 255
199 223 255
199 223 255
199 223 255
199 223 255
199 223 255
199 223 255
199 223 255
199 223 255
199 223 255
199 223 255
199 223 255
199 223 255
199 223 255
199 223 255
199 223 255
199 224 255
199 224 255
199 224 255
200 224 255
200 224 255
200 224 255
200 224 255
200 224 255
200 224 255
200 224 255
200 224 255
200 224 255
200 224 255
200 224 255
200 224 255
200 224 255
200 224 255
200 224 255
201 224 255
201 224 255
201 224 255
201 224 255
201 224 255
201 224 255
201 224 255
201 224 255
201 224 255
201 224 255
201 224 255
201 225 255
201 225 255
201 225 255
201 225 255
202 225 255
202 225 255
202 225 255
202 225 255
202 225 255
202 225 255
202 225 255
202 225 255
202 225 255
202 225 255
202 225 255
202 225 255
202 225 255
202 225 255
202 225 255
203 225 255
203 225 255
203 225 255
203 225 255
203 225 255
203 225 255
203 225 255
203 225 255
203 226 255
203 226 255
203 226 255
203 226 255
203 226 255
203 226 255
203 226 255
204 226 255
204 226 255
204 226 255
204 226 255
204 226 255
204 226 255
204 226 255
204 226 255
204 226 255
204 226 255
204 226 255
204 226 255
204 226 255
204 226 255
204 226 255
204 226 255
205 226 255
205 226 255
205 226 255
205 226 255
205 226 255
205 226 255
205 226 255
205 227 255
205 227 255
205 227 255
205 227 255
205 227 255
205 227 255
205 227 255
205 227 255
205 227 255
205 227 255
206 227 255
206 227 255
206 227 255
206 227 255
206 227 255
206 227 255
206 227 255
206 227 255
206 227 255
206 227 255
206 227 255
206 227 255
206 227 255
206 227 255
206 227 255
206 227 255
206 227 255
206 227 255
206 227 255
207 227 255
207 227 255
207 227 255
207 227 255
207 227 255
207 228 255
207 228 255
207 228 255
207 228 255
207 228 255
207 228 255
207 228 255
207 228 255
207 228 255
207 228 255
207 228 255
207 228 255
207 228 255
207 228 255
207 228 255
208 228 255
208 228 255
208 228 255
208 228 255
208 228 255
207 228 255
207 228 255
207 228 255
207 228 255
207 228 255
207 228 255
207 228 255
207 228 255
207 228 255
207 228 255
207 228 255
207 228 255
207 228 255
207 228 255
207 228 255
207 227 255
207 227 255
207 227 255
207 227 255
207 227 255
206 227 255
206 227 255
206 227 255
206 227 255
206 227 255
206 227 255
206 227 255
206 227 255
206 227 255
206 227 255
206 227 255
206 227 255
206 227 255
206 227 255
206 227 255
206 227 255
206 227 255
206 227 255
205 227 255
205 227 255
205 227 255
205 227 255
205 227 255
205 227 255
205 227 255
205 227 255
205 227 255
205 227 255
205 227 255
205 226 255
205 226 255
205 226 255
205 226 255
205 226 255
205 226 255
204 226 255
204 226 255
204 226 255
204 226 255
204 226 255
204 226 255
204 226 255
204 226 255
204 226 255
204 226 255
204 226 255
204 226 255
204 226 255
204 226 255
204 226 255
204 226 255
203 226 255
203 226 255
203 226 255
203 226 255
203 226 255
203 226 255
203 226 255
203 225 255
203 225 255
203 225 255
203 225 255
203 225 255
203 225 255
203 225 255
203 225 255
202 225 255
202 225 255
202 225 255
202 225 255
202 225 255
202 225 255
202 225 255
202 225 255
202 225 255
202 225 255
202 225 255
202 225 255
202 225 255
202 225 255
202 225 255
202 225 255
201 225 255
201 225 255
201 225 255
201 225 255
201 224 255
201 224 255
201 224 255
201 224 255
201 224 255
201 224 255
201 224 255
201 224 255
201 224 255
201 224 255
201 224 255
200 224 255
200 224 255
200 224 255
200 224 255
200 224 255
200 224 255
200 224 255
200 224 255
200 224 255
200 224 255
200 224 255
200 224 255
200 224 255
200 224 255
200 224 255
199 224 255
199 224 255
199 224 255
199 223 255
199 223 255
199 223 255
199 223 255
199 223 255
199 223 255
199 223 255
199 223 255
199 223 255
199 223 255
199 223 255
199 223 255
199 223 255
199 223 255
199 223 255
199 223 255
198 223 255
198 223 255
198 223 255
198 223 255
198 223 255
198 223 255
198 223 255
198 223 255
198 223 255
198 223 255
198 223 255
198 223 255
198 223 255
198 223 255
198 223 255
198 223 255
198 223 255
198 223 255
198 223 255
198 223 255
198 223 255
198 223 255
198 223 255
198 223 255
198 223 255
198 223 255
198 223 255
198 223 255
197 223 255
197 222 255
197 222 255
197 222 255
197 222 255
197 222 255
197 222 255
197 222 255
197 222 255
197 222 255
197 222 255
197 222 255
197 222 255
197 222 255
197 222 255
197 222 255
197 222 255
197 222 255
197 222 255
197 222 255
197 222 255
197 222 255
197 222 255
197 222 255
197 222 255
197 222 255
197 222 255
197 222 255
197 222 255
197 222 255
197 222 255
197 222 255
197 222 255
197 223 255
197 223 255
198 223 255
198 223 255
198 223 255
198 223 255
198 223 255
198 223 255
198 223 255
198 223 255
198 223 255
198 223 255
198 223 255
198 223 255
198 223 255
198 223 255
198 223 255
198 223 255
198 223 255
198 223 255
198 223 255
198 223 255
198 223 255
198 223 255
198 223 255
198 223 255
198 223 255
198 223 255
198 223 255
199 223 255
199 223 255
199 223 255
199 223 255
199 223 255
199 223 255
199 223 255
199 223 255
199 223 255
199 223 255
199 223 255
199 223 255
199 223 255
199 223 255
199 223 255
199 223 255
199 224 255
199 224 255
199 224 255
200 224 255
200 224 255
200 224 255
200 224 255
200 224 255
200 224 255
200 224 255
200 224 255
200 224 255
200 224 255
200 224 255
200 224 255
200 224 255
200 224 255
200 224 255
201 224 255
201 224 255
201 224 255
201 224 255
201 224 255
201 224 255
201 224 255
201 224 255
201 224 255
201 224 255
201 224 255
201 225 255
201 225 255
201 225 255
201 225 255
202 225 255
202 225 255
202 225 255
202 225 255
202 225 255
202 225 255
202 225 255
202 225 255
202 225 255
202 225 255
202 225 255
202 225 255
202 225 255
202 225 255
202 225 255
203 225 255
203 225 255
203 225 255
203 225 255
203 225 255
203 225 255
203 225 255
203 225 255
203 225 255
203 226 255
203 226 255
203 226 255
203 226 255
203 226 255
203 226 255
203 226 255
204 226 255
204 226 255
204 226 255
204 226 255
204 226 255
204 226 255
204 226 255
204 226 255
204 226 255
204 226 255
204 226 255
204 226 255
204 226 255
204 226 255
204 226 255
204 226 255
205 226 255
205 226 255
205 226 255
205 226 255
205 226 255
205 226 255
205 227 255
205 227 255
205 227 255
205 227 255
205 227 255
205 227 255
205 227 255
205 227 255
205 227 255
205 227 255
206 227 255
206 227 255
206 227 255
206 227 255
206 227 255
206 227 255
206 227 255
206 227 255
206 227 255
206 227 255
206 227 255
206 227 255
206 227 255
206 227 255
206 227 255
206 227 255
206 227 255
206 227 255
206 227 255
207 227 255
207 227 255
207 227 255
207 227 255
207 227 255
207 228 255
207 228 255
207 228 255
207 228 255
207 228 255
207 228 255
207 228 255
207 228 255
207 228 255
207 228 255
207 228 255
207 228 255
207 228 255
207 228 255
207 228 255
208 228 255
208 228 255
208 228 255
208 228 255
208 228 255
208 228 255
208 228 255
208 228 255
208 228 255
208 228 255
208 228 255
207 228 255
207 228 255
207 228 255
207 228 255
207 228 255
207 228 255
207 228 255
207 228 255
207 228 255
207 228 255
207 228 255
207 228 255
207 228 255
207 228 255
207 228 255
207 228 255
207 227 255
207 227 255
207 227 255
207 227 255
206 227 255
206 227 255
206 227 255
206 227 255
206 227 255
206 227 255
206 227 255
206 227 255
206 227 255
206 227 255
206 227 255
206 227 255
206 227 255
206 227 255
206 227 255
206 227 255
206 227 255
206 227 255
205 227 255
205 227 255
205 227 255
205 227 255
205 227 255
205 227 255
205 227 255
205 227 255
205 227 255
205 227 255
205 226 255
205 226 255
205 226 255
205 226 255
205 226 255
205 226 255
205 226 255
204 226 255
204 226 255
204 226 255
204 226 255
204 226 255
204 226 255
204 226 255
204 226 255
204 226 255
204 226 255
204 226 255
204 226 255
204 226 255
204 226 255
204 226 255
204 226 255
203 226 255
203 226 255
203 226 255
203 226 255
203 226 255
203 226 255
203 226 255
203 225 255
203 225 255
203 225 255
203 225 255
203 225 255
203 225 255
203 225 255
203 225 255
202 225 255
202 225 255
202 225 255
202 225 255
202 225 255
202 225 255
202 225 255
202 225 255
202 225 255
202 225 255
202 225 255
202 225 255
202 225 255
202 225 255
202 225 255
201 225 255
201 225 255
201 225 255
201 225 255
201 225 255
201 224 255
201 224 255
201 224 255
201 224 255
201 224 255
201 224 255
201 224 255
201 224 255
201 224 255
201 224 255
200 224 255
200 224 255
200 224 255
200 224 255
200 224 255
200 224 255
200 224 255
200 224 255
200 224 255
200 224 255
200 224 255
200 224 255
200 224 255
200 224 255
200 224 255
200 224 255
199 224 255
199 224 255
199 224 255
199 223 255
199 223 255
199 223 255
199 223 255
199 223 255
199 223 255
199 223 255
199 223 255
199 223 255
199 223 255
199 223 255
199 223 255
199 223 255
199 223 255
199 223 255
199 223 255
199 223 255
198 223 255
198 223 255
198 223 255
198 223 255
198 223 255
198 223 255
198 223 255
198 223 255
198 223 255
198 223 255
198 223 255
198 223 255
198 223 255
198 223 255
198 223 255
198 223 255
198 223 255
198 223 255
198 223 255
198 223 255
198 223 255
198 223 255
198 223 255
198 223 255
198 223 255
198 223 255
198 223 255
198 223 255
198 223 255
198 223 255
198 223 255
198 223 255
198 223 255
198 223 255
198 223 255
198 223 255
198 223 255
198 223 255
197 223 255
197 223 255
198 223 255
197 223 255
198 223 255
198 223 255
197 223 255
198 223 255
198 223 255
198 223 255
198 223 255
198 223 255
198 223 255
198 223 255
198 223 255
198 223 255
198 223 255
198 223 255
198 223 255
198 223 255
198 223 255
198 223 255
198 223 255
198 223 255
198 223 255
198 223 255
198 223 255
198 223 255
198 223 255
198 223 255
198 223 255
198 223 255
198 223 255
198 223 255
198 223 255
198 223 255
198 223 255
198 223 255
198 223 255
198 223 255
198 223 255
198 223 255
198 223 255
198 223 255
199 223 255
199 223 255
199 223 255
199 223 255
199 223 255
199 223 255
199 223 255
199 223 255
199 223 255
199 223 255
199 223 255
199 223 255
199 223 255
199 223 255
199 223 255
199 223 255
199 223 255
199 224 255
199 224 255
200 224 255
200 224 255
200 224 255
200 224 255
200 224 255
200 224 255
200 224 255
200 224 255
200 224 255
200 224 255
200 224 255
200 224 255
200 224 255
200 224 255
200 224 255
200 224 255
200 224 255
201 224 255
201 224 255
201 224 255
201 224 255
201 224 255
201 224 255
201 224 255
201 224 255
201 224 255
201 224 255
201 225 255
201 225 255
201 225 255
201 225 255
201 225 255
202 225 255
202 225 255
202 225 255
202 225 255
202 225 255
202 225 255
202 225 255
202 225 255
202 225 255
202 225 255
202 225 255
202 225 255
202 225 255
202 225 255
202 225 255
203 225 255
203 225 255
203 225 255
203 225 255
203 225 255
203 225 255
203 225 255
203 225 255
203 226 255
203 226 255
203 226 255
203 226 255
203 226 255
203 226 255
203 226 255
204 226 255
204 226 255
204 226 255
204 226 255
204 226 255
204 226 255
204 226 255
204 226 255
204 226 255
204 226 255
204 226 255
204 226 255
204 226 255
204 226 255
204 226 255
204 226 255
205 226 255
205 226 255
205 226 255
205 226 255
205 226 255
205 226 255
205 226 255
205 227 255
205 227 255
205 227 255
205 227 255
205 227 255
205 227 255
205 227 255
205 227 255
205 227 255
205 227 255
206 227 255
206 227 255
206 227 255
206 227 255
206 227 255
206 227 255
206 227 255
206 227 255
206 227 255
206 227 255
206 227 255
206 227 255
206 227 255
206 227 255
206 227 255
206 227 255
206 227 255
206 227 255
207 227 255
207 227 255
207 227 255
207 227 255
207 227 255
207 228 255
207 228 255
207 228 255
207 228 255
207 228 255
207 228 255
207 228 255
207 228 255
207 228 255
207 228 255
207 228 255
207 228 255
207 228 255
207 228 255
207 228 255
208 228 255
208 228 255
208 228 255
208 228 255
208 228 255
208 228 255
208 228 255
208 228 255
208 228 255
208 228 255
208 228 255
208 228 255
208 228 255
208 228 255
208 228 255
208 228 255
208 228 255
207 228 255
207 228 255
207 228 255
207 228 255
207 228 255
207 228 255
207 228 255
207 228 255
207 228 255
207 228 255
207 228 255
207 228 255
207 228 255
207 228 255
207 228 255
207 227 255
207 227 255
207 227 255
207 227 255
207 227 255
206 227 255
206 227 255
206 227 255
206 227 255
206 227 255
206 227 255
206 227 255
206 227 255
206 227 255
206 227 255
206 227 255
206 227 255
206 227 255
206 227 255
206 227 255
206 227 255
206 227 255
206 227 255
205 227 255
205 227 255
205 227 255
205 227 255
205 227 255
205 227 255
205 227 255
205 227 255
205 227 255
205 227 255
205 226 255
205 226 255
205 226 255
205 226 255
205 226 255
205 226 255
205 226 255
204 226 255
204 226 255
204 226 255
204 226 255
204 226 255
204 226 255
204 226 255
204 226 255
204 226 255
204 226 255
204 226 255
204 226 255
204 226 255
204 226 255
204 226 255
204 226 255
203 226 255
203 226 255
203 226 255
203 226 255
203 226 255
203 226 255
203 225 255
203 225 255
203 225 255
203 225 255
203 225 255
203 225 255
203 225 255
203 225 255
203 225 255
202 225 255
202 225 255
202 225 255
202 225 255
202 225 255
202 225 255
202 225 255
202 225 255
202 225 255
202 225 255
202 225 255
202 225 255
202 225 255
202 225 255
202 225 255
201 225 255
201 225 255
201 225 255
201 225 255
201 224 255
201 224 255
201 224 255
201 224 255
201 224 255
201 224 255
201 224 255
201 224 255
201 224 255
201 224 255
201 224 255
200 224 255
200 224 255
200 224 255
200 224 255
200 224 255
200 224 255
200 224 255
200 224 255
200 224 255
200 224 255
200 224 255
200 224 255
200 224 255
200 224 255
200 224 255
200 224 255
200 224 255
199 224 255
199 224 255
199 224 255
199 223 255
199 223 255
199 223 255
199 223 255
199 223 255
199 223 255
199 223 255
199 223 255
199 223 255
199 223 255
199 223 255
199 223 255
199 223 255
199 223 255
199 223 255
199 223 255
199 223 255
198 223 255
198 223 255
198 223 255
198 223 255
198 223 255
198 223 255
198 223 255
198 223 255
198 223 255
198 223 255
198 223 255
198 223 255
198 223 255
198 223 255
198 223 255
198 223 255
198 223 255
198 223 255
198 223 255
198 223 255
198 223 255
198 223 255
198 223 255
198 223 255
198 223 255
198 223 255
198 223 255
198 223 255
198 223 255
198 223 255
198 223 255
198 223 255
198 223 255
198 223 255
198 223 255
198 223 255
198 223 255
198 223 255
198 223 255
198 223 255
198 223 255
198 223 255
198 223 255
198 223 255
198 223 255
198 223 255
198 223 255
198 223 255
198 223 255
198 223 255
198 223 255
198 223 255
198 223 255
198 223 255
198 223 255
198 223 255
198 223 255
198 223 255
198 223 255
198 223 255
198 223 255
198 223 255
198 223 255
198 223 255
198 223 255
198 223 255
198 223 255
198 223 255
198 223 255
198 223 255
198 223 255
198 223 255
198 223 255
198 223 255
199 223 255
199 223 255
199 223 255
199 223 255
199 223 255
199 223 255
199 223 255
199 223 255
199 223 255
199 223 255
199 223 255
199 223 255
199 223 255
199 223 255
199 223 255
199 223 255
199 223 255
199 224 255
199 224 255
199 224 255
200 224 255
200 224 255
200 224 255
200 224 255
200 224 255
200 224 255
200 224 255
200 224 255
200 224 255
200 224 255
200 224 255
200 224 255
200 224 255
200 224 255
200 224 255
200 224 255
200 224 255
201 224 255
201 224 255
201 224 255
201 224 255
201 224 255
201 224 255
201 224 255
201 224 255
201 224 255
201 224 255
201 224 255
201 225 255
201 225 255
201 225 255
201 225 255
202 225 255
202 225 255
202 225 255
202 225 255
202 225 255
202 225 255
202 225 255
202 225 255
202 225 255
202 225 255
202 225 255
202 225 255
202 225 255
202 225 255
202 225 255
203 225 255
203 225 255
203 225 255
203 225 255
203 225 255
203 225 255
203 225 255
203 225 255
203 225 255
203 226 255
203 226 255
203 226 255
203 226 255
203 226 255
203 226 255
204 226 255
204 226 255
204 226 255
204 226 255
204 226 255
204 226 255
204 226 255
204 226 255
204 226 255
204 226 255
204 226 255
204 226 255
204 226 255
204 226 255
204 226 255
204 226 255
205 226 255
205 226 255
205 226 255
205 226 255
205 226 255
205 226 255
205 226 255
205 227 255
205 227 255
205 227 255
205 227 255
205 227 255
205 227 255
205 227 255
205 227 255
205 227 255
205 227 255
206 227 255
206 227 255
206 227 255
206 227 255
206 227 255
206 227 255
206 227 255
206 227 255
206 227 255
206 227 255
206 227 255
206 227 255
206 227 255
206 227 255
206 227 255
206 227 255
206 227 255
206 227 255
207 227 255
207 227 255
207 227 255
207 227 255
207 227 255
207 228 255
207 228 255
207 228 255
207 228 255
207 228 255
207 228 255
207 228 255
207 228 255
207 228 255
207 228 255
207 228 255
207 228 255
207 228 255
207 228 255
207 228 255
208 228 255
208 228 255
208 228 255
208 228 255
208 228 255
208 228 255
208 228 255
208 228 255
208 228 255
208 228 255
208 228 255
208 228 255
208 228 255
208 228 255
208 228 255
208 228 255
208 228 255
208 228 255
208 228 255
208 228 255
208 228 255
208 228 255
208 228 255
207 228 255
207 228 255
207 228 255
207 228 255
207 228 255
207 228 255
207 228 255
207 228 255
207 228 255
207 228 255
207 228 255
207 228 255
207 228 255
207 228 255
207 228 255
207 227 255
207 227 255
207 227 255
207 227 255
207 227 255
206 227 255
206 227 255
206 227 255
206 227 255
206 227 255
206 227 255
206 227 255
206 227 255
206 227 255
206 227 255
206 227 255
206 227 255
206 227 255
206 227 255
206 227 255
206 227 255
206 227 255
206 227 255
205 227 255
205 227 255
205 227 255
205 227 255
205 227 255
205 227 255
205 227 255
205 227 255
205 227 255
205 227 255
205 226 255
205 226 255
205 226 255
205 226 255
205 226 255
205 226 255
204 226 255
204 226 255
204 226 255
204 226 255
204 226 255
204 226 255
204 226 255
204 226 255
204 226 255
204 226 255
204 226 255
204 226 255
204 226 255
204 226 255
204 226 255
204 226 255
203 226 255
203 226 255
203 226 255
203 226 255
203 226 255
203 226 255
203 226 255
203 225 255
203 225 255
203 225 255
203 225 255
203 225 255
203 225 255
203 225 255
203 225 255
202 225 255
202 225 255
202 225 255
202 225 255
202 225 255
202 225 255
202 225 255
202 225 255
202 225 255
202 225 255
202 225 255
202 225 255
202 225 255
202 225 255
202 225 255
202 225 255
201 225 255
201 225 255
201 225 255
201 225 255
201 224 255
201 224 255
201 224 255
201 224 255
201 224 255
201 224 255
201 224 255
201 224 255
201 224 255
201 224 255
201 224 255
200 224 255
200 224 255
200 224 255
200 224 255
200 224 255
200 224 255
200 224 255
200 224 255
200 224 255
200 224 255
200 224 255
200 224 255
200 224 255
200 224 255
200 224 255
200 224 255
200 224 255
199 224 255
199 224 255
199 224 255
199 223 255
199 223 255
199 223 255
199 223 255
199 223 255
199 223 255
199 223 255
199 223 255
199 223 255
199 223 255
199 223 255
199 223 255
199 223 255
199 223 255
199 223 255
199 223 255
199 223 255
199 223 255
199 223 255
198 223 255
198 223 255
198 223 255
198 223 255
198 223 255
198 223 255
198 223 255
198 223 255
198 223 255
198 223 255
198 223 255
198 223 255
198 223 255
198 223 255
198 223 255
198 223 255
198 223 255
198 223 255
198 223 255
198 223 255
198 223 255
198 223 255
198 223 255
198 223 255
198 223 255
198 223 255
198 223 255
198 223 255
198 223 255
198 223 255
198 223 255
198 223 255
198 223 255
198 223 255
198 223 255
198 223 255
198 223 255
198 223 255
198 223 255
198 223 255
198 223 255
198 223 255
198 223 255
198 223 255
198 223 255
198 223 255
198 223 255
198 223 255
198 223 255
198 223 255
198 223 255
198 223 255
198 223 255
198 223 255
198 223 255
198 223 255
198 223 255
198 223 255
198 223 255
198 223 255
198 223 255
198 223 255
198 223 255
198 223 255
199 223 255
199 223 255
199 223 255
199 223 255
199 223 255
199 223 255
199 223 255
199 223 255
199 223 255
199 223 255
199 223 255
199 223 255
199 223 255
199 223 255
199 223 255
199 223 255
199 223 255
199 223 255
199 223 255
199 224 255
199 224 255
199 224 255
200 224 255
200 224 255
200 224 255
200 224 255
200 224 255
200 224 255
200 224 255
200 224 255
200 224 255
200 224 255
200 224 255
200 224 255
200 224 255
200 224 255
200 224 255
200 224 255
200 224 255
201 224 255
201 224 255
201 224 255
201 224 255
201 224 255
201 224 255
201 224 255
201 224 255
201 224 255
201 224 255
201 224 255
201 225 255
201 225 255
201 225 255
201 225 255
202 225 255
202 225 255
202 225 255
202 225 255
202 225 255
202 225 255
202 225 255
202 225 255
202 225 255
202 225 255
202 225 255
202 225 255
202 225 255
202 225 255
202 225 255
203 225 255
203 225 255
203 225 255
203 225 255
203 225 255
203 225 255
203 225 255
203 225 255
203 225 255
203 226 255
203 226 255
203 226 255
203 226 255
203 226 255
203 226 255
203 226 255
204 226 255
204 226 255
204 226 255
204 226 255
204 226 255
204 226 255
204 226 255
204 226 255
204 226 255
204 226 255
204 226 255
204 226 255
204 226 255
204 226 255
204 226 255
204 226 255
205 226 255
205 226 255
205 226 255
205 226 255
205 226 255
205 226 255
205 227 255
205 227 255
205 227 255
205 227 255
205 227 255
205 227 255
205 227 255
205 227 255
205 227 255
205 227 255
206 227 255
206 227 255
206 227 255
206 227 255
206 227 255
206 227 255
206 227 255
206 227 255
206 227 255
206 227 255
206 227 255
206 227 255
206 227 255
206 227 255
206 227 255
206 227 255
206 227 255
206 227 255
207 227 255
207 227 255
207 227 255
207 227 255
207 227 255
207 228 255
207 228 255
207 228 255
207 228 255
207 228 255
207 228 255
207 228 255
207 228 255
207 228 255
207 228 255
207 228 255
207 228 255
207 228 255
207 228 255
207 228 255
208 228 255
208 228 255
208 228 255
208 228 255
208 228 255
208 228 255
208 228 255
208 228 255
208 228 255
208 228 255
208 228 255
208 228 255
208 228 255
208 228 255
208 228 255
208 228 255
208 228 255
208 228 255
208 228 255
208 228 255
208 228 255
208 228 255
208 228 255
208 228 255
208 228 255
208 228 255
208 228 255
208 228 255
208 228 255
207 228 255
207 228 255
207 228 255
207 228 255
207 228 255
207 228 255
207 228 255
207 228 255
207 228 255
207 228 255
207 228 255
207 228 255
207 228 255
207 228 255
207 228 255
207 227 255
207 227 255
207 227 255
207 227 255
207 227 255
206 227 255
206 227 255
206 227 255
206 227 255
206 227 255
206 227 255
206 227 255
206 227 255
206 227 255
206 227 255
206 227 255
206 227 255
206 227 255
206 227 255
206 227 255
206 227 255
206 227 255
205 227 255
205 227 255
205 227 255
205 227 255
205 227 255
205 227 255
205 227 255
205 227 255
205 227 255
205 227 255
205 227 255
205 226 255
205 226 255
205 226 255
205 226 255
205 226 255
205 226 255
204 226 255
204 226 255
204 226 255
204 226 255
204 226 255
204 226 255
204 226 255
204 226 255
204 226 255
204 226 255
204 226 255
204 226 255
204 226 255
204 226 255
204 226 255
204 226 255
203 226 255
203 226 255
203 226 255
203 226 255
203 226 255
203 226 255
203 226 255
203 225 255
203 225 255
203 225 255
203 225 255
203 225 255
203 225 255
203 225 255
203 225 255
202 225 255
202 225 255
202 225 255
202 225 255
202 225 255
202 225 255
202 225 255
202 225 255
202 225 255
202 225 255
202 225 255
202 225 255
202 225 255
202 225 255
202 225 255
201 225 255
201 225 255
201 225 255
201 225 255
201 225 255
201 224 255
201 224 255
201 224 255
201 224 255
201 224 255
201 224 255
201 224 255
201 224 255
201 224 255
201 224 255
201 224 255
200 224 255
200 224 255
200 224 255
200 224 255
200 224 255
200 224 255
200 224 255
200 224 255
200 224 255
200 224 255
200 224 255
200 224 255
200 224 255
200 224 255
200 224 255
200 224 255
200 224 255
200 224 255
199 224 255
199 224 255
199 224 255
199 223 255
199 223 255
199 223 255
199 223 255
199 223 255
199 223 255
199 223 255
199 223 255
199 223 255
199 223 255
199 223 255
199 223 255
199 223 255
199 223 255
199 223 255
199 223 255
199 223 255
199 223 255
199 223 255
199 223 255
198 223 255
198 223 255
198 223 255
198 223 255
198 223 255
198 223 255
198 223 255
198 223 255
198 223 255
198 223 255
198 223 255
198 223 255
198 223 255
198 223 255
198 223 255
198 223 255
198 223 255
198 223 255
198 223 255
198 223 255
198 223 255
198 223 255
198 223 255
198 223 255
198 223 255
198 223 255
198 223 255
198 223 255
198 223 255
198 223 255
198 223 255
198 223 255
198 223 255
198 223 255
198 223 255
198 223 255
198 223 255
198 223 255
198 223 255
198 223 255
198 223 255
198 223 255
198 223 255
198 223 255
198 223 255
198 223 255
198 223 255
198 223 255
198 223 255
198 223 255
198 223 255
198 223 255
198 223 255
198 223 255
199 223 255
199 223 255
199 223 255
199 223 255
199 223 255
199 223 255
199 223 255
199 223 255
199 223 255
199 223 255
199 223 255
199 223 255
199 223 255
199 223 255
199 223 255
199 223 255
199 223 255
199 223 255
199 223 255
199 223 255
199 224 255
199 224 255
199 224 255
200 224 255
200 224 255
200 224 255
200 224 255
200 224 255
200 224 255
200 224 255
200 224 255
200 224 255
200 224 255
200 224 255
200 224 255
200 224 255
200 224 255
200 224 255
200 224 255
200 224 255
200 224 255
201 224 255
201 224 255
201 224 255
201 224 255
201 224 255
201 224 255
201 224 255
201 224 255
201 224 255
201 224 255
201 224 255
201 225 255
201 225 255
201 225 255
201 225 255
201 225 255
202 225 255
202 225 255
202 225 255
202 225 255
202 225 255
202 225 255
202 225 255
202 225 255
202 225 255
202 225 255
202 225 255
202 225 255
202 225 255
202 225 255
202 225 255
203 225 255
203 225 255
203 225 255
203 225 255
203 225 255
203 225 255
203 225 255
203 225 255
203 226 255
203 226 255
203 226 255
203 226 255
203 226 255
203 226 255
203 226 255
204 226 255
204 226 255
204 226 255
204 226 255
204 226 255
204 226 255
204 226 255
204 226 255
204 226 255
204 226 255
204 226 255
204 226 255
204 226 255
204 226 255
204 226 255
204 226 255
205 226 255
205 226 255
205 226 255
205 226 255
205 226 255
205 226 255
205 227 255
205 227 255
205 227 255
205 227 255
205 227 255
205 227 255
205 227 255
205 227 255
205 227 255
205 227 255
206 227 255
206 227 255
206 227 255
206 227 255
206 227 255
206 227 255
206 227 255
206 227 255
206 227 255
206 227 255
206 227 255
206 227 255
206 227 255
206 227 255
206 227 255
206 227 255
206 227 255
206 227 255
207 227 255
207 227 255
207 227 255
207 227 255
207 227 255
207 228 255
207 228 255
207 228 255
207 228 255
207 228 255
207 228 255
207 228 255
207 228 255
207 228 255
207 228 255
207 228 255
207 228 255
207 228 255
207 228 255
207 228 255
208 228 255
208 228 255
208 228 255
208 228 255
208 228 255
208 228 255
208 228 255
208 228 255
208 228 255
208 228 255
208 228 255
208 228 255
208 228 255
208 228 255
208 228 255
208 228 255
208 228 255
208 228 255
208 228 255
208 228 255
208 228 255
208 228 255
208 228 255
208 228 255
208 228 255
208 228 255
208 228 255
208 228 255
208 228 255
208 228 255
208 228 255
208 228 255
208 228 255
208 228 255
208 228 255
207 228 255
207 228 255
207 228 255
207 228 255
207 228 255
207 228 255
207 228 255
207 228 255
207 228 255
207 228 255
207 228 255
207 228 255
207 228 255
207 228 255
207 228 255
207 227 255
207 227 255
207 227 255
207 227 255
207 227 255
206 227 255
206 227 255
206 227 255
206 227 255
206 227 255
206 227 255
206 227 255
206 227 255
206 227 255
206 227 255
206 227 255
206 227 255
206 227 255
206 227 255
206 227 255
206 227 255
206 227 255
205 227 255
205 227 255
205 227 255
205 227 255
205 227 255
205 227 255
205 227 255
205 227 255
205 227 255
205 227 255
205 226 255
205 226 255
205 226 255
205 226 255
205 226 255
205 226 255
205 226 255
204 226 255
204 226 255
204 226 255
204 226 255
204 226 255
204 226 255
204 226 255
204 226 255
204 226 255
204 226 255
204 226 255
204 226 255
204 226 255
204 226 255
204 226 255
204 226 255
203 226 255
203 226 255
203 226 255
203 226 255
203 226 255
203 226 255
203 225 255
203 225 255
203 225 255
203 225 255
203 225 255
203 225 255
203 225 255
203 225 255
203 225 255
202 225 255
202 225 255
202 225 255
202 225 255
202 225 255
202 225 255
202 225 255
202 225 255
202 225 255
202 225 255
202 225 255
202 225 255
202 225 255
202 225 255
202 225 255
201 225 255
201 225 255
201 225 255
201 225 255
201 225 255
201 224 255
201 224 255
201 224 255
201 224 255
201 224 255
201 224 255
201 224 255
201 224 255
201 224 255
201 224 255
201 224 255
200 224 255
200 224 255
200 224 255
200 224 255
200 224 255
200 224 255
200 224 255
200 224 255
200 224 255
200 224 255
200 224 255
200 224 255
200 224 255
200 224 255
200 224 255
200 224 255
200 224 255
200 224 255
199 224 255
199 224 255
199 224 255
199 224 255
199 223 255
199 223 255
199 223 255
199 223 255
199 223 255
199 223 255
199 223 255
199 223 255
199 223 255
199 223 255
199 223 255
199 223 255
199 223 255
199 223 255
199 223 255
199 223 255
199 223 255
199 223 255
199 223 255
199 223 255
199 223 255
199 223 255
199 223 255
198 223 255
198 223 255
198 223 255
198 223 255
198 223 255
198 223 255
198 223 255
198 223 255
198 223 255
198 223 255
198 223 255
198 223 255
198 223 255
198 223 255
198 223 255
198 223 255
198 223 255
198 223 255
198 223 255
198 223 255
198 223 255
198 223 255
198 223 255
198 223 255
198 223 255
198 223 255
198 223 255
198 223 255
198 223 255
198 223 255
198 223 255
198 223 255
198 223 255
198 223 255
198 223 255
198 223 255
198 223 255
198 223 255
198 223 255
198 223 255
199 223 255
199 223 255
199 223 255
199 223 255
199 223 255
199 223 255
199 223 255
199 223 255
199 223 255
199 223 255
199 223 255
199 223 255
199 223 255
199 223 255
199 223 255
199 223 255
199 223 255
199 223 255
199 223 255
199 223 255
199 223 255
199 223 255
199 223 255
199 224 255
199 224 255
199 224 255
199 224 255
200 224 255
200 224 255
200 224 255
200 224 255
200 224 255
200 224 255
200 224 255
200 224 255
200 224 255
200 224 255
200 224 255
200 224 255
200 224 255
200 224 255
200 224 255
200 224 255
200 224 255
200 224 255
201 224 255
201 224 255
201 224 255
201 224 255
201 224 255
201 224 255
201 224 255
201 224 255
201 224 255
201 224 255
201 224 255
201 225 255
201 225 255
201 225 255
201 225 255
201 225 255
202 225 255
202 225 255
202 225 255
202 225 255
202 225 255
202 225 255
202 225 255
202 225 255
202 225 255
202 225 255
202 225 255
202 225 255
202 225 255
202 225 255
202 225 255
203 225 255
203 225 255
203 225 255
203 225 255
203 225 255
203 225 255
203 225 255
203 225 255
203 225 255
203 226 255
203 226 255
203 226 255
203 226 255
203 226 255
203 226 255
204 226 255
204 226 255
204 226 255
204 226 255
204 226 255
204 226 255
204 226 255
204 226 255
204 226 255
204 226 255
204 226 255
204 226 255
204 226 255
204 226 255
204 226 255
204 226 255
205 226 255
205 226 255
205 226 255
205 226 255
205 226 255
205 226 255
205 226 255
205 227 255
205 227 255
205 227 255
205 227 255
205 227 255
205 227 255
205 227 255
205 227 255
205 227 255
205 227 255
206 227 255
206 227 255
206 227 255
206 227 255
206 227 255
206 227 255
206 227 255
206 227 255
206 227 255
206 227 255
206 227 255
206 227 255
206 227 255
206 227 255
206 227 255
206 227 255
206 227 255
207 227 255
207 227 255
207 227 255
207 227 255
207 227 255
207 228 255
207 228 255
207 228 255
207 228 255
207 228 255
207 228 255
207 228 255
207 228 255
207 228 255
207 228 255
207 228 255
207 228 255
207 228 255
207 228 255
207 228 255
208 228 255
208 228 255
208 228 255
208 228 255
208 228 255
208 228 255
208 228 255
208 228 255
208 228 255
208 228 255
208 228 255
208 228 255
208 228 255
208 228 255
208 228 255
208 228 255
208 228 255
208 228 255
208 228 255
209 228 255
208 228 255
208 228 255
208 228 255
208 228 255
208 228 255
208 228 255
208 228 255
208 228 255
208 228 255
208 228 255
208 228 255
208 228 255
208 228 255
208 228 255
208 228 255
208 228 255
208 228 255
208 228 255
208 228 255
208 228 255
208 228 255
207 228 255
207 228 255
207 228 255
207 228 255
207 228 255
207 228 255
207 228 255
207 228 255
207 228 255
207 228 255
207 228 255
207 228 255
207 228 255
207 228 255
207 228 255
207 227 255
207 227 255
207 227 255
207 227 255
207 227 255
206 227 255
206 227 255
206 227 255
206 227 255
206 227 255
206 227 255
206 227 255
206 227 255
206 227 255
206 227 255
206 227 255
206 227 255
206 227 255
206 227 255
206 227 255
206 227 255
206 227 255
205 227 255
205 227 255
205 227 255
205 227 255
205 227 255
205 227 255
205 227 255
205 227 255
205 227 255
205 227 255
205 226 255
205 226 255
205 226 255
205 226 255
205 226 255
205 226 255
205 226 255
204 226 255
204 226 255
204 226 255
204 226 255
204 226 255
204 226 255
204 226 255
204 226 255
204 226 255
204 226 255
204 226 255
204 226 255
204 226 255
204 226 255
204 226 255
203 226 255
203 226 255
203 226 255
203 226 255
203 226 255
203 226 255
203 226 255
203 225 255
203 225 255
203 225 255
203 225 255
203 225 255
203 225 255
203 225 255
203 225 255
203 225 255
202 225 255
202 225 255
202 225 255
202 225 255
202 225 255
202 225 255
202 225 255
202 225 255
202 225 255
202 225 255
202 225 255
202 225 255
202 225 255
202 225 255
202 225 255
201 225 255
201 225 255
201 225 255
201 225 255
201 225 255
201 224 255
201 224 255
201 224 255
201 224 255
201 224 255
201 224 255
201 224 255
201 224 255
201 224 255
201 224 255
201 224 255
200 224 255
200 224 255
200 224 255
200 224 255
200 224 255
200 224 255
200 224 255
200 224 255
200 224 255
200 224 255
200 224 255
200 224 255
200 224 255
200 224 255
200 224 255
200 224 255
200 224 255
200 224 255
200 224 255
200 224 255
199 224 255
199 224 255
199 224 255
199 223 255
199 223 255
199 223 255
199 223 255
199 223 255
199 223 255
199 223 255
199 223 255
199 223 255
199 223 255
199 223 255
199 223 255
199 223 255
199 223 255
199 223 255
199 223 255
199 223 255
199 223 255
199 223 255
199 223 255
199 223 255
199 223 255
199 223 255
199 223 255
199 223 255
199 223 255
199 223 255
199 223 255
199 223 255
198 223 255
198 223 255
198 223 255
198 223 255
198 223 255
198 223 255
198 223 255
198 223 255
198 223 255
198 223 255
198 223 255
198 223 255
198 223 255
198 223 255
198 223 255
198 223 255
198 223 255
198 223 255
198 223 255
199 223 255
199 223 255
199 223 255
199 223 255
199 223 255
199 223 255
199 223 255
199 223 255
199 223 255
199 223 255
199 223 255
199 223 255
199 223 255
199 223 255
199 223 255
199 223 255
199 223 255
199 223 255
199 223 255
199 223 255
199 223 255
199 223 255
199 223 255
199 223 255
199 223 255
199 223 255
199 223 255
199 223 255
199 223 255
199 223 255
199 224 255
199 224 255
199 224 255
199 224 255
200 224 255
200 224 255
200 224 255
200 224 255
200 224 255
200 224 255
200 224 255
200 224 255
200 224 255
200 224 255
200 224 255
200 224 255
200 224 255
200 224 255
200 224 255
200 224 255
200 224 255
200 224 255
200 224 255
201 224 255
201 224 255
201 224 255
201 224 255
201 224 255
201 224 255
201 224 255
201 224 255
201 224 255
201 224 255
201 224 255
201 225 255
201 225 255
201 225 255
201 225 255
201 225 255
202 225 255
202 225 255
202 225 255
202 225 255
202 225 255
202 225 255
202 225 255
202 225 255
202 225 255
202 225 255
202 225 255
202 225 255
202 225 255
202 225 255
202 225 255
203 225 255
203 225 255
203 225 255
203 225 255
203 225 255
203 225 255
203 225 255
203 225 255
203 225 255
203 226 255
203 226 255
203 226 255
203 226 255
203 226 255
203 226 255
203 226 255
204 226 255
204 226 255
204 226 255
204 226 255
204 226 255
204 226 255
204 226 255
204 226 255
204 226 255
204 226 255
204 226 255
204 226 255
204 226 255
204 226 255
204 226 255
205 226 255
205 226 255
205 226 255
205 226 255
205 226 255
205 226 255
205 226 255
205 227 255
205 227 255
205 227 255
205 227 255
205 227 255
205 227 255
205 227 255
205 227 255
205 227 255
205 227 255
206 227 255
206 227 255
206 227 255
206 227 255
206 227 255
206 227 255
206 227 255
206 227 255
206 227 255
206 227 255
206 227 255
206 227 255
206 227 255
206 227 255
206 227 255
206 227 255
206 227 255
207 227 255
207 227 255
207 227 255
207 227 255
207 227 255
207 228 255
207 228 255
207 228 255
207 228 255
207 228 255
207 228 255
207 228 255
207 228 255
207 228 255
207 228 255
207 228 255
207 228 255
207 228 255
207 228 255
207 228 255
208 228 255
208 228 255
208 228 255
208 228 255
208 228 255
208 228 255
208 228 255
208 228 255
208 228 255
208 228 255
208 228 255
208 228 255
208 228 255
208 228 255
208 228 255
208 228 255
208 228 255
208 228 255
208 228 255
208 228 255
208 228 255
209 228 255
209 229 255
209 229 255
209 228 255
209 228 255
208 228 255
208 228 255
208 228 255
208 228 255
208 228 255
208 228 255
208 228 255
208 228 255
208 228 255
208 228 255
208 228 255
208 228 255
208 228 255
208 228 255
208 228 255
208 228 255
208 228 255
208 228 255
208 228 255
208 228 255
208 228 255
207 228 255
207 228 255
207 228 255
207 228 255
207 228 255
207 228 255
207 228 255
207 228 255
207 228 255
207 228 255
207 228 255
207 228 255
207 228 255
207 228 255
207 228 255
207 227 255
207 227 255
207 227 255
207 227 255
207 227 255
206 227 255
206 227 255
206 227 255
206 227 255
206 227 255
206 227 255
206 227 255
206 227 255
206 227 255
206 227 255
206 227 255
206 227 255
206 227 255
206 227 255
206 227 255
206 227 255
206 227 255
205 227 255
205 227 255
205 227 255
205 227 255
205 227 255
205 227 255
205 227 255
205 227 255
205 227 255
205 227 255
205 226 255
205 226 255
205 226 255
205 226 255
205 226 255
205 226 255
205 226 255
204 226 255
204 226 255
204 226 255
204 226 255
204 226 255
204 226 255
204 226 255
204 226 255
204 226 255
204 226 255
204 226 255
204 226 255
204 226 255
204 226 255
204 226 255
203 226 255
203 226 255
203 226 255
203 226 255
203 226 255
203 226 255
203 226 255
203 225 255
203 225 255
203 225 255
203 225 255
203 225 255
203 225 255
203 225 255
203 225 255
203 225 255
202 225 255
202 225 255
202 225 255
202 225 255
202 225 255
202 225 255
202 225 255
202 225 255
202 225 255
202 225 255
202 225 255
202 225 255
202 225 255
202 225 255
202 225 255
201 225 255
201 225 255
201 225 255
201 225 255
201 225 255
201 224 255
201 224 255
201 224 255
201 224 255
201 224 255
201 224 255
201 224 255
201 224 255
201 224 255
201 224 255
201 224 255
201 224 255
200 224 255
200 224 255
200 224 255
200 224 255
200 224 255
200 224 255
200 224 255
200 224 255
200 224 255
200 224 255
200 224 255
200 224 255
200 224 255
200 224 255
200 224 255
200 224 255
200 224 255
200 224 255
200 224 255
200 224 255
199 224 255
199 224 255
199 224 255
199 224 255
199 223 255
199 223 255
199 223 255
199 223 255
199 223 255
199 223 255
199 223 255
199 223 255
199 223 255
199 223 255
199 223 255
199 223 255
199 223 255
199 223 255
199 223 255
199 223 255
199 223 255
199 223 255
199 223 255
199 223 255
199 223 255
199 223 255
199 223 255
199 223 255
199 223 255
199 223 255
199 223 255
199 223 255
199 223 255
199 223 255
199 223 255
199 223 255
199 223 255
199 223 255
199 223 255
199 223 255
199 223 255
199 223 255
199 223 255
199 223 255
199 223 255
199 223 255
199 223 255
199 223 255
199 223 255
199 223 255
199 223 255
199 223 255
199 223 255
199 223 255
199 223 255
199 223 255
199 223 255
199 223 255
199 223 255
199 223 255
199 223 255
199 223 255
199 223 255
199 223 255
199 223 255
199 223 255
199 223 255
199 223 255
199 223 255
199 223 255
199 223 255
199 223 255
199 224 255
199 224 255
199 224 255
199 224 255
200 224 255
200 224 255
200 224 255
200 224 255
200 224 255
200 224 255
200 224 255
200 224 255
200 224 255
200 224 255
200 224 255
200 224 255
200 224 255
200 224 255
200 224 255
200 224 255
200 224 255
200 224 255
200 224 255
200 224 255
201 224 255
201 224 255
201 224 255
201 224 255
201 224 255
201 224 255
201 224 255
201 224 255
201 224 255
201 224 255
201 224 255
201 224 255
201 225 255
201 225 255
201 225 255
201 225 255
201 225 255
202 225 255
202 225 255
202 225 255
202 225 255
202 225 255
202 225 255
202 225 255
202 225 255
202 225 255
202 225 255
202 225 255
202 225 255
202 225 255
202 225 255
202 225 255
203 225 255
203 225 255
203 225 255
203 225 255
203 225 255
203 225 255
203 225 255
203 225 255
203 225 255
203 226 255
203 226 255
203 226 255
203 226 255
203 226 255
203 226 255
203 226 255
204 226 255
204 226 255
204 226 255
204 226 255
204 226 255
204 226 255
204 226 255
204 226 255
204 226 255
204 226 255
204 226 255
204 226 255
204 226 255
204 226 255
204 226 255
204 226 255
205 226 255
205 226 255
205 226 255
205 226 255
205 226 255
205 226 255
205 227 255
205 227 255
205 227 255
205 227 255
205 227 255
205 227 255
205 227 255
205 227 255
205 227 255
205 227 255
206 227 255
206 227 255
206 227 255
206 227 255
206 227 255
206 227 255
206 227 255
206 227 255
206 227 255
206 227 255
206 227 255
206 227 255
206 227 255
206 227 255
206 227 255
206 227 255
206 227 255
207 227 255
207 227 255
207 227 255
207 227 255
207 227 255
207 228 255
207 228 255
207 228 255
207 228 255
207 228 255
207 228 255
207 228 255
207 228 255
207 228 255
207 228 255
207 228 255
207 228 255
207 228 255
207 228 255
207 228 255
208 228 255
208 228 255
208 228 255
208 228 255
208 228 255
208 228 255
208 228 255
208 228 255
208 228 255
208 228 255
208 228 255
208 228 255
208 228 255
208 228 255
208 228 255
208 228 255
208 228 255
208 228 255
208 228 255
208 228 255
208 228 255
209 228 255
209 228 255
209 229 255
209 229 255
209 229 255
209 229 255
209 229 255
209 229 255
209 229 255
209 229 255
209 228 255
208 228 255
208 228 255
208 228 255
208 228 255
208 228 255
208 228 255
208 228 255
208 228 255
208 228 255
208 228 255
208 228 255
208 228 255
208 228 255
208 228 255
208 228 255
208 228 255
208 228 255
208 228 255
208 228 255
208 228 255
208 228 255
207 228 255
207 228 255
207 228 255
207 228 255
207 228 255
207 228 255
207 228 255
207 228 255
207 228 255
207 228 255
207 228 255
207 228 255
207 228 255
207 228 255
207 228 255
207 227 255
207 227 255
207 227 255
207 227 255
206 227 255
206 227 255
206 227 255
206 227 255
206 227 255
206 227 255
206 227 255
206 227 255
206 227 255
206 227 255
206 227 255
206 227 255
206 227 255
206 227 255
206 227 255
206 227 255
206 227 255
206 227 255
205 227 255
205 227 255
205 227 255
205 227 255
205 227 255
205 227 255
205 227 255
205 227 255
205 227 255
205 227 255
205 226 255
205 226 255
205 226 255
205 226 255
205 226 255
205 226 255
204 226 255
204 226 255
204 226 255
204 226 255
204 226 255
204 226 255
204 226 255
204 226 255
204 226 255
204 226 255
204 226 255
204 226 255
204 226 255
204 226 255
204 226 255
204 226 255
203 226 255
203 226 255
203 226 255
203 226 255
203 226 255
203 226 255
203 226 255
203 225 255
203 225 255
203 225 255
203 225 255
203 225 255
203 225 255
203 225 255
203 225 255
203 225 255
202 225 255
202 225 255
202 225 255
202 225 255
202 225 255
202 225 255
202 225 255
202 225 255
202 225 255
202 225 255
202 225 255
202 225 255
202 225 255
202 225 255
202 225 255
201 225 255
201 225 255
201 225 255
201 225 255
201 225 255
201 224 255
201 224 255
201 224 255
201 224 255
201 224 255
201 224 255
201 224 255
201 224 255
201 224 255
201 224 255
201 224 255
201 224 255
200 224 255
200 224 255
200 224 255
200 224 255
200 224 255
200 224 255
200 224 255
200 224 255
200 224 255
200 224 255
200 224 255
200 224 255
200 224 255
200 224 255
200 224 255
200 224 255
200 224 255
200 224 255
200 224 255
200 224 255
200 224 255
200 224 255
199 224 255
199 224 255
199 224 255
199 224 255
199 223 255
199 223 255
199 223 255
199 223 255
199 223 255
199 223 255
199 223 255
199 223 255
199 223 255
199 223 255
199 223 255
199 223 255
199 223 255
199 223 255
199 223 255
199 223 255
199 223 255
199 223 255
199 223 255
199 223 255
199 223 255
199 223 255
199 223 255
199 223 255
199 223 255
199 223 255
199 223 255
199 223 255
199 223 255
199 223 255
199 223 255
199 223 255
199 223 255
199 223 255
199 223 255
199 223 255
199 223 255
199 223 255
199 223 255
199 223 255
199 223 255
199 223 255
199 223 255
199 223 255
199 223 255
199 223 255
199 223 255
199 223 255
199 223 255
199 223 255
199 223 255
199 223 255
199 223 255
199 223 255
199 223 255
199 223 255
199 223 255
199 223 255
199 224 255
199 224 255
199 224 255
199 224 255
200 224 255
200 224 255
200 224 255
200 224 255
200 224 255
200 224 255
200 224 255
200 224 255
200 224 255
200 224 255
200 224 255
200 224 255
200 224 255
200 224 255
200 224 255
200 224 255
200 224 255
200 224 255
200 224 255
200 224 255
200 224 255
200 224 255
201 224 255
201 224 255
201 224 255
201 224 255
201 224 255
201 224 255
201 224 255
201 224 255
201 224 255
201 224 255
201 224 255
201 224 255
201 225 255
201 225 255
201 225 255
201 225 255
201 225 255
202 225 255
202 225 255
202 225 255
202 225 255
202 225 255
202 225 255
202 225 255
202 225 255
202 225 255
202 225 255
202 225 255
202 225 255
202 225 255
202 225 255
202 225 255
202 225 255
203 225 255
203 225 255
203 225 255
203 225 255
203 225 255
203 225 255
203 225 255
203 225 255
203 226 255
203 226 255
203 226 255
203 226 255
203 226 255
203 226 255
203 226 255
204 226 255
204 226 255
204 226 255
204 226 255
204 226 255
204 226 255
204 226 255
204 226 255
204 226 255
204 226 255
204 226 255
204 226 255
204 226 255
204 226 255
204 226 255
204 226 255
205 226 255
205 226 255
205 226 255
205 226 255
205 226 255
205 226 255
205 227 255
205 227 255
205 227 255
205 227 255
205 227 255
205 227 255
205 227 255
205 227 255
205 227 255
205 227 255
206 227 255
206 227 255
206 227 255
206 227 255
206 227 255
206 227 255
206 227 255
206 227 255
206 227 255
206 227 255
206 227 255
206 227 255
206 227 255
206 227 255
206 227 255
206 227 255
206 227 255
207 227 255
207 227 255
207 227 255
207 227 255
207 227 255
207 228 255
207 228 255
207 228 255
207 228 255
207 228 255
207 228 255
207 228 255
207 228 255
207 228 255
207 228 255
207 228 255
207 228 255
207 228 255
207 228 255
207 228 255
208 228 255
208 228 255
208 228 255
208 228 255
208 228 255
208 228 255
208 228 255
208 228 255
208 228 255
208 228 255
208 228 255
208 228 255
208 228 255
208 228 255
208 228 255
208 228 255
208 228 255
208 228 255
208 228 255
208 228 255
208 228 255
209 228 255
209 229 255
209 229 255
209 229 255
209 229 255
209 229 255
209 229 255
209 229 255
209 229 255
209 229 255
209 229 255
209 229 255
209 229 255
209 229 255
209 229 255
209 229 255
209 228 255
209 228 255
208 228 255
208 228 255
208 228 255
208 228 255
208 228 255
208 228 255
208 228 255
208 228 255
208 228 255
208 228 255
208 228 255
208 228 255
208 228 255
208 228 255
208 228 255
208 228 255
208 228 255
208 228 255
208 228 255
208 228 255
208 228 255
207 228 255
207 228 255
207 228 255
207 228 255
207 228 255
207 228 255
207 228 255
207 228 255
207 228 255
207 228 255
207 228 255
207 228 255
207 228 255
207 228 255
207 227 255
207 227 255
207 227 255
207 227 255
206 227 255
206 227 255
206 227 255
206 227 255
206 227 255
206 227 255
206 227 255
206 227 255
206 227 255
206 227 255
206 227 255
206 227 255
206 227 255
206 227 255
206 227 255
206 227 255
206 227 255
206 227 255
205 227 255
205 227 255
205 227 255
205 227 255
205 227 255
205 227 255
205 227 255
205 227 255
205 227 255
205 227 255
205 226 255
205 226 255
205 226 255
205 226 255
205 226 255
205 226 255
204 226 255
204 226 255
204 226 255
204 226 255
204 226 255
204 226 255
204 226 255
204 226 255
204 226 255
204 226 255
204 226 255
204 226 255
204 226 255
204 226 255
204 226 255
204 226 255
203 226 255
203 226 255
203 226 255
203 226 255
203 226 255
203 226 255
203 226 255
203 225 255
203 225 255
203 225 255
203 225 255
203 225 255
203 225 255
203 225 255
203 225 255
202 225 255
202 225 255
202 225 255
202 225 255
202 225 255
202 225 255
202 225 255
202 225 255
202 225 255
202 225 255
202 225 255
202 225 255
202 225 255
202 225 255
202 225 255
202 225 255
201 225 255
201 225 255
201 225 255
201 225 255
201 225 255
201 224 255
201 224 255
201 224 255
201 224 255
201 224 255
201 224 255
201 224 255
201 224 255
201 224 255
201 224 255
201 224 255
201 224 255
201 224 255
200 224 255
200 224 255
200 224 255
200 224 255
200 224 255
200 224 255
200 224 255
200 224 255
200 224 255
200 224 255
200 224 255
200 224 255
200 224 255
200 224 255
200 224 255
200 224 255
200 224 255
200 224 255
200 224 255
200 224 255
200 224 255
200 224 255
200 224 255
199 224 255
199 224 255
199 224 255
199 224 255
199 224 255
199 224 255
199 223 255
199 223 255
199 223 255
199 223 255
199 223 255
199 223 255
199 223 255
199 223 255
199 223 255
199 223 255
199 223 255
199 223 255
199 223 255
199 223 255
199 223 255
199 223 255
199 223 255
199 223 255
199 223 255
199 223 255
199 223 255
199 223 255
199 223 255
199 223 255
199 223 255
199 223 255
199 223 255
199 223 255
199 223 255
199 223 255
199 223 255
199 223 255
199 223 255
199 223 255
199 223 255
199 223 255
199 223 255
199 223 255
199 223 255
199 223 255
199 223 255
199 223 255
199 223 255
199 223 255
199 224 255
199 224 255
199 224 255
199 224 255
199 224 255
200 224 255
200 224 255
200 224 255
200 224 255
200 224 255
200 224 255
200 224 255
200 224 255
200 224 255
200 224 255
200 224 255
200 224 255
200 224 255
200 224 255
200 224 255
200 224 255
200 224 255
200 224 255
200 224 255
200 224 255
200 224 255
200 224 255
200 224 255
200 224 255
201 224 255
201 224 255
201 224 255
201 224 255
201 224 255
201 224 255
201 224 255
201 224 255
201 224 255
201 224 255
201 224 255
201 224 255
201 225 255
201 225 255
201 225 255
201 225 255
201 225 255
202 225 255
202 225 255
202 225 255
202 225 255
202 225 255
202 225 255
202 225 255
202 225 255
202 225 255
202 225 255
202 225 255
202 225 255
202 225 255
202 225 255
202 225 255
202 225 255
202 225 255
203 225 255
203 225 255
203 225 255
203 225 255
203 225 255
203 225 255
203 225 255
203 225 255
203 226 255
203 226 255
203 226 255
203 226 255
203 226 255
203 226 255
203 226 255
204 226 255
204 226 255
204 226 255
204 226 255
204 226 255
204 226 255
204 226 255
204 226 255
204 226 255
204 226 255
204 226 255
204 226 255
204 226 255
204 226 255
204 226 255
204 226 255
205 226 255
205 226 255
205 226 255
205 226 255
205 226 255
205 226 255
205 227 255
205 227 255
205 227 255
205 227 255
205 227 255
205 227 255
205 227 255
205 227 255
205 227 255
205 227 255
206 227 255
206 227 255
206 227 255
206 227 255
206 227 255
206 227 255
206 227 255
206 227 255
206 227 255
206 227 255
206 227 255
206 227 255
206 227 255
206 227 255
206 227 255
206 227 255
206 227 255
206 227 255
207 227 255
207 227 255
207 227 255
207 227 255
207 228 255
207 228 255
207 228 255
207 228 255
207 228 255
207 228 255
207 228 255
207 228 255
207 228 255
207 228 255
207 228 255
207 228 255
207 228 255
207 228 255
208 228 255
208 228 255
208 228 255
208 228 255
208 228 255
208 228 255
208 228 255
208 228 255
208 228 255
208 228 255
208 228 255
208 228 255
208 228 255
208 228 255
208 228 255
208 228 255
208 228 255
208 228 255
208 228 255
208 228 255
208 228 255
209 228 255
209 228 255
209 229 255
209 229 255
209 229 255
209 229 255
209 229 255
209 229 255
209 229 255
209 229 255
209 229 255
209 229 255
209 229 255
209 229 255
209 229 255
209 229 255
209 229 255
209 229 255
209 229 255
209 229 255
209 229 255
209 229 255
209 229 255
209 228 255
209 228 255
208 228 255
208 228 255
208 228 255
208 228 255
208 228 255
208 228 255
208 228 255
208 228 255
208 228 255
208 228 255
208 228 255
208 228 255
208 228 255
208 228 255
208 228 255
208 228 255
208 228 255
208 228 255
208 228 255
208 228 255
208 228 255
207 228 255
207 228 255
207 228 255
207 228 255
207 228 255
207 228 255
207 228 255
207 228 255
207 228 255
207 228 255
207 228 255
207 228 255
207 228 255
207 228 255
207 227 255
207 227 255
207 227 255
207 227 255
207 227 255
206 227 255
206 227 255
206 227 255
206 227 255
206 227 255
206 227 255
206 227 255
206 227 255
206 227 255
206 227 255
206 227 255
206 227 255
206 227 255
206 227 255
206 227 255
206 227 255
206 227 255
205 227 255
205 227 255
205 227 255
205 227 255
205 227 255
205 227 255
205 227 255
205 227 255
205 227 255
205 227 255
205 226 255
205 226 255
205 226 255
205 226 255
205 226 255
205 226 255
204 226 255
204 226 255
204 226 255
204 226 255
204 226 255
204 226 255
204 226 255
204 226 255
204 226 255
204 226 255
204 226 255
204 226 255
204 226 255
204 226 255
204 226 255
204 226 255
203 226 255
203 226 255
203 226 255
203 226 255
203 226 255
203 226 255
203 226 255
203 225 255
203 225 255
203 225 255
203 225 255
203 225 255
203 225 255
203 225 255
203 225 255
202 225 255
202 225 255
202 225 255
202 225 255
202 225 255
202 225 255
202 225 255
202 225 255
202 225 255
202 225 255
202 225 255
202 225 255
202 225 255
202 225 255
202 225 255
202 225 255
202 225 255
201 225 255
201 225 255
201 225 255
201 225 255
201 225 255
201 224 255
201 224 255
201 224 255
201 224 255
201 224 255
201 224 255
201 224 255
201 224 255
201 224 255
201 224 255
201 224 255
201 224 255
201 224 255
200 224 255
200 224 255
200 224 255
200 224 255
200 224 255
200 224 255
200 224 255
200 224 255
200 224 255
200 224 255
200 224 255
200 224 255
200 224 255
200 224 255
200 224 255
200 224 255
200 224 255
200 224 255
200 224 255
200 224 255
200 224 255
200 224 255
200 224 255
200 224 255
200 224 255
200 224 255
200 224 255
199 224 255
199 224 255
199 224 255
199 224 255
199 224 255
199 224 255
199 224 255
199 224 255
199 223 255
199 223 255
199 223 255
199 223 255
199 223 255
199 223 255
199 223 255
199 223 255
199 223 255
199 223 255
199 223 255
199 223 255
199 223 255
199 223 255
199 223 255
199 223 255
199 223 255
199 223 255
199 223 255
199 223 255
199 223 255
199 223 255
199 223 255
199 223 255
199 224 255
199 224 255
199 224 255
199 224 255
199 224 255
199 224 255
199 224 255
199 224 255
200 224 255
200 224 255
200 224 255
200 224 255
200 224 255
200 224 255
200 224 255
200 224 255
200 224 255
200 224 255
200 224 255
200 224 255
200 224 255
200 224 255
200 224 255
200 224 255
200 224 255
200 224 255
200 224 255
200 224 255
200 224 255
200 224 255
200 224 255
200 224 255
200 224 255
200 224 255
200 224 255
201 224 255
201 224 255
201 224 255
201 224 255
201 224 255
201 224 255
201 224 255
201 224 255
201 224 255
201 224 255
201 224 255
201 224 255
201 224 255
201 225 255
201 225 255
201 225 255
201 225 255
201 225 255
202 225 255
202 225 255
202 225 255
202 225 255
202 225 255
202 225 255
202 225 255
202 225 255
202 225 255
202 225 255
202 225 255
202 225 255
202 225 255
202 225 255
202 225 255
202 225 255
202 225 255
203 225 255
203 225 255
203 225 255
203 225 255
203 225 255
203 225 255
203 225 255
203 225 255
203 226 255
203 226 255
203 226 255
203 226 255
203 226 255
203 226 255
203 226 255
204 226 255
204 226 255
204 226 255
204 226 255
204 226 255
204 226 255
204 226 255
204 226 255
204 226 255
204 226 255
204 226 255
204 226 255
204 226 255
204 226 255
204 226 255
204 226 255
205 226 255
205 226 255
205 226 255
205 226 255
205 226 255
205 226 255
205 227 255
205 227 255
205 227 255
205 227 255
205 227 255
205 227 255
205 227 255
205 227 255
205 227 255
205 227 255
206 227 255
206 227 255
206 227 255
206 227 255
206 227 255
206 227 255
206 227 255
206 227 255
206 227 255
206 227 255
206 227 255
206 227 255
206 227 255
206 227 255
206 227 255
206 227 255
206 227 255
207 227 255
207 227 255
207 227 255
207 227 255
207 227 255
207 228 255
207 228 255
207 228 255
207 228 255
207 228 255
207 228 255
207 228 255
207 228 255
207 228 255
207 228 255
207 228 255
207 228 255
207 228 255
207 228 255
208 228 255
208 228 255
208 228 255
208 228 255
208 228 255
208 228 255
208 228 255
208 228 255
208 228 255
208 228 255
208 228 255
208 228 255
208 228 255
208 228 255
208 228 255
208 228 255
208 228 255
208 228 255
208 228 255
208 228 255
208 228 255
209 228 255
209 228 255
209 229 255
209 229 255
209 229 255
209 229 255
209 229 255
209 229 255
209 229 255
209 229 255
209 229 255
209 229 255
209 229 255
209 229 255
209 229 255
209 229 255
209 229 255
209 229 255
209 229 255
209 229 255
209 229 255
209 229 255
209 229 255
209 229 255
209 229 255
209 229 255
209 229 255
209 229 255
209 229 255
209 229 255
209 228 255
208 228 255
208 228 255
208 228 255
208 228 255
208 228 255
208 228 255
208 228 255
208 228 255
208 228 255
208 228 255
208 228 255
208 228 255
208 228 255
208 228 255
208 228 255
208 228 255
208 228 255
208 228 255
208 228 255
208 228 255
208 228 255
207 228 255
207 228 255
207 228 255
207 228 255
207 228 255
207 228 255
207 228 255
207 228 255
207 228 255
207 228 255
207 228 255
207 228 255
207 228 255
207 228 255
207 227 255
207 227 255
207 227 255
207 227 255
206 227 255
206 227 255
206 227 255
206 227 255
206 227 255
206 227 255
206 227 255
206 227 255
206 227 255
206 227 255
206 227 255
206 227 255
206 227 255
206 227 255
206 227 255
206 227 255
206 227 255
206 227 255
205 227 255
205 227 255
205 227 255
205 227 255
205 227 255
205 227 255
205 227 255
205 227 255
205 227 255
205 227 255
205 226 255
205 226 255
205 226 255
205 226 255
205 226 255
205 226 255
204 226 255
204 226 255
204 226 255
204 226 255
204 226 255
204 226 255
204 226 255
204 226 255
204 226 255
204 226 255
204 226 255
204 226 255
204 226 255
204 226 255
204 226 255
204 226 255
203 226 255
203 226 255
203 226 255
203 226 255
203 226 255
203 226 255
203 226 255
203 225 255
203 225 255
203 225 255
203 225 255
203 225 255
203 225 255
203 225 255
203 225 255
203 225 255
202 225 255
202 225 255
202 225 255
202 225 255
202 225 255
202 225 255
202 225 255
202 225 255
202 225 255
202 225 255
202 225 255
202 225 255
202 225 255
202 225 255
202 225 255
202 225 255
201 225 255
201 225 255
201 225 255
201 225 255
201 225 255
201 225 255
201 224 255
201 224 255
201 224 255
201 224 255
201 224 255
201 224 255
201 224 255
201 224 255
201 224 255
201 224 255
201 224 255
201 224 255
201 224 255
200 224 255
200 224 255
200 224 255
200 224 255
200 224 255
200 224 255
200 224 255
200 224 255
200 224 255
200 224 255
200 224 255
200 224 255
200 224 255
200 224 255
200 224 255
200 224 255
200 224 255
200 224 255
200 224 255
200 224 255
200 224 255
200 224 255
200 224 255
200 224 255
200 224 255
200 224 255
200 224 255
200 224 255
200 224 255
200 224 255
200 224 255
200 224 255
200 224 255
200 224 255
199 224 255
199 224 255
199 224 255
199 224 255
199 224 255
199 224 255
199 224 255
199 224 255
199 224 255
199 224 255
199 224 255
199 224 255
199 224 255
199 224 255
199 224 255
199 224 255
199 224 255
199 224 255
200 224 255
200 224 255
200 224 255
200 224 255
200 224 255
200 224 255
200 224 255
200 224 255
200 224 255
200 224 255
200 224 255
200 224 255
200 224 255
200 224 255
200 224 255
200 224 255
200 224 255
200 224 255
200 224 255
200 224 255
200 224 255
200 224 255
200 224 255
200 224 255
200 224 255
200 224 255
200 224 255
200 224 255
200 224 255
200 224 255
200 224 255
200 224 255
200 224 255
200 224 255
201 224 255
201 224 255
201 224 255
201 224 255
201 224 255
201 224 255
201 224 255
201 224 255
201 224 255
201 224 255
201 224 255
201 224 255
201 224 255
201 224 255
201 225 255
201 225 255
201 225 255
201 225 255
201 225 255
202 225 255
202 225 255
202 225 255
202 225 255
202 225 255
202 225 255
202 225 255
202 225 255
202 225 255
202 225 255
202 225 255
202 225 255
202 225 255
202 225 255
202 225 255
202 225 255
203 225 255
203 225 255
203 225 255
203 225 255
203 225 255
203 225 255
203 225 255
203 225 255
203 225 255
203 226 255
203 226 255
203 226 255
203 226 255
203 226 255
203 226 255
203 226 255
204 226 255
204 226 255
204 226 255
204 226 255
204 226 255
204 226 255
204 226 255
204 226 255
204 226 255
204 226 255
204 226 255
204 226 255
204 226 255
204 226 255
204 226 255
204 226 255
205 226 255
205 226 255
205 226 255
205 226 255
205 226 255
205 226 255
205 227 255
205 227 255
205 227 255
205 227 255
205 227 255
205 227 255
205 227 255
205 227 255
205 227 255
205 227 255
206 227 255
206 227 255
206 227 255
206 227 255
206 227 255
206 227 255
206 227 255
206 227 255
206 227 255
206 227 255
206 227 255
206 227 255
206 227 255
206 227 255
206 227 255
206 227 255
206 227 255
206 227 255
207 227 255
207 227 255
207 227 255
207 227 255
207 228 255
207 228 255
207 228 255
207 228 255
207 228 255
207 228 255
207 228 255
207 228 255
207 228 255
207 228 255
207 228 255
207 228 255
207 228 255
207 228 255
208 228 255
208 228 255
208 228 255
208 228 255
208 228 255
208 228 255
208 228 255
208 228 255
208 228 255
208 228 255
208 228 255
208 228 255
208 228 255
208 228 255
208 228 255
208 228 255
208 228 255
208 228 255
208 228 255
208 228 255
208 228 255
209 228 255
209 229 255
209 229 255
209 229 255
209 229 255
209 229 255
209 229 255
209 229 255
209 229 255
209 229 255
209 229 255
209 229 255
209 229 255
209 229 255
209 229 255
209 229 255
209 229 255
209 229 255
209 229 255
209 229 255
209 229 255
209 229 255
209 229 255
209 229 255
209 229 255
209 229 255
209 229 255
209 229 255
209 229 255
209 229 255
209 229 255
209 229 255
209 229 255
209 229 255
209 229 255
209 229 255
209 228 255
209 228 255
208 228 255
208 228 255
208 228 255
208 228 255
208 228 255
208 228 255
208 228 255
208 228 255
208 228 255
208 228 255
208 228 255
208 228 255
208 228 255
208 228 255
208 228 255
208 228 255
208 228 255
208 228 255
208 228 255
208 228 255
207 228 255
207 228 255
207 228 255
207 228 255
207 228 255
207 228 255
207 228 255
207 228 255
207 228 255
207 228 255
207 228 255
207 228 255
207 228 255
207 228 255
207 227 255
207 227 255
207 227 255
207 227 255
207 227 255
206 227 255
206 227 255
206 227 255
206 227 255
206 227 255
206 227 255
206 227 255
206 227 255
206 227 255
206 227 255
206 227 255
206 227 255
206 227 255
206 227 255
206 227 255
206 227 255
206 227 255
205 227 255
205 227 255
205 227 255
205 227 255
205 227 255
205 227 255
205 227 255
205 227 255
205 227 255
205 227 255
205 226 255
205 226 255
205 226 255
205 226 255
205 226 255
205 226 255
204 226 255
204 226 255
204 226 255
204 226 255
204 226 255
204 226 255
204 226 255
204 226 255
204 226 255
204 226 255
204 226 255
204 226 255
204 226 255
204 226 255
204 226 255
204 226 255
203 226 255
203 226 255
203 226 255
203 226 255
203 226 255
203 226 255
203 226 255
203 225 255
203 225 255
203 225 255
203 225 255
203 225 255
203 225 255
203 225 255
203 225 255
203 225 255
202 225 255
202 225 255
202 225 255
202 225 255
202 225 255
202 225 255
202 225 255
202 225 255
202 225 255
202 225 255
202 225 255
202 225 255
202 225 255
202 225 255
202 225 255
202 225 255
202 225 255
201 225 255
201 225 255
201 225 255
201 225 255
201 225 255
201 224 255
201 224 255
201 224 255
201 224 255
201 224 255
201 224 255
201 224 255
201 224 255
201 224 255
201 224 255
201 224 255
201 224 255
201 224 255
201 224 255
201 224 255
200 224 255
200 224 255
200 224 255
200 224 255
200 224 255
200 224 255
200 224 255
200 224 255
200 224 255
200 224 255
200 224 255
200 224 255
200 224 255
200 224 255
200 224 255
200 224 255
200 224 255
200 224 255
200 224 255
200 224 255
200 224 255
200 224 255
200 224 255
200 224 255
200 224 255
200 224 255
200 224 255
200 224 255
200 224 255
200 224 255
200 224 255
200 224 255
200 224 255
200 224 255
200 224 255
200 224 255
200 224 255
200 224 255
200 224 255
200 224 255
200 224 255
200 224 255
200 224 255
200 224 255
200 224 255
200 224 255
200 224 255
200 224 255
200 224 255
200 224 255
200 224 255
200 224 255
200 224 255
200 224 255
200 224 255
200 224 255
200 224 255
200 224 255
200 224 255
200 224 255
200 224 255
200 224 255
200 224 255
200 224 255
200 224 255
200 224 255
200 224 255
200 224 255
200 224 255
200 224 255
200 224 255
200 224 255
200 224 255
200 224 255
200 224 255
200 224 255
201 224 255
201 224 255
201 224 255
201 224 255
201 224 255
201 224 255
201 224 255
201 224 255
201 224 255
201 224 255
201 224 255
201 224 255
201 224 255
201 224 255
201 224 255
201 225 255
201 225 255
201 225 255
201 225 255
201 225 255
202 225 255
202 225 255
202 225 255
202 225 255
202 225 255
202 225 255
202 225 255
202 225 255
202 225 255
202 225 255
202 225 255
202 225 255
202 225 255
202 225 255
202 225 255
202 225 255
202 225 255
203 225 255
203 225 255
203 225 255
203 225 255
203 225 255
203 225 255
203 225 255
203 225 255
203 225 255
203 226 255
203 226 255
203 226 255
203 226 255
203 226 255
203 226 255
203 226 255
204 226 255
204 226 255
204 226 255
204 226 255
204 226 255
204 226 255
204 226 255
204 226 255
204 226 255
204 226 255
204 226 255
204 226 255
204 226 255
204 226 255
204 226 255
204 226 255
205 226 255
205 226 255
205 226 255
205 226 255
205 226 255
205 226 255
205 226 255
205 227 255
205 227 255
205 227 255
205 227 255
205 227 255
205 227 255
205 227 255
205 227 255
205 227 255
206 227 255
206 227 255
206 227 255
206 227 255
206 227 255
206 227 255
206 227 255
206 227 255
206 227 255
206 227 255
206 227 255
206 227 255
206 227 255
206 227 255
206 227 255
206 227 255
206 227 255
206 227 255
207 227 255
207 227 255
207 227 255
207 227 255
207 228 255
207 228 255
207 228 255
207 228 255
207 228 255
207 228 255
207 228 255
207 228 255
207 228 255
207 228 255
207 228 255
207 228 255
207 228 255
207 228 255
208 228 255
208 228 255
208 228 255
208 228 255
208 228 255
208 228 255
208 228 255
208 228 255
208 228 255
208 228 255
208 228 255
208 228 255
208 228 255
208 228 255
208 228 255
208 228 255
208 228 255
208 228 255
208 228 255
208 228 255
209 228 255
209 228 255
209 229 255
209 229 255
209 229 255
209 229 255
209 229 255
209 229 255
209 229 255
209 229 255
209 229 255
209 229 255
209 229 255
209 229 255
209 229 255
209 229 255
209 229 255
209 229 255
209 229 255
209 229 255
209 229 255
210 229 255
209 229 255
209 229 255
209 229 255
209 229 255
209 229 255
209 229 255
209 229 255
209 229 255
209 229 255
209 229 255
209 229 255
209 229 255
209 229 255
209 229 255
209 229 255
209 229 255
209 229 255
209 229 255
209 229 255
209 229 255
209 229 255
209 229 255
209 228 255
208 228 255
208 228 255
208 228 255
208 228 255
208 228 255
208 228 255
208 228 255
208 228 255
208 228 255
208 228 255
208 228 255
208 228 255
208 228 255
208 228 255
208 228 255
208 228 255
208 228 255
208 228 255
208 228 255
208 228 255
207 228 255
207 228 255
207 228 255
207 228 255
207 228 255
207 228 255
207 228 255
207 228 255
207 228 255
207 228 255
207 228 255
207 228 255
207 228 255
207 228 255
207 227 255
207 227 255
207 227 255
207 227 255
207 227 255
206 227 255
206 227 255
206 227 255
206 227 255
206 227 255
206 227 255
206 227 255
206 227 255
206 227 255
206 227 255
206 227 255
206 227 255
206 227 255
206 227 255
206 227 255
206 227 255
206 227 255
205 227 255
205 227 255
205 227 255
205 227 255
205 227 255
205 227 255
205 227 255
205 227 255
205 227 255
205 227 255
205 226 255
205 226 255
205 226 255
205 226 255
205 226 255
205 226 255
204 226 255
204 226 255
204 226 255
204 226 255
204 226 255
204 226 255
204 226 255
204 226 255
204 226 255
204 226 255
204 226 255
204 226 255
204 226 255
204 226 255
204 226 255
204 226 255
203 226 255
203 226 255
203 226 255
203 226 255
203 226 255
203 226 255
203 226 255
203 225 255
203 225 255
203 225 255
203 225 255
203 225 255
203 225 255
203 225 255
203 225 255
203 225 255
202 225 255
202 225 255
202 225 255
202 225 255
202 225 255
202 225 255
202 225 255
202 225 255
202 225 255
202 225 255
202 225 255
202 225 255
202 225 255
202 225 255
202 225 255
202 225 255
202 225 255
202 225 255
201 225 255
201 225 255
201 225 255
201 225 255
201 225 255
201 224 255
201 224 255
201 224 255
201 224 255
201 224 255
201 224 255
201 224 255
201 224 255
201 224 255
201 224 255
201 224 255
201 224 255
201 224 255
201 224 255
201 224 255
201 224 255
200 224 255
200 224 255
200 224 255
200 224 255
200 224 255
200 224 255
200 224 255
200 224 255
200 224 255
200 224 255
200 224 255
200 224 255
200 224 255
200 224 255
200 224 255
200 224 255
200 224 255
200 224 255
200 224 255
200 224 255
200 224 255
200 224 255
200 224 255
200 224 255
200 224 255
200 224 255
200 224 255
200 224 255
200 224 255
200 224 255
200 224 255
200 224 255
200 224 255
200 224 255
200 224 255
200 224 255
200 224 255
200 224 255
200 224 255
200 224 255
200 224 255
200 224 255
200 224 255
200 224 255
200 224 255
200 224 255
200 224 255
200 224 255
200 224 255
200 224 255
200 224 255
200 224 255
200 224 255
200 224 255
200 224 255
200 224 255
200 224 255
200 224 255
200 224 255
200 224 255
200 224 255
200 224 255
200 224 255
200 224 255
200 224 255
201 224 255
201 224 255
201 224 255
201 224 255
201 224 255
201 224 255
201 224 255
201 224 255
201 224 255
201 224 255
201 224 255
201 224 255
201 224 255
201 224 255
201 224 255
201 224 255
201 224 255
201 225 255
201 225 255
201 225 255
201 225 255
201 225 255
202 225 255
202 225 255
202 225 255
202 225 255
202 225 255
202 225 255
202 225 255
202 225 255
202 225 255
202 225 255
202 225 255
202 225 255
202 225 255
202 225 255
202 225 255
202 225 255
202 225 255
202 225 255
203 225 255
203 225 255
203 225 255
203 225 255
203 225 255
203 225 255
203 225 255
203 225 255
203 225 255
203 226 255
203 226 255
203 226 255
203 226 255
203 226 255
203 226 255
203 226 255
204 226 255
204 226 255
204 226 255
204 226 255
204 226 255
204 226 255
204 226 255
204 226 255
204 226 255
204 226 255
204 226 255
204 226 255
204 226 255
204 226 255
204 226 255
204 226 255
205 226 255
205 226 255
205 226 255
205 226 255
205 226 255
205 226 255
205 227 255
205 227 255
205 227 255
205 227 255
205 227 255
205 227 255
205 227 255
205 227 255
205 227 255
205 227 255
206 227 255
206 227 255
206 227 255
206 227 255
206 227 255
206 227 255
206 227 255
206 227 255
206 227 255
206 227 255
206 227 255
206 227 255
206 227 255
206 227 255
206 227 255
206 227 255
206 227 255
207 227 255
207 227 255
207 227 255
207 227 255
207 227 255
207 228 255
207 228 255
207 228 255
207 228 255
207 228 255
207 228 255
207 228 255
207 228 255
207 228 255
207 228 255
207 228 255
207 228 255
207 228 255
207 228 255
208 228 255
208 228 255
208 228 255
208 228 255
208 228 255
208 228 255
208 228 255
208 228 255
208 228 255
208 228 255
208 228 255
208 228 255
208 228 255
208 228 255
208 228 255
208 228 255
208 228 255
208 228 255
208 228 255
208 228 255
209 228 255
209 228 255
209 229 255
209 229 255
209 229 255
209 229 255
209 229 255
209 229 255
209 229 255
209 229 255
209 229 255
209 229 255
209 229 255
209 229 255
209 229 255
209 229 255
209 229 255
209 229 255
209 229 255
209 229 255
209 229 255
209 229 255
209 229 255
210 229 255
210 229 255
210 229 255
210 229 255
210 229 255
210 229 255
209 229 255
209 229 255
209 229 255
209 229 255
209 229 255
209 229 255
209 229 255
209 229 255
209 229 255
209 229 255
209 229 255
209 229 255
209 229 255
209 229 255
209 229 255
209 229 255
209 229 255
209 229 255
209 229 255
209 229 255
209 229 255
209 228 255
208 228 255
208 228 255
208 228 255
208 228 255
208 228 255
208 228 255
208 228 255
208 228 255
208 228 255
208 228 255
208 228 255
208 228 255
208 228 255
208 228 255
208 228 255
208 228 255
208 228 255
208 228 255
208 228 255
208 228 255
207 228 255
207 228 255
207 228 255
207 228 255
207 228 255
207 228 255
207 228 255
207 228 255
207 228 255
207 228 255
207 228 255
207 228 255
207 228 255
207 228 255
207 227 255
207 227 255
207 227 255
207 227 255
207 227 255
206 227 255
206 227 255
206 227 255
206 227 255
206 227 255
206 227 255
206 227 255
206 227 255
206 227 255
206 227 255
206 227 255
206 227 255
206 227 255
206 227 255
206 227 255
206 227 255
206 227 255
205 227 255
205 227 255
205 227 255
205 227 255
205 227 255
205 227 255
205 227 255
205 227 255
205 227 255
205 227 255
205 226 255
205 226 255
205 226 255
205 226 255
205 226 255
205 226 255
204 226 255
204 226 255
204 226 255
204 226 255
204 226 255
204 226 255
204 226 255
204 226 255
204 226 255
204 226 255
204 226 255
204 226 255
204 226 255
204 226 255
204 226 255
204 226 255
203 226 255
203 226 255
203 226 255
203 226 255
203 226 255
203 226 255
203 226 255
203 225 255
203 225 255
203 225 255
203 225 255
203 225 255
203 225 255
203 225 255
203 225 255
203 225 255
203 225 255
202 225 255
202 225 255
202 225 255
202 225 255
202 225 255
202 225 255
202 225 255
202 225 255
202 225 255
202 225 255
202 225 255
202 225 255
202 225 255
202 225 255
202 225 255
202 225 255
202 225 255
201 225 255
201 225 255
201 225 255
201 225 255
201 225 255
201 225 255
201 225 255
201 224 255
201 224 255
201 224 255
201 224 255
201 224 255
201 224 255
201 224 255
201 224 255
201 224 255
201 224 255
201 224 255
201 224 255
201 224 255
201 224 255
201 224 255
201 224 255
201 224 255
200 224 255
200 224 255
200 224 255
200 224 255
200 224 255
200 224 255
200 224 255
200 224 255
200 224 255
200 224 255
200 224 255
200 224 255
200 224 255
200 224 255
200 224 255
200 224 255
200 224 255
200 224 255
200 224 255
200 224 255
200 224 255
200 224 255
200 224 255
200 224 255
200 224 255
200 224 255
200 224 255
200 224 255
200 224 255
200 224 255
200 224 255
200 224 255
200 224 255
200 224 255
200 224 255
200 224 255
200 224 255
200 224 255
200 224 255
200 224 255
200 224 255
200 224 255
200 224 255
200 224 255
200 224 255
200 224 255
200 224 255
200 224 255
200 224 255
200 224 255
200 224 255
200 224 255
200 224 255
200 224 255
201 224 255
201 224 255
201 224 255
201 224 255
201 224 255
201 224 255
201 224 255
201 224 255
201 224 255
201 224 255
201 224 255
201 224 255
201 224 255
201 224 255
201 224 255
201 224 255
201 224 255
201 225 255
201 225 255
201 225 255
201 225 255
201 225 255
201 225 255
201 225 255
202 225 255
202 225 255
202 225 255
202 225 255
202 225 255
202 225 255
202 225 255
202 225 255
202 225 255
202 225 255
202 225 255
202 225 255
202 225 255
202 225 255
202 225 255
202 225 255
202 225 255
203 225 255
203 225 255
203 225 255
203 225 255
203 225 255
203 225 255
203 225 255
203 225 255
203 225 255
203 225 255
203 226 255
203 226 255
203 226 255
203 226 255
203 226 255
203 226 255
203 226 255
204 226 255
204 226 255
204 226 255
204 226 255
204 226 255
204 226 255
204 226 255
204 226 255
204 226 255
204 226 255
204 226 255
204 226 255
204 226 255
204 226 255
204 226 255
204 226 255
205 226 255
205 226 255
205 226 255
205 226 255
205 226 255
205 226 255
205 227 255
205 227 255
205 227 255
205 227 255
205 227 255
205 227 255
205 227 255
205 227 255
205 227 255
205 227 255
206 227 255
206 227 255
206 227 255
206 227 255
206 227 255
206 227 255
206 227 255
206 227 255
206 227 255
206 227 255
206 227 255
206 227 255
206 227 255
206 227 255
206 227 255
206 227 255
206 227 255
207 227 255
207 227 255
207 227 255
207 227 255
207 228 255
207 228 255
207 228 255
207 228 255
207 228 255
207 228 255
207 228 255
207 228 255
207 228 255
207 228 255
207 228 255
207 228 255
207 228 255
207 228 255
207 228 255
208 228 255
208 228 255
208 228 255
208 228 255
208 228 255
208 228 255
208 228 255
208 228 255
208 228 255
208 228 255
208 228 255
208 228 255
208 228 255
208 228 255
208 228 255
208 228 255
208 228 255
208 228 255
208 228 255
208 228 255
209 228 255
209 229 255
209 229 255
209 229 255
209 229 255
209 229 255
209 229 255
209 229 255
209 229 255
209 229 255
209 229 255
209 229 255
209 229 255
209 229 255
209 229 255
209 229 255
209 229 255
209 229 255
209 229 255
209 229 255
209 229 255
209 229 255
210 229 255
210 229 255
210 229 255
210 229 255
210 229 255
210 229 255
210 229 255
210 229 255
210 229 255
210 229 255
210 229 255
210 229 255
210 229 255
210 229 255
209 229 255
209 229 255
209 229 255
209 229 255
209 229 255
209 229 255
209 229 255
209 229 255
209 229 255
209 229 255
209 229 255
209 229 255
209 229 255
209 229 255
209 229 255
209 229 255
209 229 255
209 229 255
209 229 255
209 229 255
209 228 255
209 228 255
208 228 255
208 228 255
208 228 255
208 228 255
208 228 255
208 228 255
208 228 255
208 228 255
208 228 255
208 228 255
208 228 255
208 228 255
208 228 255
208 228 255
208 228 255
208 228 255
208 228 255
208 228 255
208 228 255
208 228 255
207 228 255
207 228 255
207 228 255
207 228 255
207 228 255
207 228 255
207 228 255
207 228 255
207 228 255
207 228 255
207 228 255
207 228 255
207 228 255
207 228 255
207 227 255
207 227 255
207 227 255
207 227 255
206 227 255
206 227 255
206 227 255
206 227 255
206 227 255
206 227 255
206 227 255
206 227 255
206 227 255
206 227 255
206 227 255
206 227 255
206 227 255
206 227 255
206 227 255
206 227 255
206 227 255
205 227 255
205 227 255
205 227 255
205 227 255
205 227 255
205 227 255
205 227 255
205 227 255
205 227 255
205 227 255
205 226 255
205 226 255
205 226 255
205 226 255
205 226 255
205 226 255
204 226 255
204 226 255
204 226 255
204 226 255
204 226 255
204 226 255
204 226 255
204 226 255
204 226 255
204 226 255
204 226 255
204 226 255
204 226 255
204 226 255
204 226 255
204 226 255
203 226 255
203 226 255
203 226 255
203 226 255
203 226 255
203 226 255
203 226 255
203 226 255
203 225 255
203 225 255
203 225 255
203 225 255
203 225 255
203 225 255
203 225 255
203 225 255
203 225 255
202 225 255
202 225 255
202 225 255
202 225 255
202 225 255
202 225 255
202 225 255
202 225 255
202 225 255
202 225 255
202 225 255
202 225 255
202 225 255
202 225 255
202 225 255
202 225 255
202 225 255
202 225 255
202 225 255
201 225 255
201 225 255
201 225 255
201 225 255
201 225 255
201 225 255
201 224 255
201 224 255
201 224 255
201 224 255
201 224 255
201 224 255
201 224 255
201 224 255
201 224 255
201 224 255
201 224 255
201 224 255
201 224 255
201 224 255
201 224 255
201 224 255
201 224 255
201 224 255
201 224 255
201 224 255
201 224 255
201 224 255
200 224 255
200 224 255
200 224 255
200 224 255
200 224 255
200 224 255
200 224 255
200 224 255
200 224 255
200 224 255
200 224 255
200 224 255
200 224 255
200 224 255
200 224 255
200 224 255
200 224 255
200 224 255
200 224 255
200 224 255
200 224 255
200 224 255
200 224 255
200 224 255
200 224 255
200 224 255
200 224 255
200 224 255
200 224 255
200 224 255
200 224 255
200 224 255
200 224 255
200 224 255
200 224 255
200 224 255
200 224 255
201 224 255
201 224 255
201 224 255
201 224 255
201 224 255
201 224 255
201 224 255
201 224 255
201 224 255
201 224 255
201 224 255
201 224 255
201 224 255
201 224 255
201 224 255
201 224 255
201 224 255
201 224 255
201 224 255
201 224 255
201 224 255
201 225 255
201 225 255
201 225 255
201 225 255
201 225 255
201 225 255
202 225 255
202 225 255
202 225 255
202 225 255
202 225 255
202 225 255
202 225 255
202 225 255
202 225 255
202 225 255
202 225 255
202 225 255
202 225 255
202 225 255
202 225 255
202 225 255
202 225 255
202 225 255
202 225 255
203 225 255
203 225 255
203 225 255
203 225 255
203 225 255
203 225 255
203 225 255
203 225 255
203 225 255
203 226 255
203 226 255
203 226 255
203 226 255
203 226 255
203 226 255
203 226 255
203 226 255
204 226 255
204 226 255
204 226 255
204 226 255
204 226 255
204 226 255
204 226 255
204 226 255
204 226 255
204 226 255
204 226 255
204 226 255
204 226 255
204 226 255
204 226 255
204 226 255
205 226 255
205 226 255
205 226 255
205 226 255
205 226 255
205 226 255
205 227 255
205 227 255
205 227 255
205 227 255
205 227 255
205 227 255
205 227 255
205 227 255
205 227 255
205 227 255
206 227 255
206 227 255
206 227 255
206 227 255
206 227 255
206 227 255
206 227 255
206 227 255
206 227 255
206 227 255
206 227 255
206 227 255
206 227 255
206 227 255
206 227 255
206 227 255
206 227 255
207 227 255
207 227 255
207 227 255
207 227 255
207 228 255
207 228 255
207 228 255
207 228 255
207 228 255
207 228 255
207 228 255
207 228 255
207 228 255
207 228 255
207 228 255
207 228 255
207 228 255
207 228 255
208 228 255
208 228 255
208 228 255
208 228 255
208 228 255
208 228 255
208 228 255
208 228 255
208 228 255
208 228 255
208 228 255
208 228 255
208 228 255
208 228 255
208 228 255
208 228 255
208 228 255
208 228 255
208 228 255
208 228 255
209 228 255
209 228 255
209 229 255
209 229 255
209 229 255
209 229 255
209 229 255
209 229 255
209 229 255
209 229 255
209 229 255
209 229 255
209 229 255
209 229 255
209 229 255
209 229 255
209 229 255
209 229 255
209 229 255
209 229 255
209 229 255
209 229 255
210 229 255
210 229 255
210 229 255
210 229 255
210 229 255
210 229 255
210 229 255
210 229 255
210 229 255
210 229 255
210 229 255
210 229 255
210 229 255
210 229 255
210 229 255
210 229 255
210 229 255
210 229 255
210 229 255
210 229 255
210 229 255
209 229 255
209 229 255
209 229 255
209 229 255
209 229 255
209 229 255
209 229 255
209 229 255
209 229 255
209 229 255
209 229 255
209 229 255
209 229 255
209 229 255
209 229 255
209 229 255
209 229 255
209 229 255
209 229 255
209 229 255
209 229 255
209 228 255
208 228 255
208 228 255
208 228 255
208 228 255
208 228 255
208 228 255
208 228 255
208 228 255
208 228 255
208 228 255
208 228 255
208 228 255
208 228 255
208 228 255
208 228 255
208 228 255
208 228 255
208 228 255
208 228 255
208 228 255
207 228 255
207 228 255
207 228 255
207 228 255
207 228 255
207 228 255
207 228 255
207 228 255
207 228 255
207 228 255
207 228 255
207 228 255
207 228 255
207 228 255
207 227 255
207 227 255
207 227 255
207 227 255
206 227 255
206 227 255
206 227 255
206 227 255
206 227 255
206 227 255
206 227 255
206 227 255
206 227 255
206 227 255
206 227 255
206 227 255
206 227 255
206 227 255
206 227 255
206 227 255
206 227 255
205 227 255
205 227 255
205 227 255
205 227 255
205 227 255
205 227 255
205 227 255
205 227 255
205 227 255
205 227 255
205 226 255
205 226 255
205 226 255
205 226 255
205 226 255
205 226 255
204 226 255
204 226 255
204 226 255
204 226 255
204 226 255
204 226 255
204 226 255
204 226 255
204 226 255
204 226 255
204 226 255
204 226 255
204 226 255
204 226 255
204 226 255
204 226 255
204 226 255
203 226 255
203 226 255
203 226 255
203 226 255
203 226 255
203 226 255
203 226 255
203 225 255
203 225 255
203 225 255
203 225 255
203 225 255
203 225 255
203 225 255
203 225 255
203 225 255
203 225 255
202 225 255
202 225 255
202 225 255
202 225 255
202 225 255
202 225 255
202 225 255
202 225 255
202 225 255
202 225 255
202 225 255
202 225 255
202 225 255
202 225 255
202 225 255
202 225 255
202 225 255
202 225 255
202 225 255
201 225 255
201 225 255
201 225 255
201 225 255
201 225 255
201 225 255
201 225 255
201 225 255
201 224 255
201 224 255
201 224 255
201 224 255
201 224 255
201 224 255
201 224 255
201 224 255
201 224 255
201 224 255
201 224 255
201 224 255
201 224 255
201 224 255
201 224 255
201 224 255
201 224 255
201 224 255
201 224 255
201 224 255
201 224 255
201 224 255
201 224 255
201 224 255
201 224 255
201 224 255
201 224 255
201 224 255
201 224 255
201 224 255
201 224 255
201 224 255
201 224 255
201 224 255
201 224 255
201 224 255
201 224 255
201 224 255
201 224 255
201 224 255
201 224 255
201 224 255
201 224 255
201 224 255
201 224 255
201 224 255
201 224 255
201 224 255
201 224 255
201 224 255
201 224 255
201 224 255
201 224 255
201 224 255
201 224 255
201 224 255
201 224 255
201 224 255
201 224 255
201 224 255
201 224 255
201 224 255
201 224 255
201 224 255
201 224 255
201 224 255
201 224 255
201 224 255
201 225 255
201 225 255
201 225 255
201 225 255
201 225 255
201 225 255
201 225 255
202 225 255
202 225 255
202 225 255
202 225 255
202 225 255
202 225 255
202 225 255
202 225 255
202 225 255
202 225 255
202 225 255
202 225 255
202 225 255
202 225 255
202 225 255
202 225 255
202 225 255
202 225 255
202 225 255
202 225 255
203 225 255
203 225 255
203 225 255
203 225 255
203 225 255
203 225 255
203 225 255
203 225 255
203 225 255
203 225 255
203 226 255
203 226 255
203 226 255
203 226 255
203 226 255
203 226 255
203 226 255
204 226 255
204 226 255
204 226 255
204 226 255
204 226 255
204 226 255
204 226 255
204 226 255
204 226 255
204 226 255
204 226 255
204 226 255
204 226 255
204 226 255
204 226 255
204 226 255
204 226 255
205 226 255
205 226 255
205 226 255
205 226 255
205 226 255
205 226 255
205 227 255
205 227 255
205 227 255
205 227 255
205 227 255
205 227 255
205 227 255
205 227 255
205 227 255
205 227 255
206 227 255
206 227 255
206 227 255
206 227 255
206 227 255
206 227 255
206 227 255
206 227 255
206 227 255
206 227 255
206 227 255
206 227 255
206 227 255
206 227 255
206 227 255
206 227 255
206 227 255
207 227 255
207 227 255
207 227 255
207 227 255
207 228 255
207 228 255
207 228 255
207 228 255
207 228 255
207 228 255
207 228 255
207 228 255
207 228 255
207 228 255
207 228 255
207 228 255
207 228 255
207 228 255
208 228 255
208 228 255
208 228 255
208 228 255
208 228 255
208 228 255
208 228 255
208 228 255
208 228 255
208 228 255
208 228 255
208 228 255
208 228 255
208 228 255
208 228 255
208 228 255
208 228 255
208 228 255
208 228 255
208 228 255
209 228 255
209 229 255
209 229 255
209 229 255
209 229 255
209 229 255
209 229 255
209 229 255
209 229 255
209 229 255
209 229 255
209 229 255
209 229 255
209 229 255
209 229 255
209 229 255
209 229 255
209 229 255
209 229 255
209 229 255
209 229 255
209 229 255
210 229 255
210 229 255
210 229 255
210 229 255
210 229 255
210 229 255
210 229 255
210 229 255
210 229 255
210 229 255
210 229 255
210 229 255
210 229 255
210 229 255
210 229 255
210 229 255
210 229 255
210 229 255
210 229 255
210 229 255
210 229 255
210 229 255
210 229 255
210 229 255
210 229 255
210 229 255
210 229 255
210 229 255
209 229 255
209 229 255
209 229 255
209 229 255
209 229 255
209 229 255
209 229 255
209 229 255
209 229 255
209 229 255
209 229 255
209 229 255
209 229 255
209 229 255
209 229 255
209 229 255
209 229 255
209 229 255
209 229 255
209 229 255
209 228 255
209 228 255
208 228 255
208 228 255
208 228 255
208 228 255
208 228 255
208 228 255
208 228 255
208 228 255
208 228 255
208 228 255
208 228 255
208 228 255
208 228 255
208 228 255
208 228 255
208 228 255
208 228 255
208 228 255
208 228 255
207 228 255
207 228 255
207 228 255
207 228 255
207 228 255
207 228 255
207 228 255
207 228 255
207 228 255
207 228 255
207 228 255
207 228 255
207 228 255
207 228 255
207 227 255
207 227 255
207 227 255
207 227 255
206 227 255
206 227 255
206 227 255
206 227 255
206 227 255
206 227 255
206 227 255
206 227 255
206 227 255
206 227 255
206 227 255
206 227 255
206 227 255
206 227 255
206 227 255
206 227 255
206 227 255
205 227 255
205 227 255
205 227 255
205 227 255
205 227 255
205 227 255
205 227 255
205 227 255
205 227 255
205 227 255
205 226 255
205 226 255
205 226 255
205 226 255
205 226 255
205 226 255
205 226 255
204 226 255
204 226 255
204 226 255
204 226 255
204 226 255
204 226 255
204 226 255
204 226 255
204 226 255
204 226 255
204 226 255
204 226 255
204 226 255
204 226 255
204 226 255
204 226 255
203 226 255
203 226 255
203 226 255
203 226 255
203 226 255
203 226 255
203 226 255
203 226 255
203 225 255
203 225 255
203 225 255
203 225 255
203 225 255
203 225 255
203 225 255
203 225 255
203 225 255
203 225 255
202 225 255
202 225 255
202 225 255
202 225 255
202 225 255
202 225 255
202 225 255
202 225 255
202 225 255
202 225 255
202 225 255
202 225 255
202 225 255
202 225 255
202 225 255
202 225 255
202 225 255
202 225 255
202 225 255
202 225 255
202 225 255
201 225 255
201 225 255
201 225 255
201 225 255
201 225 255
201 225 255
201 225 255
201 225 255
201 224 255
201 224 255
201 224 255
201 224 255
201 224 255
201 224 255
201 224 255
201 224 255
201 224 255
201 224 255
201 224 255
201 224 255
201 224 255
201 224 255
201 224 255
201 224 255
201 224 255
201 224 255
201 224 255
201 224 255
201 224 255
201 224 255
201 224 255
201 224 255
201 224 255
201 224 255
201 224 255
201 224 255
201 224 255
201 224 255
201 224 255
201 224 255
201 224 255
201 224 255
201 224 255
201 224 255
201 224 255
201 224 255
201 224 255
201 224 255
201 224 255
201 224 255
201 224 255
201 224 255
201 224 255
201 224 255
201 224 255
201 224 255
201 224 255
201 224 255
201 224 255
201 224 255
201 224 255
201 224 255
201 224 255
201 224 255
201 225 255
201 225 255
201 225 255
201 225 255
201 225 255
201 225 255
201 225 255
201 225 255
201 225 255
202 225 255
202 225 255
202 225 255
202 225 255
202 225 255
202 225 255
202 225 255
202 225 255
202 225 255
202 225 255
202 225 255
202 225 255
202 225 255
202 225 255
202 225 255
202 225 255
202 225 255
202 225 255
202 225 255
202 225 255
203 225 255
203 225 255
203 225 255
203 225 255
203 225 255
203 225 255
203 225 255
203 225 255
203 225 255
203 225 255
203 226 255
203 226 255
203 226 255
203 226 255
203 226 255
203 226 255
203 226 255
203 226 255
204 226 255
204 226 255
204 226 255
204 226 255
204 226 255
204 226 255
204 226 255
204 226 255
204 226 255
204 226 255
204 226 255
204 226 255
204 226 255
204 226 255
204 226 255
204 226 255
205 226 255
205 226 255
205 226 255
205 226 255
205 226 255
205 226 255
205 226 255
205 227 255
205 227 255
205 227 255
205 227 255
205 227 255
205 227 255
205 227 255
205 227 255
205 227 255
206 227 255
206 227 255
206 227 255
206 227 255
206 227 255
206 227 255
206 227 255
206 227 255
206 227 255
206 227 255
206 227 255
206 227 255
206 227 255
206 227 255
206 227 255
206 227 255
206 227 255
206 227 255
207 227 255
207 227 255
207 227 255
207 227 255
207 228 255
207 228 255
207 228 255
207 228 255
207 228 255
207 228 255
207 228 255
207 228 255
207 228 255
207 228 255
207 228 255
207 228 255
207 228 255
207 228 255
208 228 255
208 228 255
208 228 255
208 228 255
208 228 255
208 228 255
208 228 255
208 228 255
208 228 255
208 228 255
208 228 255
208 228 255
208 228 255
208 228 255
208 228 255
208 228 255
208 228 255
208 228 255
208 228 255
209 228 255
209 228 255
209 229 255
209 229 255
209 229 255
209 229 255
209 229 255
209 229 255
209 229 255
209 229 255
209 229 255
209 229 255
209 229 255
209 229 255
209 229 255
209 229 255
209 229 255
209 229 255
209 229 255
209 229 255
209 229 255
209 229 255
210 229 255
210 229 255
210 229 255
210 229 255
210 229 255
210 229 255
210 229 255
210 229 255
210 229 255
210 229 255
210 229 255
210 229 255
210 229 255
210 229 255
210 229 255
210 229 255
210 229 255
210 229 255
210 229 255
210 229 255
210 229 255
210 229 255
210 229 255
210 229 255
210 229 255
210 229 255
210 229 255
210 229 255
210 229 255
210 229 255
210 229 255
210 229 255
210 229 255
210 229 255
210 229 255
209 229 255
209 229 255
209 229 255
209 229 255
209 229 255
209 229 255
209 229 255
209 229 255
209 229 255
209 229 255
209 229 255
209 229 255
209 229 255
209 229 255
209 229 255
209 229 255
209 229 255
209 229 255
209 229 255
209 229 255
209 229 255
209 228 255
208 228 255
208 228 255
208 228 255
208 228 255
208 228 255
208 228 255
208 228 255
208 228 255
208 228 255
208 228 255
208 228 255
208 228 255
208 228 255
208 228 255
208 228 255
208 228 255
208 228 255
208 228 255
208 228 255
208 228 255
207 228 255
207 228 255
207 228 255
207 228 255
207 228 255
207 228 255
207 228 255
207 228 255
207 228 255
207 228 255
207 228 255
207 228 255
207 228 255
207 227 255
207 227 255
207 227 255
207 227 255
207 227 255
206 227 255
206 227 255
206 227 255
206 227 255
206 227 255
206 227 255
206 227 255
206 227 255
206 227 255
206 227 255
206 227 255
206 227 255
206 227 255
206 227 255
206 227 255
206 227 255
206 227 255
205 227 255
205 227 255
205 227 255
205 227 255
205 227 255
205 227 255
205 227 255
205 227 255
205 227 255
205 226 255
205 226 255
205 226 255
205 226 255
205 226 255
205 226 255
205 226 255
204 226 255
204 226 255
204 226 255
204 226 255
204 226 255
204 226 255
204 226 255
204 226 255
204 226 255
204 226 255
204 226 255
204 226 255
204 226 255
204 226 255
204 226 255
204 226 255
204 226 255
203 226 255
203 226 255
203 226 255
203 226 255
203 226 255
203 226 255
203 226 255
203 225 255
203 225 255
203 225 255
203 225 255
203 225 255
203 225 255
203 225 255
203 225 255
203 225 255
203 225 255
203 225 255
202 225 255
202 225 255
202 225 255
202 225 255
202 225 255
202 225 255
202 225 255
202 225 255
202 225 255
202 225 255
202 225 255
202 225 255
202 225 255
202 225 255
202 225 255
202 225 255
202 225 255
202 225 255
202 225 255
202 225 255
202 225 255
202 225 255
202 225 255
201 225 255
201 225 255
201 225 255
201 225 255
201 225 255
201 225 255
201 225 255
201 225 255
201 225 255
201 225 255
201 224 255
201 224 255
201 224 255
201 224 255
201 224 255
201 224 255
201 224 255
201 224 255
201 224 255
201 224 255
201 224 255
201 224 255
201 224 255
201 224 255
201 224 255
201 224 255
201 224 255
201 224 255
201 224 255
201 224 255
201 224 255
201 224 255
201 224 255
201 224 255
201 224 255
201 224 255
201 224 255
201 224 255
201 224 255
201 224 255
201 224 255
201 224 255
201 224 255
201 224 255
201 224 255
201 224 255
201 224 255
201 224 255
201 224 255
201 224 255
201 225 255
201 225 255
201 225 255
201 225 255
201 225 255
201 225 255
201 225 255
201 225 255
201 225 255
201 225 255
202 225 255
202 225 255
202 225 255
202 225 255
202 225 255
202 225 255
202 225 255
202 225 255
202 225 255
202 225 255
202 225 255
202 225 255
202 225 255
202 225 255
202 225 255
202 225 255
202 225 255
202 225 255
202 225 255
202 225 255
202 225 255
202 225 255
202 225 255
203 225 255
203 225 255
203 225 255
203 225 255
203 225 255
203 225 255
203 225 255
203 225 255
203 225 255
203 225 255
203 226 255
203 226 255
203 226 255
203 226 255
203 226 255
203 226 255
203 226 255
203 226 255
204 226 255
204 226 255
204 226 255
204 226 255
204 226 255
204 226 255
204 226 255
204 226 255
204 226 255
204 226 255
204 226 255
204 226 255
204 226 255
204 226 255
204 226 255
204 226 255
204 226 255
205 226 255
205 226 255
205 226 255
205 226 255
205 226 255
205 226 255
205 226 255
205 227 255
205 227 255
205 227 255
205 227 255
205 227 255
205 227 255
205 227 255
205 227 255
205 227 255
206 227 255
206 227 255
206 227 255
206 227 255
206 227 255
206 227 255
206 227 255
206 227 255
206 227 255
206 227 255
206 227 255
206 227 255
206 227 255
206 227 255
206 227 255
206 227 255
206 227 255
207 227 255
207 227 255
207 227 255
207 227 255
207 227 255
207 228 255
207 228 255
207 228 255
207 228 255
207 228 255
207 228 255
207 228 255
207 228 255
207 228 255
207 228 255
207 228 255
207 228 255
207 228 255
208 228 255
208 228 255
208 228 255
208 228 255
208 228 255
208 228 255
208 228 255
208 228 255
208 228 255
208 228 255
208 228 255
208 228 255
208 228 255
208 228 255
208 228 255
208 228 255
208 228 255
208 228 255
208 228 255
208 228 255
209 228 255
209 229 255
209 229 255
209 229 255
209 229 255
209 229 255
209 229 255
209 229 255
209 229 255
209 229 255
209 229 255
209 229 255
209 229 255
209 229 255
209 229 255
209 229 255
209 229 255
209 229 255
209 229 255
209 229 255
209 229 255
209 229 255
210 229 255
210 229 255
210 229 255
210 229 255
210 229 255
210 229 255
210 229 255
210 229 255
210 229 255
210 229 255
210 229 255
210 229 255
210 229 255
210 229 255
210 229 255
210 229 255
210 229 255
210 229 255
210 229 255
210 230 255
210 229 255
210 229 255
210 229 255
210 229 255
210 229 255
210 229 255
210 229 255
210 229 255
210 229 255
210 229 255
210 229 255
210 229 255
210 229 255
210 229 255
210 229 255
210 229 255
210 229 255
210 229 255
210 229 255
210 229 255
210 229 255
210 229 255
209 229 255
209 229 255
209 229 255
209 229 255
209 229 255
209 229 255
209 229 255
209 229 255
209 229 255
209 229 255
209 229 255
209 229 255
209 229 255
209 229 255
209 229 255
209 229 255
209 229 255
209 229 255
209 229 255
209 229 255
209 228 255
209 228 255
208 228 255
208 228 255
208 228 255
208 228 255
208 228 255
208 228 255
208 228 255
208 228 255
208 228 255
208 228 255
208 228 255
208 228 255
208 228 255
208 228 255
208 228 255
208 228 255
208 228 255
208 228 255
208 228 255
207 228 255
207 228 255
207 228 255
207 228 255
207 228 255
207 228 255
207 228 255
207 228 255
207 228 255
207 228 255
207 228 255
207 228 255
207 228 255
207 228 255
207 227 255
207 227 255
207 227 255
207 227 255
206 227 255
206 227 255
206 227 255
206 227 255
206 227 255
206 227 255
206 227 255
206 227 255
206 227 255
206 227 255
206 227 255
206 227 255
206 227 255
206 227 255
206 227 255
206 227 255
206 227 255
205 227 255
205 227 255
205 227 255
205 227 255
205 227 255
205 227 255
205 227 255
205 227 255
205 227 255
205 227 255
205 226 255
205 226 255
205 226 255
205 226 255
205 226 255
205 226 255
204 226 255
204 226 255
204 226 255
204 226 255
204 226 255
204 226 255
204 226 255
204 226 255
204 226 255
204 226 255
204 226 255
204 226 255
204 226 255
204 226 255
204 226 255
204 226 255
204 226 255
203 226 255
203 226 255
203 226 255
203 226 255
203 226 255
203 226 255
203 226 255
203 226 255
203 225 255
203 225 255
203 225 255
203 225 255
203 225 255
203 225 255
203 225 255
203 225 255
203 225 255
203 225 255
203 225 255
202 225 255
202 225 255
202 225 255
202 225 255
202 225 255
202 225 255
202 225 255
202 225 255
202 225 255
202 225 255
202 225 255
202 225 255
202 225 255
202 225 255
202 225 255
202 225 255
202 225 255
202 225 255
202 225 255
202 225 255
202 225 255
202 225 255
202 225 255
202 225 255
202 225 255
202 225 255
201 225 255
201 225 255
201 225 255
201 225 255
201 225 255
201 225 255
201 225 255
201 225 255
201 225 255
201 225 255
201 225 255
201 225 255
201 225 255
201 225 255
201 225 255
201 225 255
201 225 255
201 224 255
201 224 255
201 224 255
201 224 255
201 224 255
201 224 255
201 224 255
201 224 255
201 224 255
201 224 255
201 224 255
201 224 255
201 225 255
201 225 255
201 225 255
201 225 255
201 225 255
201 225 255
201 225 255
201 225 255
201 225 255
201 225 255
201 225 255
201 225 255
201 225 255
201 225 255
201 225 255
201 225 255
201 225 255
202 225 255
202 225 255
202 225 255
202 225 255
202 225 255
202 225 255
202 225 255
202 225 255
202 225 255
202 225 255
202 225 255
202 225 255
202 225 255
202 225 255
202 225 255
202 225 255
202 225 255
202 225 255
202 225 255
202 225 255
202 225 255
202 225 255
202 225 255
202 225 255
202 225 255
202 225 255
203 225 255
203 225 255
203 225 255
203 225 255
203 225 255
203 225 255
203 225 255
203 225 255
203 225 255
203 225 255
203 225 255
203 226 255
203 226 255
203 226 255
203 226 255
203 226 255
203 226 255
203 226 255
203 226 255
204 226 255
204 226 255
204 226 255
204 226 255
204 226 255
204 226 255
204 226 255
204 226 255
204 226 255
204 226 255
204 226 255
204 226 255
204 226 255
204 226 255
204 226 255
204 226 255
204 226 255
205 226 255
205 226 255
205 226 255
205 226 255
205 226 255
205 226 255
205 227 255
205 227 255
205 227 255
205 227 255
205 227 255
205 227 255
205 227 255
205 227 255
205 227 255
205 227 255
206 227 255
206 227 255
206 227 255
206 227 255
206 227 255
206 227 255
206 227 255
206 227 255
206 227 255
206 227 255
206 227 255
206 227 255
206 227 255
206 227 255
206 227 255
206 227 255
206 227 255
207 227 255
207 227 255
207 227 255
207 227 255
207 228 255
207 228 255
207 228 255
207 228 255
207 228 255
207 228 255
207 228 255
207 228 255
207 228 255
207 228 255
207 228 255
207 228 255
207 228 255
207 228 255
208 228 255
208 228 255
208 228 255
208 228 255
208 228 255
208 228 255
208 228 255
208 228 255
208 228 255
208 228 255
208 228 255
208 228 255
208 228 255
208 228 255
208 228 255
208 228 255
208 228 255
208 228 255
208 228 255
208 228 255
209 228 255
209 229 255
209 229 255
209 229 255
209 229 255
209 229 255
209 229 255
209 229 255
209 229 255
209 229 255
209 229 255
209 229 255
209 229 255
209 229 255
209 229 255
209 229 255
209 229 255
209 229 255
209 229 255
209 229 255
209 229 255
210 229 255
210 229 255
210 229 255
210 229 255
210 229 255
210 229 255
210 229 255
210 229 255
210 229 255
210 229 255
210 229 255
210 229 255
210 229 255
210 229 255
210 229 255
210 229 255
210 229 255
210 229 255
210 229 255
210 229 255
210 229 255
210 229 255
210 230 255
211 230 255
211 230 255
210 230 255
210 230 255
210 230 255
210 229 255
210 229 255
210 229 255
210 229 255
210 229 255
210 229 255
210 229 255
210 229 255
210 229 255
210 229 255
210 229 255
210 229 255
210 229 255
210 229 255
210 229 255
210 229 255
210 229 255
210 229 255
210 229 255
210 229 255
210 229 255
210 229 255
209 229 255
209 229 255
209 229 255
209 229 255
209 229 255
209 229 255
209 229 255
209 229 255
209 229 255
209 229 255
209 229 255
209 229 255
209 229 255
209 229 255
209 229 255
209 229 255
209 229 255
209 229 255
209 229 255
209 229 255
209 228 255
208 228 255
208 228 255
208 228 255
208 228 255
208 228 255
208 228 255
208 228 255
208 228 255
208 228 255
208 228 255
208 228 255
208 228 255
208 228 255
208 228 255
208 228 255
208 228 255
208 228 255
208 228 255
208 228 255
207 228 255
207 228 255
207 228 255
207 228 255
207 228 255
207 228 255
207 228 255
207 228 255
207 228 255
207 228 255
207 228 255
207 228 255
207 228 255
207 228 255
207 227 255
207 227 255
207 227 255
207 227 255
206 227 255
206 227 255
206 227 255
206 227 255
206 227 255
206 227 255
206 227 255
206 227 255
206 227 255
206 227 255
206 227 255
206 227 255
206 227 255
206 227 255
206 227 255
206 227 255
206 227 255
205 227 255
205 227 255
205 227 255
205 227 255
205 227 255
205 227 255
205 227 255
205 227 255
205 227 255
205 227 255
205 226 255
205 226 255
205 226 255
205 226 255
205 226 255
205 226 255
205 226 255
204 226 255
204 226 255
204 226 255
204 226 255
204 226 255
204 226 255
204 226 255
204 226 255
204 226 255
204 226 255
204 226 255
204 226 255
204 226 255
204 226 255
204 226 255
204 226 255
204 226 255
203 226 255
203 226 255
203 226 255
203 226 255
203 226 255
203 226 255
203 226 255
203 226 255
203 225 255
203 225 255
203 225 255
203 225 255
203 225 255
203 225 255
203 225 255
203 225 255
203 225 255
203 225 255
203 225 255
203 225 255
202 225 255
202 225 255
202 225 255
202 225 255
202 225 255
202 225 255
202 225 255
202 225 255
202 225 255
202 225 255
202 225 255
202 225 255
202 225 255
202 225 255
202 225 255
202 225 255
202 225 255
202 225 255
202 225 255
202 225 255
202 225 255
202 225 255
202 225 255
202 225 255
202 225 255
202 225 255
202 225 255
202 225 255
202 225 255
202 225 255
202 225 255
201 225 255
201 225 255
201 225 255
201 225 255
201 225 255
201 225 255
201 225 255
201 225 255
201 225 255
201 225 255
201 225 255
201 225 255
201 225 255
201 225 255
201 225 255
201 225 255
201 225 255
201 225 255
201 225 255
201 225 255
201 225 255
201 225 255
201 225 255
201 225 255
201 225 255
201 225 255
202 225 255
202 225 255
202 225 255
202 225 255
202 225 255
202 225 255
202 225 255
202 225 255
202 225 255
202 225 255
202 225 255
202 225 255
202 225 255
202 225 255
202 225 255
202 225 255
202 225 255
202 225 255
202 225 255
202 225 255
202 225 255
202 225 255
202 225 255
202 225 255
202 225 255
202 225 255
202 225 255
202 225 255
202 225 255
202 225 255
202 225 255
203 225 255
203 225 255
203 225 255
203 225 255
203 225 255
203 225 255
203 225 255
203 225 255
203 225 255
203 225 255
203 225 255
203 225 255
203 226 255
203 226 255
203 226 255
203 226 255
203 226 255
203 226 255
203 226 255
203 226 255
204 226 255
204 226 255
204 226 255
204 226 255
204 226 255
204 226 255
204 226 255
204 226 255
204 226 255
204 226 255
204 226 255
204 226 255
204 226 255
204 226 255
204 226 255
204 226 255
204 226 255
205 226 255
205 226 255
205 226 255
205 226 255
205 226 255
205 226 255
205 226 255
205 227 255
205 227 255
205 227 255
205 227 255
205 227 255
205 227 255
205 227 255
205 227 255
205 227 255
205 227 255
206 227 255
206 227 255
206 227 255
206 227 255
206 227 255
206 227 255
206 227 255
206 227 255
206 227 255
206 227 255
206 227 255
206 227 255
206 227 255
206 227 255
206 227 255
206 227 255
206 227 255
207 227 255
207 227 255
207 227 255
207 227 255
207 228 255
207 228 255
207 228 255
207 228 255
207 228 255
207 228 255
207 228 255
207 228 255
207 228 255
207 228 255
207 228 255
207 228 255
207 228 255
207 228 255
208 228 255
208 228 255
208 228 255
208 228 255
208 228 255
208 228 255
208 228 255
208 228 255
208 228 255
208 228 255
208 228 255
208 228 255
208 228 255
208 228 255
208 228 255
208 228 255
208 228 255
208 228 255
208 228 255
209 228 255
209 228 255
209 229 255
209 229 255
209 229 255
209 229 255
209 229 255
209 229 255
209 229 255
209 229 255
209 229 255
209 229 255
209 229 255
209 229 255
209 229 255
209 229 255
209 229 255
209 229 255
209 229 255
209 229 255
209 229 255
210 229 255
210 229 255
210 229 255
210 229 255
210 229 255
210 229 255
210 229 255
210 229 255
210 229 255
210 229 255
210 229 255
210 229 255
210 229 255
210 229 255
210 229 255
210 229 255
210 229 255
210 229 255
210 229 255
210 229 255
210 229 255
210 229 255
210 230 255
210 230 255
210 230 255
211 230 255
211 230 255
211 230 255
211 230 255
211 230 255
211 230 255
211 230 255
211 230 255
210 230 255
210 230 255
210 230 255
210 229 255
210 229 255
210 229 255
210 229 255
210 229 255
210 229 255
210 229 255
210 229 255
210 229 255
210 229 255
210 229 255
210 229 255
210 229 255
210 229 255
210 229 255
210 229 255
210 229 255
210 229 255
210 229 255
210 229 255
210 229 255
209 229 255
209 229 255
209 229 255
209 229 255
209 229 255
209 229 255
209 229 255
209 229 255
209 229 255
209 229 255
209 229 255
209 229 255
209 229 255
209 229 255
209 229 255
209 229 255
209 229 255
209 229 255
209 229 255
209 229 255
209 228 255
209 228 255
208 228 255
208 228 255
208 228 255
208 228 255
208 228 255
208 228 255
208 228 255
208 228 255
208 228 255
208 228 255
208 228 255
208 228 255
208 228 255
208 228 255
208 228 255
208 228 255
208 228 255
208 228 255
208 228 255
207 228 255
207 228 255
207 228 255
207 228 255
207 228 255
207 228 255
207 228 255
207 228 255
207 228 255
207 228 255
207 228 255
207 228 255
207 228 255
207 228 255
207 227 255
207 227 255
207 227 255
207 227 255
206 227 255
206 227 255
206 227 255
206 227 255
206 227 255
206 227 255
206 227 255
206 227 255
206 227 255
206 227 255
206 227 255
206 227 255
206 227 255
206 227 255
206 227 255
206 227 255
206 227 255
205 227 255
205 227 255
205 227 255
205 227 255
205 227 255
205 227 255
205 227 255
205 227 255
205 227 255
205 227 255
205 226 255
205 226 255
205 226 255
205 226 255
205 226 255
205 226 255
205 226 255
204 226 255
204 226 255
204 226 255
204 226 255
204 226 255
204 226 255
204 226 255
204 226 255
204 226 255
204 226 255
204 226 255
204 226 255
204 226 255
204 226 255
204 226 255
204 226 255
204 226 255
203 226 255
203 226 255
203 226 255
203 226 255
203 226 255
203 226 255
203 226 255
203 226 255
203 226 255
203 225 255
203 225 255
203 225 255
203 225 255
203 225 255
203 225 255
203 225 255
203 225 255
203 225 255
203 225 255
203 225 255
203 225 255
202 225 255
202 225 255
202 225 255
202 225 255
202 225 255
202 225 255
202 225 255
202 225 255
202 225 255
202 225 255
202 225 255
202 225 255
202 225 255
202 225 255
202 225 255
202 225 255
202 225 255
202 225 255
202 225 255
202 225 255
202 225 255
202 225 255
202 225 255
202 225 255
202 225 255
202 225 255
202 225 255
202 225 255
202 225 255
202 225 255
202 225 255
202 225 255
202 225 255
202 225 255
202 225 255
202 225 255
202 225 255
202 225 255
202 225 255
202 225 255
202 225 255
202 225 255
202 225 255
202 225 255
202 225 255
202 225 255
202 225 255
202 225 255
202 225 255
202 225 255
202 225 255
202 225 255
202 225 255
202 225 255
202 225 255
202 225 255
202 225 255
202 225 255
202 225 255
202 225 255
202 225 255
202 225 255
202 225 255
202 225 255
202 225 255
202 225 255
202 225 255
202 225 255
202 225 255
202 225 255
202 225 255
202 225 255
202 225 255
202 225 255
202 225 255
202 225 255
202 225 255
202 225 255
203 225 255
203 225 255
203 225 255
203 225 255
203 225 255
203 225 255
203 225 255
203 225 255
203 225 255
203 225 255
203 225 255
203 225 255
203 226 255
203 226 255
203 226 255
203 226 255
203 226 255
203 226 255
203 226 255
203 226 255
203 226 255
204 226 255
204 226 255
204 226 255
204 226 255
204 226 255
204 226 255
204 226 255
204 226 255
204 226 255
204 226 255
204 226 255
204 226 255
204 226 255
204 226 255
204 226 255
204 226 255
204 226 255
205 226 255
205 226 255
205 226 255
205 226 255
205 226 255
205 226 255
205 226 255
205 227 255
205 227 255
205 227 255
205 227 255
205 227 255
205 227 255
205 227 255
205 227 255
205 227 255
205 227 255
206 227 255
206 227 255
206 227 255
206 227 255
206 227 255
206 227 255
206 227 255
206 227 255
206 227 255
206 227 255
206 227 255
206 227 255
206 227 255
206 227 255
206 227 255
206 227 255
206 227 255
207 227 255
207 227 255
207 227 255
207 227 255
207 227 255
207 228 255
207 228 255
207 228 255
207 228 255
207 228 255
207 228 255
207 228 255
207 228 255
207 228 255
207 228 255
207 228 255
207 228 255
207 228 255
208 228 255
208 228 255
208 228 255
208 228 255
208 228 255
208 228 255
208 228 255
208 228 255
208 228 255
208 228 255
208 228 255
208 228 255
208 228 255
208 228 255
208 228 255
208 228 255
208 228 255
208 228 255
208 228 255
208 228 255
209 228 255
209 229 255
209 229 255
209 229 255
209 229 255
209 229 255
209 229 255
209 229 255
209 229 255
209 229 255
209 229 255
209 229 255
209 229 255
209 229 255
209 229 255
209 229 255
209 229 255
209 229 255
209 229 255
209 229 255
209 229 255
210 229 255
210 229 255
210 229 255
210 229 255
210 229 255
210 229 255
210 229 255
210 229 255
210 229 255
210 229 255
210 229 255
210 229 255
210 229 255
210 229 255
210 229 255
210 229 255
210 229 255
210 229 255
210 229 255
210 229 255
210 229 255
210 230 255
210 230 255
210 230 255
211 230 255
211 230 255
211 230 255
211 230 255
211 230 255
211 230 255
211 230 255
211 230 255
211 230 255
211 230 255
211 230 255
211 230 255
211 230 255
211 230 255
211 230 255
211 230 255
210 230 255
210 230 255
210 230 255
210 229 255
210 229 255
210 229 255
210 229 255
210 229 255
210 229 255
210 229 255
210 229 255
210 229 255
210 229 255
210 229 255
210 229 255
210 229 255
210 229 255
210 229 255
210 229 255
210 229 255
210 229 255
210 229 255
210 229 255
210 229 255
209 229 255
209 229 255
209 229 255
209 229 255
208 227 254
205 225 251
197 215 241
190 208 234
189 208 233
185 203 227
188 207 232
186 205 230
179 197 221
182 201 226
186 204 230
180 199 224
175 193 217
188 207 232
186 205 230
178 195 219
176 194 218
185 204 230
185 203 228
191 209 235
193 212 238
192 211 237
205 225 252
208 228 255
208 228 255
208 228 255
208 228 255
208 228 255
208 228 255
208 228 255
208 228 255
208 228 255
208 228 255
208 228 255
208 228 255
208 228 255
207 228 255
207 228 255
207 228 255
207 228 255
207 228 255
207 228 255
207 228 255
207 228 255
207 228 255
207 228 255
207 228 255
207 228 255
207 228 255
207 228 255
207 227 255
207 227 255
207 227 255
207 227 255
206 227 255
206 227 255
206 227 255
206 227 255
206 227 255
206 227 255
206 227 255
206 227 255
206 227 255
206 227 255
206 227 255
206 227 255
206 227 255
206 227 255
206 227 255
206 227 255
206 227 255
205 227 255
205 227 255
205 227 255
205 227 255
205 227 255
205 227 255
205 227 255
205 227 255
205 227 255
205 227 255
205 226 255
205 226 255
205 226 255
205 226 255
205 226 255
205 226 255
205 226 255
204 226 255
204 226 255
204 226 255
204 226 255
204 226 255
204 226 255
204 226 255
204 226 255
204 226 255
204 226 255
204 226 255
204 226 255
204 226 255
204 226 255
204 226 255
204 226 255
204 226 255
204 226 255
203 226 255
203 226 255
203 226 255
203 226 255
203 226 255
203 226 255
203 226 255
203 226 255
203 226 255
203 225 255
203 225 255
203 225 255
203 225 255
203 225 255
203 225 255
203 225 255
203 225 255
203 225 255
203 225 255
203 225 255
203 225 255
203 225 255
202 225 255
202 225 255
202 225 255
202 225 255
202 225 255
202 225 255
202 225 255
202 225 255
202 225 255
202 225 255
202 225 255
202 225 255
202 225 255
202 225 255
202 225 255
202 225 255
202 225 255
202 225 255
202 225 255
202 225 255
202 225 255
202 225 255
202 225 255
202 225 255
202 225 255
202 225 255
202 225 255
202 225 255
202 225 255
202 225 255
202 225 255
202 225 255
202 225 255
202 225 255
202 225 255
202 225 255
202 225 255
202 225 255
202 225 255
202 225 255
202 225 255
202 225 255
202 225 255
202 225 255
202 225 255
202 225 255
202 225 255
202 225 255
202 225 255
202 225 255
202 225 255
202 225 255
202 225 255
202 225 255
202 225 255
202 225 255
202 225 255
202 225 255
202 225 255
202 225 255
202 225 255
202 225 255
202 225 255
202 225 255
202 225 255
202 225 255
202 225 255
203 225 255
203 225 255
203 225 255
203 225 255
203 225 255
203 225 255
203 225 255
203 225 255
203 225 255
203 225 255
203 225 255
203 225 255
203 225 255
203 225 255
203 226 255
203 226 255
203 226 255
203 226 255
203 226 255
203 226 255
203 226 255
203 226 255
203 226 255
204 226 255
204 226 255
204 226 255
204 226 255
204 226 255
204 226 255
204 226 255
204 226 255
204 226 255
204 226 255
204 226 255
204 226 255
204 226 255
204 226 255
204 226 255
204 226 255
204 226 255
204 226 255
205 226 255
205 226 255
205 226 255
205 226 255
205 226 255
205 226 255
205 226 255
205 227 255
205 227 255
205 227 255
205 227 255
205 227 255
205 227 255
205 227 255
205 227 255
205 227 255
205 227 255
206 227 255
206 227 255
206 227 255
206 227 255
206 227 255
206 227 255
206 227 255
206 227 255
206 227 255
206 227 255
206 227 255
206 227 255
206 227 255
206 227 255
206 227 255
206 227 255
206 227 255
207 227 255
207 227 255
207 227 255
207 227 255
207 228 255
207 228 255
207 228 255
207 228 255
207 228 255
207 228 255
207 228 255
207 228 255
207 228 255
207 228 255
207 228 255
207 228 255
207 228 255
207 228 255
208 228 255
208 228 255
208 228 255
208 228 255
208 228 255
208 228 255
208 228 255
208 228 255
208 228 255
208 228 255
208 228 255
208 228 255
206 225 252
204 223 247
197 215 236
194 211 229
189 203 217
190 205 223
179 192 203
180 192 203
179 192 202
181 194 202
184 198 209
173 184 187
176 189 203
169 180 186
180 193 204
164 174 176
181 195 207
188 203 219
187 201 217
197 215 235
197 213 231
202 219 240
208 227 252
208 227 252
209 229 255
209 229 255
209 229 255
209 229 255
210 229 255
210 229 255
210 229 255
210 229 255
210 229 255
210 229 255
210 229 255
210 229 255
210 229 255
210 229 255
210 229 255
210 229 255
210 229 255
210 229 255
210 229 255
210 229 255
210 229 255
210 229 255
210 229 255
210 229 255
210 229 255
210 230 255
210 230 255
210 230 255
211 230 255
211 230 255
211 230 255
211 230 255
211 230 255
211 230 255
211 230 255
211 230 255
211 230 255
211 230 255
211 230 255
211 230 255
211 230 255
211 230 255
211 230 255
211 230 255
211 230 255
211 230 255
211 230 255
211 230 255
211 230 255
211 230 255
211 230 255
211 230 255
210 230 255
210 230 255
210 230 255
210 229 255
210 229 255
210 229 255
210 229 255
210 229 255
210 229 255
210 229 255
210 229 255
210 229 255
210 229 255
210 229 255
210 229 255
206 225 251
199 218 243
191 209 234
182 200 224
170 187 211
164 181 203
155 172 194
153 170 193
149 166 190
135 151 173
136 152 174
140 157 180
143 160 183
141 158 181
147 165 188
145 163 187
126 142 163
147 165 190
150 170 195
152 171 196
145 164 188
142 160 184
146 165 190
151 171 196
150 170 195
148 168 194
147 166 191
142 159 183
135 153 177
156 176 203
144 162 187
137 155 178
147 166 190
144 161 184
148 165 189
156 174 197
166 184 209
168 186 210
187 206 232
188 207 232
192 211 236
206 226 253
208 228 255
208 228 255
208 228 255
208 228 255
208 228 255
208 228 255
208 228 255
207 228 255
207 228 255
207 228 255
207 228 255
207 228 255
207 228 255
207 228 255
207 228 255
207 228 255
207 228 255
207 228 255
207 228 255
207 228 255
207 227 255
207 227 255
207 227 255
207 227 255
207 227 255
206 227 255
206 227 255
206 227 255
206 227 255
206 227 255
206 227 255
206 227 255
206 227 255
206 227 255
206 227 255
206 227 255
206 227 255
206 227 255
206 227 255
206 227 255
206 227 255
206 227 255
205 227 255
205 227 255
205 227 255
205 227 255
205 227 255
205 227 255
205 227 255
205 227 255
205 227 255
205 227 255
205 226 255
205 226 255
205 226 255
205 226 255
205 226 255
205 226 255
205 226 255
204 226 255
204 226 255
204 226 255
204 226 255
204 226 255
204 226 255
204 226 255
204 226 255
204 226 255
204 226 255
204 226 255
204 226 255
204 226 255
204 226 255
204 226 255
204 226 255
204 226 255
204 226 255
204 226 255
203 226 255
203 226 255
203 226 255
203 226 255
203 226 255
203 226 255
203 226 255
203 226 255
203 226 255
203 226 255
203 225 255
203 225 255
203 225 255
203 225 255
203 225 255
203 225 255
203 225 255
203 225 255
203 225 255
203 225 255
203 225 255
203 225 255
203 225 255
203 225 255
203 225 255
202 225 255
202 225 255
202 225 255
202 225 255
202 225 255
202 225 255
202 225 255
202 225 255
202 225 255
202 225 255
202 225 255
202 225 255
202 225 255
202 225 255
202 225 255
202 225 255
202 225 255
202 225 255
202 225 255
202 225 255
202 225 255
202 225 255
202 225 255
202 225 255
202 225 255
202 225 255
202 225 255
202 225 255
202 225 255
202 225 255
202 225 255
202 225 255
202 225 255
202 225 255
202 225 255
202 225 255
202 225 255
202 225 255
202 225 255
202 225 255
202 225 255
202 225 255
202 225 255
202 225 255
202 225 255
202 225 255
202 225 255
202 225 255
202 225 255
202 225 255
202 225 255
202 225 255
203 225 255
203 225 255
203 225 255
203 225 255
203 225 255
203 225 255
203 225 255
203 225 255
203 225 255
203 225 255
203 225 255
203 225 255
203 225 255
203 225 255
203 225 255
203 226 255
203 226 255
203 226 255
203 226 255
203 226 255
203 226 255
203 226 255
203 226 255
203 226 255
203 226 255
204 226 255
204 226 255
204 226 255
204 226 255
204 226 255
204 226 255
204 226 255
204 226 255
204 226 255
204 226 255
204 226 255
204 226 255
204 226 255
204 226 255
204 226 255
204 226 255
204 226 255
204 226 255
204 226 255
205 226 255
205 226 255
205 226 255
205 226 255
205 226 255
205 226 255
205 226 255
205 227 255
205 227 255
205 227 255
205 227 255
205 227 255
205 227 255
205 227 255
205 227 255
205 227 255
205 227 255
206 227 255
206 227 255
206 227 255
206 227 255
206 227 255
206 227 255
206 227 255
206 227 255
206 227 255
206 227 255
206 227 255
206 227 255
206 227 255
206 227 255
206 227 255
206 227 255
206 227 255
206 227 255
207 227 255
207 227 255
207 227 255
207 227 255
207 228 255
207 228 255
207 228 255
207 228 255
207 228 255
207 228 255
207 228 255
207 228 255
207 228 255
207 228 255
207 228 255
207 228 255
207 228 255
207 228 255
208 228 255
208 228 255
208 228 255
208 228 255
208 228 255
208 228 255
204 224 249
200 219 243
192 208 224
175 187 196
164 173 169
162 170 165
156 164 162
145 146 118
127 127 96
136 135 92
124 122 80
129 127 85
136 134 90
135 133 88
136 133 87
129 127 84
142 139 91
135 132 88
146 143 95
129 127 84
126 124 83
129 126 84
131 129 85
130 127 84
123 121 80
127 125 81
136 134 89
128 125 83
133 130 86
127 125 84
127 124 81
126 123 81
136 132 87
135 133 98
144 147 124
149 152 136
168 175 168
171 180 179
177 187 188
185 200 215
198 214 234
204 223 248
210 229 255
210 229 255
210 229 255
210 229 255
210 229 255
210 229 255
210 229 255
210 229 255
210 229 255
210 229 255
210 229 255
210 229 255
210 230 255
210 230 255
210 230 255
211 230 255
211 230 255
211 230 255
211 230 255
211 230 255
211 230 255
211 230 255
211 230 255
211 230 255
211 230 255
211 230 255
211 230 255
211 230 255
211 230 255
211 230 255
211 230 255
211 230 255
211 230 255
211 230 255
211 230 255
211 230 255
211 230 255
211 230 255
211 230 255
211 230 255
211 230 255
211 230 255
211 230 255
211 230 255
211 230 255
211 230 255
211 230 255
210 230 255
210 230 255
210 230 255
210 229 255
210 229 255
207 226 252
192 210 234
183 201 224
164 181 203
158 175 196
147 163 185
150 168 191
146 164 187
141 157 180
150 169 194
150 168 192
153 172 196
151 169 194
153 172 198
153 172 198
150 170 195
151 171 196
146 164 188
152 171 196
150 169 195
156 176 203
153 174 200
140 159 184
155 176 203
152 172 199
153 174 200
142 161 187
150 171 198
157 178 206
159 181 209
154 175 203
151 172 199
146 166 192
147 167 194
159 181 209
153 173 200
144 165 191
148 168 195
152 173 200
151 171 198
145 165 191
153 174 202
147 167 192
138 157 181
150 170 196
145 165 190
128 145 168
144 163 187
134 151 172
156 174 198
164 182 206
185 204 230
186 205 230
201 221 248
208 228 255
208 228 255
208 228 255
208 228 255
207 228 255
207 228 255
207 228 255
207 228 255
207 228 255
207 228 255
207 228 255
207 228 255
207 228 255
207 228 255
207 228 255
207 228 255
207 228 255
207 228 255
207 227 255
207 227 255
207 227 255
207 227 255
206 227 255
206 227 255
206 227 255
206 227 255
206 227 255
206 227 255
206 227 255
206 227 255
206 227 255
206 227 255
206 227 255
206 227 255
206 227 255
206 227 255
206 227 255
206 227 255
206 227 255
205 227 255
205 227 255
205 227 255
205 227 255
205 227 255
205 227 255
205 227 255
205 227 255
205 227 255
205 227 255
205 227 255
205 226 255
205 226 255
205 226 255
205 226 255
205 226 255
205 226 255
205 226 255
204 226 255
204 226 255
204 226 255
204 226 255
204 226 255
204 226 255
204 226 255
204 226 255
204 226 255
204 226 255
204 226 255
204 226 255
204 226 255
204 226 255
204 226 255
204 226 255
204 226 255
204 226 255
204 226 255
204 226 255
203 226 255
203 226 255
203 226 255
203 226 255
203 226 255
203 226 255
203 226 255
203 226 255
203 226 255
203 226 255
203 226 255
203 225 255
203 225 255
203 225 255
203 225 255
203 225 255
203 225 255
203 225 255
203 225 255
203 225 255
203 225 255
203 225 255
203 225 255
203 225 255
203 225 255
203 225 255
203 225 255
203 225 255
203 225 255
203 225 255
202 225 255
202 225 255
202 225 255
202 225 255
202 225 255
202 225 255
202 225 255
202 225 255
202 225 255
202 225 255
202 225 255
202 225 255
202 225 255
202 225 255
202 225 255
202 225 255
202 225 255
202 225 255
202 225 255
202 225 255
202 225 255
202 225 255
202 225 255
202 225 255
202 225 255
202 225 255
202 225 255
202 225 255
202 225 255
202 225 255
202 225 255
203 225 255
202 225 255
203 225 255
203 225 255
203 225 255
203 225 255
203 225 255
203 225 255
203 225 255
203 225 255
203 225 255
203 225 255
203 225 255
203 225 255
203 225 255
203 225 255
203 225 255
203 225 255
203 225 255
203 225 255
203 225 255
203 226 255
203 226 255
203 226 255
203 226 255
203 226 255
203 226 255
203 226 255
203 226 255
203 226 255
203 226 255
204 226 255
204 226 255
204 226 255
204 226 255
204 226 255
204 226 255
204 226 255
204 226 255
204 226 255
204 226 255
204 226 255
204 226 255
204 226 255
204 226 255
204 226 255
204 226 255
204 226 255
204 226 255
204 226 255
204 226 255
205 226 255
205 226 255
205 226 255
205 226 255
205 226 255
205 226 255
205 226 255
205 227 255
205 227 255
205 227 255
205 227 255
205 227 255
205 227 255
205 227 255
205 227 255
205 227 255
205 227 255
206 227 255
206 227 255
206 227 255
206 227 255
206 227 255
206 227 255
206 227 255
206 227 255
206 227 255
206 227 255
206 227 255
206 227 255
206 227 255
206 227 255
206 227 255
206 227 255
206 227 255
206 227 255
207 227 255
207 227 255
207 227 255
207 227 255
207 228 255
207 228 255
207 228 255
207 228 255
207 228 255
207 228 255
207 228 255
207 228 255
207 228 255
207 228 255
207 228 255
207 228 255
207 228 255
207 228 255
208 228 255
208 228 255
208 228 255
208 228 255
201 220 243
181 196 211
186 200 211
169 178 178
154 161 152
142 143 115
140 137 91
131 129 86
139 137 91
137 135 90
134 132 88
141 138 92
141 138 91
123 122 81
132 130 87
146 144 96
138 137 92
130 128 85
144 142 95
143 141 94
138 135 90
141 139 93
144 142 95
133 132 88
135 132 87
138 136 89
131 129 86
136 133 87
136 134 89
135 132 87
135 132 87
133 130 87
134 132 87
129 126 84
136 133 88
134 131 87
137 135 90
135 134 90
139 135 89
132 130 86
123 122 80
139 136 90
140 137 90
132 129 84
125 122 79
145 142 94
125 122 79
134 131 87
137 137 107
144 147 130
168 176 174
181 193 199
190 204 219
198 215 235
210 229 255
210 229 255
210 230 255
210 230 255
210 230 255
211 230 255
211 230 255
211 230 255
211 230 255
211 230 255
211 230 255
211 230 255
211 230 255
211 230 255
211 230 255
211 230 255
211 230 255
211 230 255
211 230 255
211 230 255
211 230 255
211 230 255
211 230 255
211 230 255
211 230 255
211 230 255
211 230 255
211 230 255
211 230 255
211 230 255
211 230 255
211 230 255
211 230 255
211 230 255
211 230 255
211 230 255
211 230 255
211 230 255
211 230 255
211 230 255
211 230 255
206 225 251
191 209 232
169 185 207
167 183 205
147 163 184
136 151 172
134 150 171
146 163 186
144 161 184
151 170 195
143 161 184
154 173 198
146 165 190
153 172 196
148 167 191
155 175 200
155 176 203
159 180 207
157 177 204
158 179 206
154 174 200
156 176 203
155 176 204
154 175 203
159 180 208
152 172 199
151 172 199
153 174 202
153 174 202
153 174 202
157 179 207
157 178 207
159 182 212
157 179 207
151 172 199
155 177 206
145 166 192
153 175 204
159 182 212
154 177 206
159 182 212
157 179 208
154 175 203
146 167 194
151 173 202
158 179 208
153 174 203
152 173 200
153 175 203
155 178 207
151 173 200
154 175 203
147 167 194
151 172 199
153 174 202
143 163 188
144 164 190
139 157 181
144 163 188
151 170 195
169 188 213
181 200 226
189 209 235
199 219 246
208 228 255
208 228 255
208 228 255
207 228 255
207 228 255
207 228 255
207 228 255
207 228 255
207 228 255
207 228 255
207 228 255
207 228 255
207 228 255
207 228 255
207 228 255
207 228 255
207 228 255
207 227 255
207 227 255
207 227 255
207 227 255
206 227 255
206 227 255
206 227 255
206 227 255
206 227 255
206 227 255
206 227 255
206 227 255
206 227 255
206 227 255
206 227 255
206 227 255
206 227 255
206 227 255
206 227 255
206 227 255
206 227 255
205 227 255
205 227 255
205 227 255
205 227 255
205 227 255
205 227 255
205 227 255
205 227 255
205 227 255
205 227 255
205 227 255
205 226 255
205 226 255
205 226 255
205 226 255
205 226 255
205 226 255
205 226 255
204 226 255
204 226 255
204 226 255
204 226 255
204 226 255
204 226 255
204 226 255
204 226 255
204 226 255
204 226 255
204 226 255
204 226 255
204 226 255
204 226 255
204 226 255
204 226 255
204 226 255
204 226 255
204 226 255
204 226 255
204 226 255
203 226 255
203 226 255
203 226 255
203 226 255
203 226 255
203 226 255
203 226 255
203 226 255
203 226 255
203 226 255
203 226 255
203 226 255
203 225 255
203 225 255
203 225 255
203 225 255
203 225 255
203 225 255
203 225 255
203 225 255
203 225 255
203 225 255
203 225 255
203 225 255
203 225 255
203 225 255
203 225 255
203 225 255
203 225 255
203 225 255
203 225 255
203 225 255
203 225 255
203 225 255
203 225 255
203 225 255
203 225 255
203 225 255
203 225 255
203 225 255
203 225 255
203 225 255
203 225 255
203 225 255
203 225 255
203 225 255
203 225 255
203 225 255
203 225 255
203 225 255
203 225 255
203 225 255
203 225 255
203 225 255
203 225 255
203 225 255
203 225 255
203 225 255
203 225 255
203 225 255
203 225 255
203 225 255
203 225 255
203 225 255
203 225 255
203 225 255
203 225 255
203 225 255
203 225 255
203 225 255
203 226 255
203 226 255
203 226 255
203 226 255
203 226 255
203 226 255
203 226 255
203 226 255
203 226 255
203 226 255
203 226 255
203 226 255
204 226 255
204 226 255
204 226 255
204 226 255
204 226 255
204 226 255
204 226 255
204 226 255
204 226 255
204 226 255
204 226 255
204 226 255
204 226 255
204 226 255
204 226 255
204 226 255
204 226 255
204 226 255
204 226 255
204 226 255
204 226 255
205 226 255
205 226 255
205 226 255
205 226 255
205 226 255
205 226 255
205 226 255
205 227 255
205 227 255
205 227 255
205 227 255
205 227 255
205 227 255
205 227 255
205 227 255
205 227 255
205 227 255
205 227 255
206 227 255
206 227 255
206 227 255
206 227 255
206 227 255
206 227 255
206 227 255
206 227 255
206 227 255
206 227 255
206 227 255
206 227 255
206 227 255
206 227 255
206 227 255
206 227 255
206 227 255
207 227 255
207 227 255
207 227 255
207 227 255
207 227 255
207 228 255
207 228 255
207 228 255
207 228 255
207 228 255
207 228 255
207 228 255
207 228 255
207 228 255
207 228 255
207 228 255
207 228 255
207 228 255
208 228 255
208 228 255
208 228 255
199 217 240
182 197 212
175 188 194
162 169 159
146 148 125
125 123 82
138 136 90
125 123 82
124 123 82
123 122 82
120 118 79
137 136 91
133 131 88
134 133 90
140 138 92
140 138 92
124 123 82
135 133 88
143 141 94
136 133 89
135 134 90
138 136 91
136 133 89
135 134 90
129 127 84
138 137 92
146 144 97
134 132 87
139 137 92
127 125 83
146 143 95
134 131 87
136 133 87
133 131 87
142 140 93
143 141 91
130 128 84
132 131 87
140 137 91
131 128 83
133 131 87
131 129 84
145 141 93
136 133 85
139 137 91
133 130 86
136 132 87
131 129 85
134 131 86
135 133 88
140 137 89
136 134 87
131 128 83
131 129 84
132 129 85
133 129 84
137 133 85
120 118 76
135 132 83
143 142 111
163 168 155
179 191 199
187 200 214
206 224 247
211 230 255
211 230 255
211 230 255
211 230 255
211 230 255
211 230 255
211 230 255
211 230 255
211 230 255
211 230 255
211 230 255
211 230 255
211 230 255
211 230 255
211 230 255
211 230 255
211 230 255
211 230 255
211 230 255
211 230 255
211 230 255
211 230 255
211 230 255
211 230 255
211 230 255
211 230 255
211 230 255
211 230 255
211 230 255
211 230 255
211 230 255
211 230 255
198 216 241
188 206 230
166 183 206
149 165 187
147 164 186
126 140 160
142 159 181
150 167 191
151 169 192
155 175 200
148 167 191
153 172 196
150 169 194
150 170 195
155 174 200
149 168 194
162 182 209
166 188 217
156 177 204
162 184 213
149 170 196
157 178 206
158 180 208
157 178 206
159 181 209
151 171 198
161 184 213
161 183 212
165 188 218
157 178 207
162 185 214
159 182 211
156 177 206
163 186 216
161 184 214
159 182 212
161 185 216
161 184 214
155 178 208
157 180 209
162 186 217
160 184 214
157 180 209
154 176 206
161 185 216
160 184 214
157 180 209
161 185 217
160 184 214
164 188 219
160 184 214
156 180 211
159 182 213
158 181 211
155 177 207
161 185 216
155 178 207
155 178 207
157 179 208
155 177 207
159 182 212
159 182 212
151 172 200
143 163 190
150 170 196
153 174 202
151 171 198
143 161 186
151 169 193
166 184 209
176 195 219
199 219 245
208 228 255
208 228 255
207 228 255
207 228 255
207 228 255
207 228 255
207 228 255
207 228 255
207 228 255
207 228 255
207 228 255
207 228 255
207 228 255
207 228 255
207 228 255
207 228 255
207 227 255
207 227 255
207 227 255
207 227 255
206 227 255
206 227 255
206 227 255
206 227 255
206 227 255
206 227 255
206 227 255
206 227 255
206 227 255
206 227 255
206 227 255
206 227 255
206 227 255
206 227 255
206 227 255
206 227 255
206 227 255
206 227 255
205 227 255
205 227 255
205 227 255
205 227 255
205 227 255
205 227 255
205 227 255
205 227 255
205 227 255
205 227 255
205 227 255
205 226 255
205 226 255
205 226 255
205 226 255
205 226 255
205 226 255
205 226 255
205 226 255
204 226 255
204 226 255
204 226 255
204 226 255
204 226 255
204 226 255
204 226 255
204 226 255
204 226 255
204 226 255
204 226 255
204 226 255
204 226 255
204 226 255
204 226 255
204 226 255
204 226 255
204 226 255
204 226 255
204 226 255
204 226 255
204 226 255
203 226 255
203 226 255
203 226 255
203 226 255
203 226 255
203 226 255
203 226 255
203 226 255
203 226 255
203 226 255
203 226 255
203 226 255
203 226 255
203 226 255
203 226 255
203 225 255
203 225 255
203 225 255
203 225 255
203 225 255
203 225 255
203 225 255
203 225 255
203 225 255
203 225 255
203 225 255
203 225 255
203 225 255
203 225 255
203 225 255
203 225 255
203 225 255
203 225 255
203 225 255
203 225 255
203 225 255
203 225 255
203 225 255
203 225 255
203 225 255
203 225 255
203 225 255
203 225 255
203 225 255
203 225 255
203 225 255
203 225 255
203 225 255
203 225 255
203 225 255
203 225 255
203 225 255
203 225 255
203 225 255
203 225 255
203 226 255
203 226 255
203 226 255
203 226 255
203 226 255
203 226 255
203 226 255
203 226 255
203 226 255
203 226 255
203 226 255
203 226 255
203 226 255
203 226 255
203 226 255
204 226 255
204 226 255
204 226 255
204 226 255
204 226 255
204 226 255
204 226 255
204 226 255
204 226 255
204 226 255
204 226 255
204 226 255
204 226 255
204 226 255
204 226 255
204 226 255
204 226 255
204 226 255
204 226 255
204 226 255
204 226 255
204 226 255
205 226 255
205 226 255
205 226 255
205 226 255
205 226 255
205 226 255
205 226 255
205 226 255
205 227 255
205 227 255
205 227 255
205 227 255
205 227 255
205 227 255
205 227 255
205 227 255
205 227 255
205 227 255
205 227 255
206 227 255
206 227 255
206 227 255
206 227 255
206 227 255
206 227 255
206 227 255
206 227 255
206 227 255
206 227 255
206 227 255
206 227 255
206 227 255
206 227 255
206 227 255
206 227 255
206 227 255
206 227 255
207 227 255
207 227 255
207 227 255
207 227 255
207 228 255
207 228 255
207 228 255
207 228 255
207 228 255
207 228 255
207 228 255
207 228 255
207 228 255
207 228 255
207 228 255
207 228 255
207 228 255
208 228 255
208 228 255
208 228 255
198 216 237
177 190 201
160 168 161
146 147 118
135 133 89
136 134 89
131 130 87
132 131 87
137 135 90
140 139 93
137 136 91
128 126 84
122 120 80
141 139 93
129 127 85
124 123 83
132 130 87
143 142 95
133 131 87
133 131 88
127 126 84
138 136 91
143 141 95
137 136 91
138 136 90
140 138 92
134 132 88
133 131 87
140 138 92
140 138 93
135 133 89
137 135 90
138 137 92
136 133 88
141 139 92
133 131 87
147 144 96
139 136 91
139 137 91
142 139 93
147 145 96
148 145 96
142 139 92
135 133 88
144 141 93
142 140 93
139 137 90
131 129 85
144 141 93
141 139 92
135 134 89
141 138 91
136 133 87
143 140 93
131 128 85
146 142 93
134 132 87
129 126 82
138 135 89
128 126 82
131 129 84
138 134 87
131 127 83
139 135 88
131 127 82
136 132 87
126 122 80
126 122 83
155 157 138
162 171 173
184 196 205
202 219 240
211 230 255
211 230 255
211 230 255
211 230 255
211 230 255
211 230 255
211 230 255
211 230 255
211 230 255
211 230 255
211 230 255
211 230 255
211 230 255
211 230 255
212 230 255
212 230 255
212 230 255
212 230 255
211 230 255
211 230 255
211 230 255
211 230 255
211 230 255
211 230 255
207 225 250
180 197 219
162 178 199
152 169 191
149 166 188
143 159 181
150 167 190
151 168 191
145 162 186
153 171 195
161 181 207
146 163 187
153 172 198
155 174 199
157 178 204
155 175 202
162 182 209
157 178 204
158 178 206
157 177 204
162 183 211
158 180 208
157 178 206
163 185 214
163 185 214
151 171 198
165 187 217
158 180 209
163 185 214
160 182 211
166 189 219
165 188 218
158 181 211
161 184 214
161 184 214
166 190 220
167 191 223
163 187 218
164 188 219
163 187 218
162 184 214
165 188 219
166 191 223
165 189 220
164 189 220
161 185 216
158 181 212
159 182 213
162 187 219
162 186 217
161 185 217
163 187 219
159 183 213
159 183 213
165 190 223
163 188 219
161 185 217
161 185 216
160 184 216
162 186 218
153 176 206
162 187 218
156 180 212
153 177 207
162 186 217
159 182 213
158 182 212
153 175 204
154 177 206
153 175 203
155 178 207
149 170 198
151 173 200
142 162 188
144 164 190
148 168 194
149 168 193
175 195 221
187 206 233
203 223 250
208 228 255
208 228 255
207 228 255
207 228 255
207 228 255
207 228 255
207 228 255
207 228 255
207 228 255
207 228 255
207 228 255
207 228 255
207 228 255
207 228 255
207 228 255
207 228 255
207 227 255
207 227 255
207 227 255
207 227 255
206 227 255
206 227 255
206 227 255
206 227 255
206 227 255
206 227 255
206 227 255
206 227 255
206 227 255
206 227 255
206 227 255
206 227 255
206 227 255
206 227 255
206 227 255
206 227 255
206 227 255
206 227 255
205 227 255
205 227 255
205 227 255
205 227 255
205 227 255
205 227 255
205 227 255
205 227 255
205 227 255
205 227 255
205 227 255
205 226 255
205 226 255
205 226 255
205 226 255
205 226 255
205 226 255
205 226 255
205 226 255
204 226 255
204 226 255
204 226 255
204 226 255
204 226 255
204 226 255
204 226 255
204 226 255
204 226 255
204 226 255
204 226 255
204 226 255
204 226 255
204 226 255
204 226 255
204 226 255
204 226 255
204 226 255
204 226 255
204 226 255
204 226 255
204 226 255
204 226 255
204 226 255
204 226 255
204 226 255
203 226 255
203 226 255
203 226 255
203 226 255
203 226 255
203 226 255
203 226 255
203 226 255
203 226 255
203 226 255
203 226 255
203 226 255
203 226 255
203 226 255
203 226 255
203 226 255
203 226 255
203 226 255
203 226 255
203 226 255
203 226 255
203 226 255
203 226 255
203 226 255
203 226 255
203 226 255
203 226 255
203 226 255
203 226 255
203 226 255
203 226 255
203 226 255
203 226 255
203 226 255
203 226 255
203 226 255
203 226 255
203 226 255
203 226 255
203 226 255
203 226 255
203 226 255
203 226 255
203 226 255
203 226 255
203 226 255
203 226 255
203 226 255
203 226 255
203 226 255
203 226 255
203 226 255
203 226 255
203 226 255
204 226 255
204 226 255
204 226 255
204 226 255
204 226 255
204 226 255
204 226 255
204 226 255
204 226 255
204 226 255
204 226 255
204 226 255
204 226 255
204 226 255
204 226 255
204 226 255
204 226 255
204 226 255
204 226 255
204 226 255
204 226 255
204 226 255
204 226 255
204 226 255
204 226 255
204 226 255
205 226 255
205 226 255
205 226 255
205 226 255
205 226 255
205 226 255
205 226 255
205 226 255
205 227 255
205 227 255
205 227 255
205 227 255
205 227 255
205 227 255
205 227 255
205 227 255
205 227 255
205 227 255
205 227 255
206 227 255
206 227 255
206 227 255
206 227 255
206 227 255
206 227 255
206 227 255
206 227 255
206 227 255
206 227 255
206 227 255
206 227 255
206 227 255
206 227 255
206 227 255
206 227 255
206 227 255
206 227 255
207 227 255
207 227 255
207 227 255
207 227 255
207 228 255
207 228 255
207 228 255
207 228 255
207 228 255
207 228 255
207 228 255
207 228 255
207 228 255
207 228 255
207 228 255
207 228 255
207 228 255
207 228 255
208 228 255
208 228 255
202 221 246
178 193 207
166 176 175
134 135 103
135 132 88
131 130 87
136 135 90
134 133 89
128 127 85
129 127 84
138 136 91
141 140 93
142 140 94
139 138 93
138 137 92
136 135 90
141 139 93
136 135 90
141 139 93
146 144 96
137 136 91
142 141 95
149 148 99
142 141 95
142 141 95
141 140 94
144 143 95
140 138 92
143 142 95
130 129 86
136 134 89
141 139 93
141 139 93
152 150 101
127 125 84
146 144 96
139 138 93
141 139 93
141 138 92
144 142 93
149 147 97
140 137 91
142 139 92
145 142 95
139 136 90
144 141 93
146 143 95
139 137 92
142 139 90
141 138 92
138 135 87
151 148 97
131 128 85
140 137 90
145 143 94
142 139 93
144 141 93
135 133 88
131 129 85
136 133 87
149 146 95
139 136 90
135 132 87
144 141 93
144 140 91
143 140 90
126 123 80
137 134 88
142 138 90
119 117 77
125 122 79
137 135 88
131 127 82
116 113 73
131 129 83
128 124 80
132 131 100
157 166 169
194 208 223
206 223 245
211 230 255
211 230 255
211 230 255
211 230 255
211 230 255
211 230 255
212 230 255
212 230 255
212 230 255
212 230 255
212 230 255
212 230 255
212 230 255
212 230 255
212 230 255
212 230 255
212 230 255
200 217 241
175 192 214
161 177 199
157 174 197
155 171 194
148 165 187
142 158 180
144 161 184
153 170 194
153 170 194
160 179 204
154 172 196
155 174 199
157 175 200
165 186 213
157 177 204
159 179 206
162 182 209
163 183 211
158 179 207
162 183 211
162 184 212
165 187 216
166 189 218
163 184 212
165 187 216
161 183 212
163 185 214
167 189 219
162 184 213
169 193 224
168 191 221
166 189 219
167 191 221
164 188 219
168 192 224
169 193 224
166 189 220
168 192 224
169 193 225
166 190 221
168 193 225
166 191 223
167 192 224
166 191 224
165 190 221
165 190 223
165 189 221
167 192 224
166 191 224
167 193 226
168 193 226
166 191 223
167 193 226
165 191 224
165 191 224
163 188 220
162 187 219
163 188 220
168 194 227
166 192 225
166 191 224
162 188 220
166 192 225
157 182 213
156 181 212
159 183 214
161 186 218
159 184 216
160 184 216
161 186 218
159 183 214
164 189 221
156 180 211
153 177 207
153 176 206
152 175 204
156 179 209
156 179 208
146 167 194
140 159 184
138 157 181
136 155 178
143 160 183
173 191 216
193 212 239
208 228 255
208 228 255
208 228 255
207 228 255
207 228 255
207 228 255
207 228 255
207 228 255
207 228 255
207 228 255
207 228 255
207 228 255
207 228 255
207 228 255
207 228 255
207 228 255
207 228 255
207 227 255
207 227 255
207 227 255
207 227 255
206 227 255
206 227 255
206 227 255
206 227 255
206 227 255
206 227 255
206 227 255
206 227 255
206 227 255
206 227 255
206 227 255
206 227 255
206 227 255
206 227 255
206 227 255
206 227 255
206 227 255
206 227 255
205 227 255
205 227 255
205 227 255
205 227 255
205 227 255
205 227 255
205 227 255
205 227 255
205 227 255
205 227 255
205 227 255
205 227 255
205 226 255
205 226 255
205 226 255
205 226 255
205 226 255
205 226 255
205 226 255
205 226 255
204 226 255
204 226 255
204 226 255
204 226 255
204 226 255
204 226 255
204 226 255
204 226 255
204 226 255
204 226 255
204 226 255
204 226 255
204 226 255
204 226 255
204 226 255
204 226 255
204 226 255
204 226 255
204 226 255
204 226 255
204 226 255
204 226 255
204 226 255
204 226 255
204 226 255
204 226 255
204 226 255
204 226 255
204 226 255
204 226 255
203 226 255
203 226 255
203 226 255
203 226 255
203 226 255
203 226 255
203 226 255
203 226 255
203 226 255
203 226 255
203 226 255
203 226 255
203 226 255
203 226 255
203 226 255
203 226 255
203 226 255
203 226 255
203 226 255
203 226 255
203 226 255
203 226 255
203 226 255
203 226 255
203 226 255
203 226 255
203 226 255
203 226 255
203 226 255
203 226 255
203 226 255
203 226 255
203 226 255
203 226 255
203 226 255
203 226 255
204 226 255
204 226 255
204 226 255
204 226 255
204 226 255
204 226 255
204 226 255
204 226 255
204 226 255
204 226 255
204 226 255
204 226 255
204 226 255
204 226 255
204 226 255
204 226 255
204 226 255
204 226 255
204 226 255
204 226 255
204 226 255
204 226 255
204 226 255
204 226 255
204 226 255
204 226 255
204 226 255
204 226 255
204 226 255
205 226 255
205 226 255
205 226 255
205 226 255
205 226 255
205 226 255
205 226 255
205 226 255
205 226 255
205 227 255
205 227 255
205 227 255
205 227 255
205 227 255
205 227 255
205 227 255
205 227 255
205 227 255
205 227 255
205 227 255
206 227 255
206 227 255
206 227 255
206 227 255
206 227 255
206 227 255
206 227 255
206 227 255
206 227 255
206 227 255
206 227 255
206 227 255
206 227 255
206 227 255
206 227 255
206 227 255
206 227 255
206 227 255
206 227 255
207 227 255
207 227 255
207 227 255
207 227 255
207 228 255
207 228 255
207 228 255
207 228 255
207 228 255
207 228 255
207 228 255
207 228 255
207 228 255
207 228 255
207 228 255
207 228 255
207 228 255
207 228 255
208 228 255
208 228 255
208 228 255
194 211 231
174 185 191
139 145 136
133 132 90
135 133 89
123 122 81
127 125 84
132 131 87
127 124 83
144 142 95
137 136 91
134 133 90
138 137 92
134 133 90
137 136 91
134 132 89
147 146 98
142 141 95
139 137 92
146 144 97
136 135 91
145 144 97
142 141 95
143 141 95
138 138 93
146 145 97
147 145 97
144 142 95
138 137 92
143 142 95
137 135 90
144 142 95
139 137 92
137 135 90
150 148 99
152 150 101
143 141 95
145 143 95
145 143 95
146 145 97
144 143 96
153 151 101
150 148 98
143 141 93
149 146 97
146 143 95
135 133 89
139 137 90
142 140 93
145 142 95
148 145 96
133 131 87
147 143 95
145 141 93
140 138 92
143 141 93
142 139 92
153 149 98
137 134 89
143 140 93
145 142 95
131 129 86
140 137 90
142 139 93
134 132 86
149 146 95
142 139 93
142 138 90
142 139 90
139 137 90
129 126 82
142 139 92
127 123 80
137 134 87
142 138 90
131 128 82
131 127 83
138 136 87
141 137 88
135 131 83
129 126 82
134 131 84
131 127 80
154 157 138
176 189 199
190 205 222
212 230 255
212 230 255
212 230 255
212 230 255
212 230 255
212 230 255
212 230 255
212 230 255
212 230 255
212 230 255
212 230 255
194 211 234
169 185 207
143 158 178
148 164 186
134 149 169
135 150 171
144 161 183
155 173 196
151 169 192
152 170 194
166 186 212
150 168 192
158 178 203
158 178 203
159 178 204
156 175 200
164 184 211
161 182 209
160 181 208
159 180 207
163 185 213
165 186 214
169 192 221
165 187 216
162 184 212
164 186 216
164 186 216
168 191 221
169 192 223
168 190 220
169 193 224
168 191 221
168 191 221
170 194 225
164 188 219
169 193 225
167 190 220
170 195 227
168 193 225
168 193 225
171 195 227
169 193 225
170 195 227
169 194 226
169 194 227
169 195 228
169 195 227
171 196 228
169 195 228
170 195 228
169 194 227
169 195 228
169 195 228
168 194 228
167 193 226
168 194 228
168 194 227
167 194 227
167 193 227
167 193 227
168 195 228
168 194 227
169 195 228
168 194 228
165 191 225
167 193 226
167 193 226
166 192 226
162 187 220
163 188 221
162 188 221
161 186 219
163 188 220
165 191 224
160 185 217
162 188 220
158 183 214
160 186 218
153 176 206
159 183 214
153 177 207
156 178 208
157 180 211
154 177 206
149 171 199
151 172 200
155 176 204
144 164 190
140 159 184
150 169 193
174 193 218
190 209 235
207 227 254
208 228 255
208 228 255
208 228 255
207 228 255
207 228 255
207 228 255
207 228 255
207 228 255
207 228 255
207 228 255
207 228 255
207 228 255
207 228 255
207 228 255
207 228 255
207 228 255
207 228 255
207 227 255
207 227 255
207 227 255
207 227 255
206 227 255
206 227 255
206 227 255
206 227 255
206 227 255
206 227 255
206 227 255
206 227 255
206 227 255
206 227 255
206 227 255
206 227 255
206 227 255
206 227 255
206 227 255
206 227 255
206 227 255
206 227 255
206 227 255
205 227 255
205 227 255
205 227 255
205 227 255
205 227 255
205 227 255
205 227 255
205 227 255
205 227 255
205 227 255
205 227 255
205 227 255
205 226 255
205 226 255
205 226 255
205 226 255
205 226 255
205 226 255
205 226 255
205 226 255
205 226 255
204 226 255
204 226 255
204 226 255
204 226 255
204 226 255
204 226 255
204 226 255
204 226 255
204 226 255
204 226 255
204 226 255
204 226 255
204 226 255
204 226 255
204 226 255
204 226 255
204 226 255
204 226 255
204 226 255
204 226 255
204 226 255
204 226 255
204 226 255
204 226 255
204 226 255
204 226 255
204 226 255
204 226 255
204 226 255
204 226 255
204 226 255
204 226 255
204 226 255
204 226 255
204 226 255
204 226 255
204 226 255
204 226 255
204 226 255
204 226 255
204 226 255
204 226 255
204 226 255
204 226 255
204 226 255
204 226 255
204 226 255
204 226 255
204 226 255
204 226 255
204 226 255
204 226 255
204 226 255
204 226 255
204 226 255
204 226 255
204 226 255
204 226 255
204 226 255
204 226 255
204 226 255
204 226 255
204 226 255
204 226 255
204 226 255
204 226 255
204 226 255
204 226 255
204 226 255
204 226 255
204 226 255
204 226 255
204 226 255
204 226 255
204 226 255
204 226 255
204 226 255
204 226 255
204 226 255
204 226 255
204 226 255
204 226 255
204 226 255
204 226 255
205 226 255
205 226 255
205 226 255
205 226 255
205 226 255
205 226 255
205 226 255
205 226 255
205 226 255
205 227 255
205 227 255
205 227 255
205 227 255
205 227 255
205 227 255
205 227 255
205 227 255
205 227 255
205 227 255
205 227 255
205 227 255
206 227 255
206 227 255
206 227 255
206 227 255
206 227 255
206 227 255
206 227 255
206 227 255
206 227 255
206 227 255
206 227 255
206 227 255
206 227 255
206 227 255
206 227 255
206 227 255
206 227 255
206 227 255
206 227 255
207 227 255
207 227 255
207 227 255
207 227 255
207 228 255
207 228 255
207 228 255
207 228 255
207 228 255
207 228 255
207 228 255
207 228 255
207 228 255
207 228 255
207 228 255
207 228 255
207 228 255
207 228 255
208 228 255
208 228 255
208 228 255
207 227 254
194 211 228
165 173 170
137 140 117
136 134 89
137 135 90
131 129 87
136 135 90
126 125 84
142 140 94
135 134 90
143 141 95
136 134 90
142 141 95
139 137 92
129 128 86
146 144 97
126 125 84
151 149 100
147 145 97
147 145 97
149 148 100
144 143 96
139 138 93
142 141 95
133 131 87
148 146 97
152 151 101
140 138 93
143 142 95
145 143 96
142 140 94
148 147 99
146 144 97
150 148 99
152 150 100
141 140 93
134 133 89
136 134 90
148 147 99
143 142 95
143 142 95
146 144 95
148 146 97
154 152 102
150 148 99
151 149 99
136 135 90
149 147 98
149 146 97
149 147 98
150 147 98
152 150 100
142 140 93
148 146 97
143 140 93
141 139 93
139 137 91
152 149 99
142 139 93
146 144 95
147 144 95
146 143 95
139 136 90
135 133 87
136 134 87
132 128 84
145 141 93
141 138 90
142 139 92
143 140 90
138 136 90
134 131 85
145 141 90
136 133 85
147 143 94
143 139 90
148 145 93
135 132 86
142 139 92
140 137 89
140 136 88
141 135 85
124 121 80
144 141 90
125 122 80
130 126 82
140 136 85
127 123 80
128 124 77
142 142 117
174 182 182
196 211 230
212 230 255
212 230 255
212 230 255
212 230 255
212 230 255
207 225 250
179 196 218
158 174 195
141 155 175
151 167 190
159 176 199
145 161 183
157 174 198
162 181 206
155 173 196
157 176 200
159 178 204
162 181 207
146 163 187
159 179 204
156 175 200
161 181 208
165 186 213
168 189 217
167 188 217
169 191 220
165 186 213
166 188 217
166 188 217
166 188 217
167 190 219
166 188 217
167 189 218
172 196 226
167 191 221
170 194 225
171 195 226
168 190 220
169 192 221
169 193 224
168 192 223
169 193 224
172 196 228
171 195 227
171 196 228
171 196 228
171 196 228
170 196 228
170 196 228
171 196 228
170 196 228
170 196 228
170 195 228
170 195 228
169 195 228
170 195 228
169 195 228
169 195 228
168 194 228
168 194 228
169 195 228
168 195 228
168 195 228
168 194 228
168 194 228
167 194 228
167 194 228
167 194 228
168 194 228
167 194 228
168 194 228
167 194 228
167 194 228
167 194 228
167 194 228
167 194 228
168 194 228
167 193 227
168 194 228
165 192 227
166 192 226
164 190 224
164 190 224
166 193 227
163 189 221
168 194 228
158 182 214
163 189 221
160 186 218
162 187 219
159 183 214
162 186 218
154 177 208
152 176 206
157 180 209
149 171 199
149 170 198
148 169 196
151 172 199
137 155 178
155 174 199
178 197 223
196 215 242
208 228 255
208 228 255
208 228 255
208 228 255
208 228 255
207 228 255
207 228 255
207 228 255
207 228 255
207 228 255
207 228 255
207 228 255
207 228 255
207 228 255
207 228 255
207 228 255
207 228 255
207 228 255
207 228 255
207 227 255
207 227 255
207 227 255
207 227 255
206 227 255
206 227 255
206 227 255
206 227 255
206 227 255
206 227 255
206 227 255
206 227 255
206 227 255
206 227 255
206 227 255
206 227 255
206 227 255
206 227 255
206 227 255
206 227 255
206 227 255
206 227 255
206 227 255
205 227 255
205 227 255
205 227 255
205 227 255
205 227 255
205 227 255
205 227 255
205 227 255
205 227 255
205 227 255
205 227 255
205 227 255
205 227 255
205 226 255
205 226 255
205 226 255
205 226 255
205 226 255
205 226 255
205 226 255
205 226 255
205 226 255
205 226 255
204 226 255
204 226 255
204 226 255
204 226 255
204 226 255
204 226 255
204 226 255
204 226 255
204 226 255
204 226 255
204 226 255
204 226 255
204 226 255
204 226 255
204 226 255
204 226 255
204 226 255
204 226 255
204 226 255
204 226 255
204 226 255
204 226 255
204 226 255
204 226 255
204 226 255
204 226 255
204 226 255
204 226 255
204 226 255
204 226 255
204 226 255
204 226 255
204 226 255
204 226 255
204 226 255
204 226 255
204 226 255
204 226 255
204 226 255
204 226 255
204 226 255
204 226 255
204 226 255
204 226 255
204 226 255
204 226 255
204 226 255
204 226 255
204 226 255
204 226 255
204 226 255
204 226 255
204 226 255
204 226 255
204 226 255
204 226 255
204 226 255
204 226 255
204 226 255
204 226 255
204 226 255
204 226 255
204 226 255
204 226 255
204 226 255
204 226 255
204 226 255
204 226 255
204 226 255
204 226 255
204 226 255
204 226 255
205 226 255
205 226 255
205 226 255
205 226 255
205 226 255
205 226 255
205 226 255
205 226 255
205 226 255
205 226 255
205 227 255
205 227 255
205 227 255
205 227 255
205 227 255
205 227 255
205 227 255
205 227 255
205 227 255
205 227 255
205 227 255
205 227 255
206 227 255
206 227 255
206 227 255
206 227 255
206 227 255
206 227 255
206 227 255
206 227 255
206 227 255
206 227 255
206 227 255
206 227 255
206 227 255
206 227 255
206 227 255
206 227 255
206 227 255
206 227 255
206 227 255
206 227 255
207 227 255
207 227 255
207 227 255
207 227 255
207 228 255
207 228 255
207 228 255
207 228 255
207 228 255
207 228 255
207 228 255
207 228 255
207 228 255
207 228 255
207 228 255
207 228 255
207 228 255
207 228 255
208 228 255
208 228 255
208 228 255
208 228 255
208 228 255
201 218 239
180 193 205
145 148 125
132 130 87
139 137 91
134 132 88
133 132 88
137 135 90
137 136 91
133 131 87
137 135 90
134 132 89
138 137 93
137 135 90
147 146 98
138 137 92
138 138 93
138 137 92
148 146 98
142 141 95
144 142 95
149 147 98
139 139 93
144 143 96
138 137 92
143 142 95
137 136 91
141 139 93
139 137 92
143 141 95
155 154 103
144 143 96
156 154 103
144 143 95
148 147 99
147 145 97
147 145 97
145 142 95
145 143 95
146 144 96
152 150 100
145 143 95
154 152 101
151 149 99
151 149 99
140 138 93
143 141 94
148 146 97
145 142 95
144 142 95
151 148 98
146 144 95
132 129 86
139 137 91
146 144 95
146 144 95
150 147 98
140 138 92
152 149 97
143 140 93
140 137 90
143 142 93
143 139 93
145 143 94
148 145 96
146 142 93
145 142 94
142 139 92
144 142 94
148 145 95
149 145 94
132 129 86
143 141 90
144 140 92
137 135 90
142 138 89
150 146 95
143 139 90
144 140 92
137 134 85
151 148 97
141 137 90
126 123 79
136 134 86
142 138 87
137 135 87
134 130 81
135 132 86
139 134 86
144 140 90
138 135 86
127 123 77
136 132 85
138 134 86
128 125 80
142 143 119
180 189 193
202 218 238
212 230 255
161 176 197
147 162 183
148 163 184
148 165 188
154 170 192
159 177 200
157 176 200
155 173 196
159 177 202
157 176 200
157 175 200
169 189 217
160 180 206
164 183 208
154 174 199
168 189 217
162 183 209
165 186 213
165 186 214
169 191 220
169 191 220
170 192 221
166 188 217
170 193 223
167 190 219
169 191 220
169 192 221
171 194 225
173 196 226
172 196 226
171 194 225
172 195 226
173 197 227
171 195 226
173 197 228
172 197 228
172 196 228
172 197 228
171 196 228
171 196 228
170 195 228
170 196 228
170 196 228
170 195 228
170 196 228
170 196 228
170 195 228
169 195 228
169 195 228
169 195 228
169 195 228
168 195 228
168 194 228
169 195 228
169 195 228
169 195 228
168 194 228
167 194 228
168 194 228
167 194 228
167 194 228
167 194 228
167 194 228
166 193 228
167 194 228
166 194 228
167 194 228
166 194 228
166 193 228
166 194 228
167 194 228
166 194 228
166 194 228
166 194 228
166 194 228
166 194 228
167 194 228
167 194 228
167 194 228
166 193 227
167 194 228
165 192 226
166 193 227
164 190 224
167 193 227
164 190 224
162 187 220
167 193 226
161 186 218
160 185 218
161 186 218
160 184 216
161 185 217
160 184 216
144 164 191
153 175 204
142 163 190
148 168 195
141 161 186
158 176 201
184 203 228
204 224 251
208 228 255
208 228 255
208 228 255
208 228 255
208 228 255
208 228 255
207 228 255
207 228 255
207 228 255
207 228 255
207 228 255
207 228 255
207 228 255
207 228 255
207 228 255
207 228 255
207 228 255
207 228 255
207 228 255
207 228 255
207 227 255
207 227 255
207 227 255
207 227 255
207 227 255
206 227 255
206 227 255
206 227 255
206 227 255
206 227 255
206 227 255
206 227 255
206 227 255
206 227 255
206 227 255
206 227 255
206 227 255
206 227 255
206 227 255
206 227 255
206 227 255
206 227 255
206 227 255
206 227 255
205 227 255
205 227 255
205 227 255
205 227 255
205 227 255
205 227 255
205 227 255
205 227 255
205 227 255
205 227 255
205 227 255
205 227 255
205 227 255
205 227 255
205 226 255
205 226 255
205 226 255
205 226 255
205 226 255
205 226 255
205 226 255
205 226 255
205 226 255
205 226 255
205 226 255
205 226 255
204 226 255
204 226 255
204 226 255
204 226 255
204 226 255
204 226 255
204 226 255
204 226 255
204 226 255
204 226 255
204 226 255
204 226 255
204 226 255
204 226 255
204 226 255
204 226 255
204 226 255
204 226 255
204 226 255
204 226 255
204 226 255
204 226 255
204 226 255
204 226 255
204 226 255
204 226 255
204 226 255
204 226 255
204 226 255
204 226 255
204 226 255
204 226 255
204 226 255
204 226 255
204 226 255
204 226 255
204 226 255
204 226 255
204 226 255
204 226 255
204 226 255
204 226 255
204 226 255
204 226 255
204 226 255
204 226 255
204 226 255
204 226 255
204 226 255
204 226 255
204 226 255
204 226 255
204 226 255
204 226 255
204 226 255
204 226 255
205 226 255
205 226 255
205 226 255
205 226 255
205 226 255
205 226 255
205 226 255
205 226 255
205 226 255
205 226 255
205 226 255
205 226 255
205 227 255
205 227 255
205 227 255
205 227 255
205 227 255
205 227 255
205 227 255
205 227 255
205 227 255
205 227 255
205 227 255
205 227 255
205 227 255
205 227 255
206 227 255
206 227 255
206 227 255
206 227 255
206 227 255
206 227 255
206 227 255
206 227 255
206 227 255
206 227 255
206 227 255
206 227 255
206 227 255
206 227 255
206 227 255
206 227 255
206 227 255
206 227 255
206 227 255
206 227 255
207 227 255
207 227 255
207 227 255
207 227 255
207 228 255
207 228 255
207 228 255
207 228 255
207 228 255
207 228 255
207 228 255
207 228 255
207 228 255
207 228 255
207 228 255
207 228 255
207 228 255
207 228 255
208 228 255
208 228 255
208 228 255
208 228 255
208 228 255
208 228 255
201 220 244
177 188 193
150 154 141
128 126 84
126 124 82
128 126 84
142 140 94
137 136 91
146 144 97
132 131 87
139 138 93
138 137 92
143 142 95
141 141 95
127 125 84
139 138 93
146 144 97
146 145 97
146 145 97
136 135 90
140 139 94
150 149 99
145 144 97
139 138 93
143 141 95
146 144 96
148 147 99
153 151 101
148 147 99
146 145 97
138 137 92
146 145 97
155 154 103
143 142 95
146 144 96
153 151 101
143 142 96
149 147 99
156 153 102
148 147 99
141 139 93
146 144 97
149 148 99
139 137 92
146 145 97
155 153 102
146 144 96
144 142 95
149 147 97
142 140 93
148 146 98
154 151 100
143 142 95
155 153 102
143 140 93
145 143 95
144 142 94
157 154 101
141 140 92
145 144 95
150 147 97
144 141 92
149 146 97
156 152 100
139 137 89
147 145 95
144 140 93
154 151 98
141 138 90
144 141 93
158 154 101
141 139 90
136 134 87
153 149 96
133 130 81
135 133 87
146 142 92
151 148 97
140 136 89
157 153 98
141 137 89
147 144 95
146 143 95
140 136 87
142 138 89
148 144 93
131 128 83
150 146 95
137 134 84
144 140 91
133 129 80
141 137 87
147 143 91
139 134 87
129 126 80
132 129 84
135 131 84
136 132 84
127 122 76
122 119 75
128 123 79
149 151 133
148 164 186
150 166 188
157 174 198
149 165 187
148 164 187
156 174 198
162 181 206
153 171 195
159 178 203
164 182 207
160 180 206
162 182 208
166 186 213
161 181 207
166 187 214
169 190 218
163 185 213
166 187 216
169 190 219
168 189 218
169 192 221
171 193 223
171 193 223
172 195 225
173 196 226
168 191 220
174 197 227
172 196 227
172 196 227
173 197 228
173 197 228
173 197 228
171 196 228
173 197 228
172 196 228
173 197 228
172 197 228
170 196 228
171 196 228
171 196 228
170 196 228
171 196 228
170 195 228
170 196 228
170 195 228
169 195 228
169 195 228
168 195 228
169 195 228
169 195 228
169 195 228
169 195 228
168 194 228
168 194 228
167 194 228
167 194 228
167 194 228
167 194 228
167 194 228
167 194 228
167 194 228
167 194 228
166 193 228
166 193 228
166 193 228
167 194 228
166 194 228
166 193 228
166 194 228
166 193 228
165 193 228
166 193 228
165 193 228
166 193 228
165 193 228
166 194 228
166 193 228
166 193 228
166 193 228
166 193 228
166 193 228
166 194 228
166 193 228
167 194 228
167 194 228
167 194 228
166 193 227
166 193 227
164 190 224
162 188 220
160 186 219
163 189 221
160 185 217
157 181 213
155 179 209
155 178 208
155 179 209
151 173 202
153 176 204
146 167 194
139 158 183
143 162 187
171 189 214
197 216 243
208 228 255
208 228 255
208 228 255
208 228 255
208 228 255
208 228 255
208 228 255
208 228 255
207 228 255
207 228 255
207 228 255
207 228 255
207 228 255
207 228 255
207 228 255
207 228 255
207 228 255
207 228 255
207 228 255
207 228 255
207 228 255
207 228 255
207 227 255
207 227 255
207 227 255
207 227 255
207 227 255
206 227 255
206 227 255
206 227 255
206 227 255
206 227 255
206 227 255
206 227 255
206 227 255
206 227 255
206 227 255
206 227 255
206 227 255
206 227 255
206 227 255
206 227 255
206 227 255
206 227 255
206 227 255
206 227 255
206 227 255
206 227 255
205 227 255
205 227 255
205 227 255
205 227 255
205 227 255
205 227 255
205 227 255
205 227 255
205 227 255
205 227 255
205 227 255
205 227 255
205 227 255
205 227 255
205 227 255
205 226 255
205 226 255
205 226 255
205 226 255
205 226 255
205 226 255
205 226 255
205 226 255
205 226 255
205 226 255
205 226 255
205 226 255
205 226 255
205 226 255
205 226 255
205 226 255
204 226 255
204 226 255
204 226 255
204 226 255
204 226 255
204 226 255
204 226 255
204 226 255
204 226 255
204 226 255
204 226 255
204 226 255
204 226 255
204 226 255
204 226 255
204 226 255
204 226 255
204 226 255
204 226 255
204 226 255
204 226 255
204 226 255
204 226 255
204 226 255
204 226 255
204 226 255
204 226 255
204 226 255
204 226 255
204 226 255
204 226 255
204 226 255
204 226 255
204 226 255
205 226 255
205 226 255
205 226 255
205 226 255
205 226 255
205 226 255
205 226 255
205 226 255
205 226 255
205 226 255
205 226 255
205 226 255
205 226 255
205 226 255
205 226 255
205 226 255
205 227 255
205 227 255
205 227 255
205 227 255
205 227 255
205 227 255
205 227 255
205 227 255
205 227 255
205 227 255
205 227 255
205 227 255
205 227 255
205 227 255
205 227 255
206 227 255
206 227 255
206 227 255
206 227 255
206 227 255
206 227 255
206 227 255
206 227 255
206 227 255
206 227 255
206 227 255
206 227 255
206 227 255
206 227 255
206 227 255
206 227 255
206 227 255
206 227 255
206 227 255
206 227 255
206 227 255
207 227 255
207 227 255
207 227 255
207 227 255
207 227 255
207 228 255
207 228 255
207 228 255
207 228 255
207 228 255
207 228 255
207 228 255
207 228 255
207 228 255
207 228 255
207 228 255
207 228 255
207 228 255
207 228 255
208 228 255
208 228 255
208 228 255
208 228 255
208 228 255
208 228 255
208 228 255
208 228 255
199 217 239
162 170 162
136 135 95
133 131 87
131 130 87
139 137 92
141 140 94
141 140 94
134 133 90
141 140 94
134 133 90
140 139 93
146 145 97
141 141 95
144 143 95
143 143 96
142 141 95
146 145 97
142 140 94
145 143 96
148 146 98
137 136 91
145 143 96
150 149 100
145 144 97
150 148 99
154 153 103
151 149 100
146 145 97
133 134 90
142 141 95
150 148 99
155 153 103
146 145 97
142 142 95
151 150 101
144 142 95
146 145 97
156 155 104
146 145 97
151 148 99
153 151 101
146 144 97
147 146 97
146 144 96
150 148 99
150 148 99
153 151 101
140 138 91
145 143 95
151 148 99
149 147 98
160 158 105
152 149 99
141 139 93
153 151 100
151 148 98
150 147 97
153 150 99
143 141 93
149 147 96
153 149 99
138 136 90
149 146 95
148 145 94
150 147 96
151 148 98
143 140 93
153 151 101
143 141 93
146 143 94
151 148 97
151 148 97
148 145 95
150 146 95
148 144 93
142 139 90
147 143 93
131 128 84
152 148 95
147 144 94
143 139 90
150 145 93
150 146 97
143 140 90
141 137 88
146 143 95
146 142 93
147 143 93
136 132 84
143 139 90
136 133 84
137 133 86
144 140 89
129 127 81
140 137 88
138 134 87
136 132 84
132 129 83
130 127 82
145 140 88
142 138 87
145 142 91
123 120 76
150 167 190
143 160 181
149 166 188
158 175 199
153 170 194
156 175 200
164 183 208
164 183 208
159 178 203
162 182 208
167 187 214
164 184 211
169 190 218
170 192 220
166 188 216
170 191 219
168 190 218
172 194 223
172 194 223
175 197 227
172 195 224
170 192 221
169 192 221
175 198 228
175 198 228
172 196 227
174 197 228
173 197 228
173 197 228
173 197 228
173 197 228
172 197 228
173 197 228
171 196 228
172 196 228
171 196 228
171 196 228
172 197 228
171 196 228
170 196 228
170 196 228
171 196 228
170 196 228
170 195 228
170 196 228
170 195 228
169 195 228
168 195 228
169 195 228
169 195 228
168 194 228
168 194 228
168 194 228
167 194 228
167 194 228
167 194 228
168 194 228
167 194 228
166 194 228
166 193 228
166 193 228
166 193 228
167 194 228
166 193 228
166 193 228
166 193 228
166 193 228
166 193 228
165 193 228
166 193 228
165 193 228
165 193 228
165 193 228
165 193 228
165 193 228
166 193 228
164 193 228
165 193 228
165 193 228
165 193 228
165 193 228
165 193 228
166 193 228
166 193 228
166 193 228
166 194 228
167 194 228
166 193 228
166 194 228
166 193 227
166 193 227
167 193 227
164 190 224
165 191 224
162 187 220
161 187 219
164 188 220
159 183 214
158 181 212
153 176 206
148 170 198
159 181 211
153 174 202
141 160 184
146 164 187
190 209 236
206 227 254
208 228 255
208 228 255
208 228 255
208 228 255
208 228 255
208 228 255
208 228 255
208 228 255
208 228 255
207 228 255
207 228 255
207 228 255
207 228 255
207 228 255
207 228 255
207 228 255
207 228 255
207 228 255
207 228 255
207 228 255
207 228 255
207 228 255
207 228 255
207 228 255
207 227 255
207 227 255
207 227 255
207 227 255
207 227 255
206 227 255
206 227 255
206 227 255
206 227 255
206 227 255
206 227 255
206 227 255
206 227 255
206 227 255
206 227 255
206 227 255
206 227 255
206 227 255
206 227 255
206 227 255
206 227 255
206 227 255
206 227 255
206 227 255
206 227 255
206 227 255
206 227 255
205 227 255
205 227 255
205 227 255
205 227 255
205 227 255
205 227 255
205 227 255
205 227 255
205 227 255
205 227 255
205 227 255
205 227 255
205 227 255
205 227 255
205 227 255
205 227 255
205 227 255
205 227 255
205 226 255
205 226 255
205 226 255
205 226 255
205 226 255
205 226 255
205 226 255
205 226 255
205 226 255
205 226 255
205 226 255
205 226 255
205 226 255
205 226 255
205 226 255
205 226 255
205 226 255
205 226 255
205 226 255
205 226 255
205 226 255
205 226 255
205 226 255
205 226 255
205 226 255
205 226 255
205 226 255
205 226 255
205 226 255
205 226 255
205 226 255
205 226 255
205 226 255
205 226 255
205 226 255
205 226 255
205 226 255
205 226 255
205 226 255
205 226 255
205 226 255
205 226 255
205 226 255
205 226 255
205 226 255
205 226 255
205 226 255
205 226 255
205 227 255
205 227 255
205 227 255
205 227 255
205 227 255
205 227 255
205 227 255
205 227 255
205 227 255
205 227 255
205 227 255
205 227 255
205 227 255
205 227 255
205 227 255
205 227 255
205 227 255
205 227 255
206 227 255
206 227 255
206 227 255
206 227 255
206 227 255
206 227 255
206 227 255
206 227 255
206 227 255
206 227 255
206 227 255
206 227 255
206 227 255
206 227 255
206 227 255
206 227 255
206 227 255
206 227 255
206 227 255
206 227 255
206 227 255
206 227 255
207 227 255
207 227 255
207 227 255
207 227 255
207 227 255
207 228 255
207 228 255
207 228 255
207 228 255
207 228 255
207 228 255
207 228 255
207 228 255
207 228 255
207 228 255
207 228 255
207 228 255
207 228 255
207 228 255
207 228 255
208 228 255
208 228 255
208 228 255
208 228 255
208 228 255
208 228 255
208 228 255
208 228 255
208 228 255
208 228 255
180 194 207
146 150 134
134 132 87
130 128 85
140 138 92
137 136 91
135 134 90
138 137 92
144 142 95
143 142 95
130 129 87
142 141 95
143 142 95
141 140 94
144 143 96
148 147 98
147 145 97
142 141 95
148 147 99
154 153 103
138 136 91
152 151 101
141 139 93
146 145 97
151 150 101
150 149 100
144 142 95
142 140 94
141 140 94
149 148 99
146 144 97
146 144 97
146 144 96
141 139 93
148 147 99
144 143 97
143 142 95
158 157 105
154 152 102
152 150 100
151 148 99
148 146 97
152 150 101
146 144 97
152 150 101
152 150 99
153 150 99
147 144 96
142 140 94
152 150 101
149 148 99
152 149 99
151 149 99
154 151 101
149 146 97
150 148 99
151 148 99
156 153 100
143 141 93
140 137 90
149 146 97
145 142 94
150 148 96
149 146 97
144 142 94
149 147 97
141 138 91
146 143 95
154 150 99
147 145 96
149 146 95
145 142 94
148 145 96
151 150 99
142 140 92
149 147 97
146 143 95
135 132 86
151 148 97
147 144 95
139 135 89
144 142 93
140 137 89
142 139 90
153 149 96
144 142 94
152 148 96
147 144 93
140 136 87
143 140 88
142 139 90
142 138 88
149 145 95
139 136 86
136 131 84
138 135 87
131 129 81
139 136 85
140 137 88
148 143 93
147 142 92
136 131 83
150 145 94
131 128 79
138 134 84
147 142 92
158 176 199
157 175 199
159 177 202
169 188 213
164 183 208
156 174 198
162 181 207
169 189 216
166 186 213
171 191 218
171 192 219
172 193 220
172 193 221
174 195 224
170 192 220
170 192 220
167 189 217
174 196 226
176 198 227
171 193 223
175 197 226
174 197 226
174 197 227
175 198 228
175 198 228
173 197 228
174 198 228
172 197 228
173 197 228
172 196 228
173 197 228
173 197 228
172 196 228
172 196 228
172 196 228
172 196 228
170 196 228
172 196 228
171 196 228
170 195 228
170 195 228
170 195 228
169 195 228
170 196 228
170 195 228
168 195 228
169 195 228
169 195 228
168 195 228
168 195 228
168 195 228
168 194 228
168 195 228
168 194 228
167 194 228
167 194 228
166 193 228
167 194 228
168 194 228
166 194 228
166 194 228
166 193 228
166 193 228
166 193 228
166 193 228
165 193 228
165 193 228
165 193 228
166 193 228
165 193 228
165 193 228
165 193 228
164 192 228
164 193 228
165 193 228
165 193 228
165 193 228
164 193 228
165 193 228
165 193 228
165 193 228
165 193 228
165 193 228
165 193 228
165 193 228
165 193 228
165 193 228
166 193 228
166 193 228
165 193 228
166 193 228
167 194 228
166 193 227
168 194 228
163 190 224
167 194 227
161 187 220
162 187 220
155 179 211
160 185 217
167 192 224
155 178 208
156 179 209
152 174 203
148 169 196
148 168 194
141 158 180
178 197 221
206 226 253
208 228 255
208 228 255
208 228 255
208 228 255
208 228 255
208 228 255
208 228 255
208 228 255
208 228 255
208 228 255
208 228 255
208 228 255
207 228 255
207 228 255
207 228 255
207 228 255
207 228 255
207 228 255
207 228 255
207 228 255
207 228 255
207 228 255
207 228 255
207 228 255
207 228 255
207 228 255
207 227 255
207 227 255
207 227 255
207 227 255
207 227 255
207 227 255
206 227 255
206 227 255
206 227 255
206 227 255
206 227 255
206 227 255
206 227 255
206 227 255
206 227 255
206 227 255
206 227 255
206 227 255
206 227 255
206 227 255
206 227 255
206 227 255
206 227 255
206 227 255
206 227 255
206 227 255
206 227 255
206 227 255
206 227 255
206 227 255
205 227 255
205 227 255
205 227 255
205 227 255
205 227 255
205 227 255
205 227 255
205 227 255
205 227 255
205 227 255
205 227 255
205 227 255
205 227 255
205 227 255
205 227 255
205 227 255
205 227 255
205 227 255
205 227 255
205 227 255
205 227 255
205 227 255
205 227 255
205 227 255
205 227 255
205 227 255
205 226 255
205 226 255
205 226 255
205 226 255
205 226 255
205 226 255
205 226 255
205 226 255
205 226 255
205 226 255
205 226 255
205 226 255
205 226 255
205 226 255
205 226 255
205 226 255
205 226 255
205 226 255
205 226 255
205 227 255
205 227 255
205 227 255
205 227 255
205 227 255
205 227 255
205 227 255
205 227 255
205 227 255
205 227 255
205 227 255
205 227 255
205 227 255
205 227 255
205 227 255
205 227 255
205 227 255
205 227 255
205 227 255
205 227 255
205 227 255
205 227 255
205 227 255
205 227 255
205 227 255
205 227 255
206 227 255
206 227 255
206 227 255
206 227 255
206 227 255
206 227 255
206 227 255
206 227 255
206 227 255
206 227 255
206 227 255
206 227 255
206 227 255
206 227 255
206 227 255
206 227 255
206 227 255
206 227 255
206 227 255
206 227 255
206 227 255
206 227 255
206 227 255
207 227 255
207 227 255
207 227 255
207 227 255
207 227 255
207 228 255
207 228 255
207 228 255
207 228 255
207 228 255
207 228 255
207 228 255
207 228 255
207 228 255
207 228 255
207 228 255
207 228 255
207 228 255
207 228 255
207 228 255
207 228 255
208 228 255
208 228 255
208 228 255
208 228 255
208 228 255
208 228 255
208 228 255
208 228 255
208 228 255
208 228 255
208 228 255
203 222 245
179 194 208
139 143 124
132 131 87
132 130 87
131 130 87
148 146 97
140 139 93
133 132 88
141 139 93
137 135 90
144 143 96
140 139 93
136 135 90
147 146 99
137 136 91
141 140 94
139 138 93
134 134 90
140 139 94
151 150 101
147 145 97
147 146 98
143 143 96
146 145 97
145 145 97
155 153 103
145 143 96
152 151 101
149 147 98
140 139 93
147 145 97
155 154 104
147 146 98
138 137 92
144 142 95
153 151 101
155 153 103
154 152 102
148 146 98
157 155 104
146 144 96
149 147 98
148 145 97
151 147 97
156 154 103
148 146 98
150 147 98
156 154 103
157 155 103
153 151 101
146 144 95
149 147 98
154 151 101
152 149 99
153 150 100
149 147 97
153 150 99
151 148 98
158 155 102
147 144 96
154 152 101
146 144 95
149 146 96
142 140 93
161 157 104
148 145 95
151 148 98
142 140 93
153 150 99
152 148 96
154 150 99
146 143 95
158 155 104
146 142 94
151 148 97
148 144 95
161 158 103
138 135 88
143 140 90
146 145 96
146 143 94
149 147 97
155 150 96
149 145 93
147 144 94
143 140 92
145 141 92
136 134 89
148 145 95
135 133 86
151 147 96
146 142 93
147 144 90
148 143 94
148 144 93
151 146 90
136 133 85
138 135 87
145 141 91
134 130 83
154 150 96
133 130 83
142 138 90
131 126 76
131 128 82
144 139 91
147 143 89
146 142 91
156 174 196
164 182 207
159 177 202
161 180 204
168 188 214
169 188 214
171 191 218
168 188 216
169 190 217
170 191 218
170 191 218
172 193 220
175 197 226
175 196 224
174 197 227
175 197 227
174 195 224
174 197 227
175 197 227
175 198 228
176 199 228
175 198 228
175 198 228
174 198 228
175 198 228
175 198 228
173 197 228
173 197 228
173 197 228
173 197 228
172 197 228
173 197 228
171 196 228
172 197 228
171 196 228
171 196 228
171 196 228
171 196 228
171 196 228
171 196 228
169 195 228
171 196 228
169 195 228
169 195 228
169 195 228
169 195 228
168 195 228
169 195 228
167 194 228
168 195 228
168 195 228
168 194 228
168 194 228
167 194 228
167 194 228
166 194 228
167 194 228
167 194 228
167 194 228
166 194 228
166 193 228
166 193 228
166 193 228
166 193 228
165 193 228
165 193 228
166 193 228
165 193 228
165 193 228
165 193 228
165 193 228
165 193 228
165 193 228
164 193 228
164 192 228
164 193 228
165 193 228
164 193 228
164 193 228
164 193 228
164 192 228
164 193 228
164 193 228
164 193 228
164 192 228
165 193 228
165 193 228
165 193 228
165 193 228
165 193 228
165 193 228
166 193 228
165 193 228
167 194 228
167 194 228
166 193 228
166 193 227
164 191 225
166 193 226
166 192 225
160 185 217
163 188 220
157 180 211
161 185 216
153 176 206
155 177 206
154 176 204
149 169 195
132 149 171
183 202 228
202 222 248
208 228 255
208 228 255
208 228 255
208 228 255
208 228 255
208 228 255
208 228 255
208 228 255
208 228 255
208 228 255
208 228 255
208 228 255
208 228 255
208 228 255
207 228 255
207 228 255
207 228 255
207 228 255
207 228 255
207 228 255
207 228 255
207 228 255
207 228 255
207 228 255
207 228 255
207 228 255
207 228 255
207 228 255
207 228 255
207 228 255
207 227 255
207 227 255
207 227 255
207 227 255
207 227 255
206 227 255
206 227 255
206 227 255
206 227 255
206 227 255
206 227 255
206 227 255
206 227 255
206 227 255
206 227 255
206 227 255
206 227 255
206 227 255
206 227 255
206 227 255
206 227 255
206 227 255
206 227 255
206 227 255
206 227 255
206 227 255
206 227 255
206 227 255
206 227 255
206 227 255
206 227 255
206 227 255
205 227 255
205 227 255
205 227 255
205 227 255
205 227 255
205 227 255
205 227 255
205 227 255
205 227 255
205 227 255
205 227 255
205 227 255
205 227 255
205 227 255
205 227 255
205 227 255
205 227 255
205 227 255
205 227 255
205 227 255
205 227 255
205 227 255
205 227 255
205 227 255
205 227 255
199 221 252
198 220 251
197 218 250
198 220 251
205 227 255
205 227 255
205 227 255
205 227 255
205 227 255
205 227 255
205 227 255
205 227 255
205 227 255
205 227 255
205 227 255
205 227 255
205 227 255
205 227 255
205 227 255
205 227 255
205 227 255
205 227 255
205 227 255
205 227 255
205 227 255
205 227 255
205 227 255
205 227 255
205 227 255
206 227 255
206 227 255
206 227 255
206 227 255
206 227 255
206 227 255
206 227 255
206 227 255
206 227 255
206 227 255
206 227 255
206 227 255
206 227 255
206 227 255
206 227 255
206 227 255
206 227 255
206 227 255
206 227 255
206 227 255
206 227 255
206 227 255
206 227 255
206 227 255
206 227 255
206 227 255
206 227 255
207 227 255
207 227 255
207 227 255
207 227 255
207 227 255
207 227 255
207 228 255
207 228 255
207 228 255
207 228 255
207 228 255
207 228 255
207 228 255
207 228 255
207 228 255
207 228 255
207 228 255
207 228 255
207 228 255
207 228 255
208 228 255
208 228 255
208 228 255
208 228 255
208 228 255
208 228 255
208 228 255
208 228 255
208 228 255
208 228 255
208 228 255
208 228 255
208 228 255
208 228 255
208 228 255
204 223 249
172 184 189
131 131 101
122 121 80
138 136 90
131 129 87
130 129 86
143 141 95
142 140 94
134 133 89
136 135 90
143 142 95
142 140 94
139 138 93
138 136 91
139 138 93
150 148 99
148 146 97
143 142 95
149 148 99
144 143 96
145 144 97
147 146 98
151 149 100
140 139 93
147 146 98
150 149 100
147 146 98
150 150 101
144 142 95
144 143 96
150 148 99
151 149 99
152 151 101
146 144 97
151 149 100
149 147 98
160 158 106
145 143 95
151 149 100
155 153 102
152 150 100
150 148 99
150 148 99
149 147 98
158 155 104
152 150 100
152 149 99
158 156 104
157 155 103
145 142 95
148 145 97
151 149 99
157 154 102
156 154 103
151 149 99
153 151 101
154 152 101
146 143 94
153 151 101
152 150 100
154 151 100
158 156 104
156 153 100
155 153 101
151 147 96
145 143 95
156 153 102
154 150 99
161 158 103
154 151 100
151 148 97
151 149 97
148 146 97
149 147 98
156 151 99
148 145 95
138 135 85
147 144 93
158 154 101
148 145 96
152 149 98
143 141 93
147 144 93
143 141 92
146 143 94
143 141 91
148 145 93
149 145 94
149 145 95
153 149 97
138 135 89
147 144 94
151 147 95
147 143 90
137 134 86
139 136 87
155 150 97
142 138 88
143 139 91
142 138 88
149 145 95
151 148 91
126 123 78
145 142 90
143 139 89
141 138 88
129 125 79
145 141 87
147 143 91
143 140 88
168 187 212
159 178 202
169 187 212
165 185 211
165 185 211
171 191 218
172 191 218
171 192 219
173 194 223
172 193 220
174 195 223
174 194 221
173 195 224
177 199 228
175 197 226
176 199 228
176 198 228
175 198 228
177 199 228
175 198 228
175 198 228
175 198 228
174 198 228
175 198 228
175 198 228
174 197 228
173 197 228
174 197 228
173 197 228
173 197 228
173 197 228
173 197 228
172 197 228
172 196 228
171 196 228
171 196 228
171 196 228
170 196 228
171 196 228
171 196 228
170 195 228
170 195 228
169 195 228
169 195 228
169 195 228
169 195 228
168 195 228
169 195 228
168 195 228
167 194 228
168 194 228
167 194 228
167 194 228
167 194 228
167 194 228
167 194 228
167 194 228
166 194 228
166 193 228
166 193 228
167 194 228
166 193 228
166 193 228
166 193 228
165 193 228
165 193 228
165 193 228
165 193 228
165 193 228
165 193 228
165 193 228
165 193 228
165 193 228
164 192 228
164 193 228
164 192 228
164 192 228
164 192 228
164 193 228
164 193 228
164 193 228
164 193 228
164 192 228
164 192 228
164 192 228
164 192 228
164 193 228
164 193 228
165 193 228
164 193 228
165 193 228
165 193 228
165 193 228
165 193 228
166 193 228
165 193 228
166 193 228
166 194 228
167 194 228
167 194 228
166 192 226
163 189 221
163 189 221
160 184 216
164 189 221
155 178 208
157 180 209
154 175 203
151 171 198
147 167 192
137 154 175
178 196 221
203 223 249
208 228 255
208 228 255
208 228 255
208 228 255
208 228 255
208 228 255
208 228 255
208 228 255
208 228 255
208 228 255
208 228 255
208 228 255
208 228 255
208 228 255
208 228 255
208 228 255
208 228 255
207 228 255
207 228 255
207 228 255
207 228 255
207 228 255
207 228 255
207 228 255
207 228 255
207 228 255
207 228 255
207 228 255
207 228 255
207 228 255
207 228 255
207 228 255
207 228 255
207 227 255
207 227 255
207 227 255
207 227 255
207 227 255
207 227 255
206 227 255
206 227 255
206 227 255
206 227 255
206 227 255
206 227 255
206 227 255
206 227 255
206 227 255
206 227 255
206 227 255
206 227 255
206 227 255
206 227 255
206 227 255
206 227 255
206 227 255
206 227 255
206 227 255
206 227 255
206 227 255
206 227 255
206 227 255
206 227 255
206 227 255
206 227 255
206 227 255
206 227 255
206 227 255
206 227 255
206 227 255
206 227 255
206 227 255
205 227 255
205 227 255
205 227 255
205 227 255
204 226 255
194 215 248
167 190 231
145 169 217
127 152 206
112 139 199
101 129 190
71 105 180
62 99 177
61 98 179
63 99 177
62 99 178
62 99 180
62 99 176
80 112 185
90 120 190
110 137 196
134 159 210
144 168 217
166 189 227
189 211 244
205 227 255
205 227 255
205 227 255
205 227 255
205 227 255
206 227 255
206 227 255
206 227 255
206 227 255
206 227 255
206 227 255
206 227 255
206 227 255
206 227 255
206 227 255
206 227 255
206 227 255
206 227 255
206 227 255
206 227 255
206 227 255
206 227 255
206 227 255
206 227 255
206 227 255
206 227 255
206 227 255
206 227 255
206 227 255
206 227 255
206 227 255
206 227 255
206 227 255
206 227 255
206 227 255
206 227 255
206 227 255
206 227 255
207 227 255
207 227 255
207 227 255
207 227 255
207 227 255
207 227 255
207 228 255
207 228 255
207 228 255
207 228 255
207 228 255
207 228 255
207 228 255
207 228 255
207 228 255
207 228 255
207 228 255
207 228 255
207 228 255
207 228 255
207 228 255
207 228 255
208 228 255
208 228 255
208 228 255
208 228 255
208 228 255
208 228 255
208 228 255
208 228 255
208 228 255
208 228 255
208 228 255
208 228 255
208 228 255
208 228 255
208 228 255
208 228 255
208 228 255
208 228 254
171 182 188
149 152 129
130 128 85
118 117 79
136 134 89
128 127 86
139 138 93
145 143 95
125 124 83
140 138 93
136 135 91
142 141 94
141 141 95
147 146 98
155 154 103
145 145 97
147 146 98
141 140 94
152 150 101
142 141 95
146 145 97
149 148 99
148 147 99
147 145 97
140 138 93
153 151 101
150 148 99
149 147 99
146 144 96
154 153 103
149 148 99
146 145 98
157 155 103
151 150 101
150 148 99
147 145 97
150 148 99
154 151 101
152 150 101
149 147 98
154 151 101
157 155 103
154 152 101
145 143 96
144 142 95
158 156 105
154 153 103
153 151 101
147 144 96
157 155 103
153 150 100
155 152 101
153 150 100
152 150 100
158 155 103
153 151 100
155 152 100
155 152 99
151 147 97
157 154 102
158 154 102
146 143 95
151 147 97
154 151 99
154 151 100
150 147 98
153 150 99
152 150 99
152 148 97
152 148 97
151 148 97
157 154 101
153 150 98
146 144 93
152 148 97
146 143 93
151 148 97
150 146 94
154 152 100
159 154 99
149 146 95
144 141 94
153 150 98
152 148 95
151 148 97
151 148 96
144 141 92
153 150 95
160 156 99
145 142 93
154 150 97
147 144 93
146 142 90
148 144 93
147 144 93
152 148 97
139 136 90
142 139 90
140 136 87
141 138 86
142 138 89
146 142 90
142 138 89
143 140 90
142 138 86
149 144 90
142 138 87
137 134 83
139 136 87
146 142 89
134 130 83
144 139 87
170 190 216
165 183 208
173 193 220
172 192 219
170 190 217
173 194 221
178 199 227
177 197 225
177 198 227
177 199 227
175 198 227
175 197 226
178 200 228
175 198 227
176 199 228
177 199 228
177 199 228
175 198 228
174 198 228
174 198 228
175 198 228
174 198 228
175 198 228
174 198 228
175 198 228
174 197 228
173 197 228
174 197 228
174 198 228
172 197 228
172 197 228
171 196 228
172 196 228
172 196 228
172 196 228
172 196 228
171 196 228
170 196 228
171 196 228
171 196 228
170 195 228
170 196 228
170 195 228
170 195 228
169 195 228
168 195 228
169 195 228
168 195 228
169 195 228
168 194 228
167 194 228
168 194 228
167 194 228
167 194 228
168 194 228
167 194 228
166 194 228
167 194 228
166 194 228
167 194 228
166 194 228
166 194 228
165 193 228
166 193 228
165 193 228
166 193 228
165 193 228
165 193 228
165 193 228
165 193 228
165 193 228
164 192 228
164 193 228
164 193 228
164 192 228
164 192 228
164 192 228
164 192 228
164 192 228
164 192 228
164 192 228
164 192 228
164 192 228
164 192 228
164 192 228
164 193 228
164 192 228
164 192 228
164 192 228
164 192 228
164 193 228
164 193 228
165 193 228
165 193 228
165 193 228
165 193 228
165 193 228
166 193 228
167 194 228
167 194 228
167 194 228
168 194 228
167 193 226
166 192 225
166 192 225
167 192 225
162 187 218
161 185 216
152 174 203
158 181 211
146 165 191
142 161 186
145 163 186
184 204 230
209 228 255
208 228 255
208 228 255
208 228 255
208 228 255
208 228 255
208 228 255
208 228 255
208 228 255
208 228 255
208 228 255
208 228 255
208 228 255
208 228 255
208 228 255
208 228 255
208 228 255
208 228 255
208 228 255
208 228 255
208 228 255
207 228 255
207 228 255
207 228 255
207 228 255
207 228 255
207 228 255
207 228 255
207 228 255
207 228 255
207 228 255
207 228 255
207 228 255
207 228 255
207 228 255
207 228 255
207 228 255
207 228 255
207 227 255
207 227 255
207 227 255
207 227 255
207 227 255
207 227 255
206 227 255
206 227 255
206 227 255
206 227 255
206 227 255
206 227 255
206 227 255
206 227 255
206 227 255
206 227 255
206 227 255
206 227 255
206 227 255
206 227 255
206 227 255
206 227 255
206 227 255
206 227 255
206 227 255
206 227 255
206 227 255
206 227 255
206 227 255
206 227 255
206 227 255
206 227 255
206 227 255
201 222 252
184 206 241
144 168 214
117 143 200
68 103 180
62 99 175
62 99 178
63 99 177
62 99 176
63 99 175
62 99 177
62 99 177
62 99 174
62 99 174
62 99 175
62 98 173
62 99 177
62 99 176
62 99 176
62 99 176
62 99 175
62 99 176
61 98 176
62 98 175
61 98 172
73 107 179
124 149 205
152 175 217
176 198 236
205 226 255
206 227 255
206 227 255
206 227 255
206 227 255
206 227 255
206 227 255
206 227 255
206 227 255
206 227 255
206 227 255
206 227 255
206 227 255
206 227 255
206 227 255
206 227 255
206 227 255
206 227 255
206 227 255
206 227 255
206 227 255
206 227 255
206 227 255
206 227 255
206 227 255
206 227 255
206 227 255
206 227 255
207 227 255
207 227 255
207 227 255
207 227 255
207 227 255
207 227 255
207 228 255
207 228 255
207 228 255
207 228 255
207 228 255
207 228 255
207 228 255
207 228 255
207 228 255
207 228 255
207 228 255
207 228 255
207 228 255
207 228 255
207 228 255
207 228 255
207 228 255
208 228 255
208 228 255
208 228 255
208 228 255
208 228 255
208 228 255
208 228 255
208 228 255
208 228 255
208 228 255
208 228 255
208 228 255
208 228 255
208 228 255
208 228 255
208 228 255
208 228 255
208 228 255
208 228 255
208 228 255
207 227 253
181 196 211
134 135 107
132 130 86
135 133 89
126 125 84
139 137 91
147 145 97
140 138 93
141 139 93
147 146 98
140 138 93
151 151 102
136 134 90
150 149 100
146 144 97
145 144 97
143 142 96
155 154 103
142 141 95
144 143 96
152 151 101
147 146 98
143 142 95
147 146 98
150 149 100
147 146 98
154 153 103
146 145 97
159 157 105
152 150 101
151 150 101
149 148 99
152 150 100
157 156 104
151 149 100
157 154 103
151 149 100
147 146 98
151 150 101
157 154 103
153 151 101
150 150 101
151 149 99
153 151 101
159 157 104
153 151 101
154 152 102
162 159 106
152 149 99
160 157 104
149 146 97
153 151 101
158 156 103
158 155 103
155 152 101
153 150 100
155 153 101
148 145 97
150 148 99
158 155 103
145 143 95
149 146 95
148 145 95
153 150 99
150 146 96
150 148 98
154 152 99
151 148 98
155 153 101
149 146 94
155 151 99
151 146 96
157 153 98
154 151 99
153 149 99
152 149 98
154 151 101
149 146 95
151 148 97
150 148 97
147 144 95
152 147 96
151 148 97
155 151 99
148 145 95
152 148 95
155 150 97
153 150 99
156 153 101
150 148 95
152 148 95
148 145 91
156 152 96
145 142 93
155 151 97
141 138 89
142 138 90
149 145 93
151 146 94
144 141 90
144 141 92
151 146 95
152 148 95
145 141 91
145 141 88
149 145 92
151 147 95
145 142 91
143 139 89
143 139 89
149 145 93
137 134 83
145 142 90
141 137 89
171 190 217
172 192 219
169 189 216
176 196 223
174 195 223
172 193 220
176 197 225
174 195 223
173 194 223
176 197 225
177 199 228
177 198 227
177 199 228
177 199 228
176 199 228
176 199 228
175 198 228
176 199 228
177 199 228
174 198 228
174 198 228
175 198 228
175 198 228
175 198 228
174 198 228
173 197 228
172 197 228
173 197 228
172 197 228
173 197 228
172 196 228
172 196 228
172 197 228
171 196 228
171 196 228
171 196 228
171 196 228
171 196 228
171 196 228
170 196 228
171 196 228
169 195 228
170 195 228
170 195 228
170 195 228
170 195 228
168 195 228
168 194 228
168 195 228
168 195 228
168 194 228
168 194 228
167 194 228
168 194 228
168 194 228
166 194 228
167 194 228
166 194 228
167 194 228
167 194 228
167 194 228
166 194 228
166 193 228
165 193 228
166 193 228
165 193 228
165 193 228
164 193 228
165 193 228
165 193 228
165 193 228
164 192 228
165 193 228
164 193 228
165 193 228
164 193 228
164 192 228
164 192 228
164 192 228
164 192 228
164 192 228
164 192 228
164 192 228
164 192 228
164 192 228
164 192 228
164 192 228
164 192 228
164 192 228
164 192 228
164 192 228
164 192 228
164 192 228
165 193 228
165 193 228
165 193 228
165 193 228
165 193 228
165 193 228
166 193 228
166 194 228
166 194 228
167 194 228
167 194 228
167 193 227
165 191 224
164 190 223
163 187 219
165 190 221
162 187 218
152 173 202
154 176 204
154 176 204
146 166 191
158 176 200
190 209 234
209 229 255
209 229 255
209 228 255
209 228 255
208 228 255
208 228 255
208 228 255
208 228 255
208 228 255
208 228 255
208 228 255
208 228 255
208 228 255
208 228 255
208 228 255
208 228 255
208 228 255
208 228 255
208 228 255
208 228 255
208 228 255
208 228 255
208 228 255
208 228 255
208 228 255
207 228 255
207 228 255
207 228 255
207 228 255
207 228 255
207 228 255
207 228 255
207 228 255
207 228 255
207 228 255
207 228 255
207 228 255
207 228 255
207 228 255
207 228 255
207 228 255
207 228 255
207 228 255
207 227 255
207 227 255
207 227 255
207 227 255
207 227 255
207 227 255
207 227 255
206 227 255
206 227 255
206 227 255
206 227 255
206 227 255
206 227 255
206 227 255
206 227 255
206 227 255
206 227 255
206 227 255
206 227 255
206 227 255
206 227 255
206 227 255
206 227 255
201 222 252
164 186 227
132 156 207
92 121 187
62 99 179
62 99 177
62 98 171
62 99 174
62 98 171
63 99 177
62 99 174
62 99 176
62 99 175
63 100 179
62 99 175
63 99 175
62 99 174
62 99 175
62 98 173
62 99 178
62 98 170
62 99 178
62 99 172
62 99 177
62 99 175
62 99 173
62 98 171
62 99 176
62 99 175
61 98 175
62 99 178
61 98 175
70 104 178
137 161 211
181 203 238
201 223 252
206 227 255
206 227 255
206 227 255
206 227 255
206 227 255
206 227 255
206 227 255
206 227 255
206 227 255
206 227 255
206 227 255
206 227 255
206 227 255
206 227 255
206 227 255
206 227 255
207 227 255
207 227 255
207 227 255
207 227 255
207 227 255
207 227 255
207 227 255
207 228 255
207 228 255
207 228 255
207 228 255
207 228 255
207 228 255
207 228 255
207 228 255
207 228 255
207 228 255
207 228 255
207 228 255
207 228 255
207 228 255
207 228 255
207 228 255
207 228 255
207 228 255
208 228 255
208 228 255
208 228 255
208 228 255
208 228 255
208 228 255
208 228 255
208 228 255
208 228 255
208 228 255
208 228 255
208 228 255
208 228 255
208 228 255
208 228 255
208 228 255
208 228 255
208 228 255
208 228 255
208 228 255
208 228 255
209 228 255
209 228 255
209 229 255
209 229 255
190 206 224
154 159 147
132 130 86
143 141 94
130 129 86
136 134 90
140 138 93
142 141 95
137 136 91
133 133 90
143 141 94
141 139 94
144 143 96
146 144 96
143 141 95
145 143 96
153 151 101
149 148 100
158 156 104
151 150 101
148 147 99
158 157 105
156 155 104
138 137 93
151 149 100
146 145 97
143 142 95
148 147 99
155 154 103
151 149 100
149 147 99
159 157 105
149 147 99
156 154 103
152 151 101
149 147 99
149 147 98
149 148 99
155 153 103
153 151 101
147 145 97
149 148 99
154 152 101
156 154 103
155 153 103
157 155 103
153 150 99
152 150 100
158 156 104
155 152 101
163 160 107
160 157 104
153 152 101
151 148 98
158 155 103
160 158 106
159 156 103
156 153 102
155 152 101
155 152 101
144 140 93
151 149 100
152 150 100
159 155 102
155 151 100
159 155 103
147 144 95
155 152 100
152 148 97
158 155 102
165 162 108
156 154 101
155 152 100
150 148 97
158 155 101
149 146 95
159 155 101
150 147 96
146 142 92
146 144 95
148 144 94
156 154 101
152 148 97
161 157 103
148 146 94
141 138 88
150 147 96
153 149 97
148 144 93
147 143 91
145 141 89
150 146 96
149 145 95
153 149 96
149 144 91
146 142 91
148 145 94
157 153 96
153 150 97
150 147 96
154 151 96
154 149 97
146 142 91
145 141 88
157 152 97
149 144 90
144 141 90
151 147 93
143 139 88
149 145 94
148 143 93
141 136 84
141 138 88
148 144 93
154 149 95
144 140 87
173 193 220
176 197 224
177 197 225
178 199 226
173 194 221
174 194 221
174 195 223
178 199 227
179 200 228
179 200 228
179 200 228
177 199 228
178 199 228
177 199 228
176 199 228
177 199 228
177 199 228
177 199 228
176 199 228
175 198 228
175 198 228
174 198 228
175 198 228
174 197 228
173 197 228
175 198 228
174 197 228
174 197 228
173 197 228
172 197 228
173 197 228
172 197 228
172 197 228
171 196 228
172 197 228
171 196 228
172 196 228
171 196 228
171 196 228
170 196 228
169 195 228
170 196 228
170 195 228
171 196 228
169 195 228
169 195 228
169 195 228
168 195 228
168 195 228
169 195 228
169 195 228
168 194 228
168 195 228
167 194 228
167 194 228
167 194 228
167 194 228
167 194 228
166 193 228
166 194 228
166 194 228
166 194 228
166 193 228
166 194 228
166 193 228
165 193 228
166 193 228
165 193 228
166 193 228
165 193 228
165 193 228
164 193 228
165 193 228
164 193 228
164 193 228
164 192 228
164 192 228
164 193 228
164 192 228
164 192 228
164 192 228
164 192 228
164 192 228
164 192 228
163 192 228
164 192 228
164 192 228
163 192 228
164 192 228
164 192 228
164 192 228
164 192 228
164 192 228
164 192 228
164 192 228
165 193 228
164 193 228
165 193 228
165 193 228
165 193 228
165 193 228
166 193 228
166 194 228
167 194 228
167 194 228
168 194 228
166 192 226
164 190 223
165 190 223
165 190 221
166 190 221
159 182 212
153 175 203
152 174 202
147 167 192
145 163 187
171 190 215
197 216 242
209 229 255
209 229 255
209 229 255
209 229 255
209 229 255
209 228 255
209 228 255
208 228 255
208 228 255
208 228 255
208 228 255
208 228 255
208 228 255
208 228 255
208 228 255
208 228 255
208 228 255
208 228 255
208 228 255
208 228 255
208 228 255
208 228 255
208 228 255
208 228 255
208 228 255
208 228 255
208 228 255
208 228 255
207 228 255
207 228 255
207 228 255
207 228 255
207 228 255
207 228 255
207 228 255
207 228 255
207 228 255
207 228 255
207 228 255
207 228 255
207 228 255
207 228 255
207 228 255
207 228 255
207 228 255
207 228 255
207 228 255
207 228 255
207 228 255
207 227 255
207 227 255
207 227 255
207 227 255
207 227 255
207 227 255
207 227 255
207 227 255
207 227 255
206 227 255
206 227 255
206 227 255
206 227 255
185 207 242
130 155 207
68 102 176
62 99 176
61 98 173
61 98 173
62 99 176
62 98 171
62 98 172
61 98 171
62 98 174
63 99 175
62 99 175
63 99 172
62 99 174
62 99 176
62 98 170
63 99 176
62 99 175
62 98 171
62 99 175
61 98 172
61 98 171
62 99 175
62 98 168
62 98 171
62 99 172
62 99 175
61 98 173
62 99 174
62 99 174
61 98 171
62 99 177
62 99 172
62 97 170
62 98 171
62 98 176
68 103 181
132 156 208
182 204 239
206 227 255
206 227 255
206 227 255
206 227 255
206 227 255
207 227 255
207 227 255
207 227 255
207 227 255
207 227 255
207 227 255
207 227 255
207 227 255
207 228 255
207 228 255
207 228 255
207 228 255
207 228 255
207 228 255
207 228 255
207 228 255
207 228 255
207 228 255
207 228 255
207 228 255
207 228 255
207 228 255
207 228 255
207 228 255
207 228 255
207 228 255
207 228 255
207 228 255
207 228 255
208 228 255
208 228 255
208 228 255
208 228 255
208 228 255
208 228 255
208 228 255
208 228 255
208 228 255
208 228 255
208 228 255
208 228 255
208 228 255
208 228 255
208 228 255
208 228 255
208 228 255
208 228 255
208 228 255
208 228 255
208 228 255
209 228 255
209 228 255
209 229 255
209 229 255
209 229 255
209 229 255
209 229 255
198 215 236
161 169 162
138 136 90
135 133 88
132 130 87
133 131 88
146 144 96
139 138 93
133 131 87
138 136 91
145 144 96
143 141 95
147 146 98
148 147 99
149 148 99
146 144 97
151 150 100
146 145 98
154 152 102
143 142 95
148 146 98
145 144 97
157 155 104
150 149 100
148 147 99
152 150 101
147 145 97
151 149 100
147 145 97
156 155 104
153 152 103
153 151 101
158 157 105
153 151 101
152 150 100
158 157 105
151 148 99
158 156 104
159 157 105
152 149 99
156 154 103
161 158 106
163 160 106
156 153 102
154 152 101
152 150 101
160 156 103
156 154 103
155 153 101
157 154 103
156 153 101
157 155 104
153 150 99
153 151 101
157 155 103
155 152 100
160 157 105
153 150 100
162 159 105
155 151 99
158 155 103
155 153 101
155 152 100
157 154 100
156 153 101
151 148 99
159 156 103
165 161 106
155 151 99
160 157 103
160 157 105
154 150 98
156 152 100
144 140 92
152 150 99
159 156 101
162 158 104
158 155 101
161 158 103
157 154 99
156 151 100
148 145 95
150 146 94
154 150 99
153 150 99
155 152 99
146 144 95
151 147 95
147 143 90
154 150 97
149 146 96
147 144 95
154 149 95
149 146 95
151 147 93
147 143 93
148 144 93
153 150 98
143 140 88
142 138 89
146 142 89
158 153 98
149 144 90
142 138 87
149 145 89
147 144 91
150 146 94
145 141 87
155 151 96
142 139 88
143 139 89
153 148 94
142 138 88
146 142 92
145 140 91
148 144 90
139 136 87
143 138 88
175 195 221
173 193 219
176 197 224
174 196 224
176 196 224
178 199 227
178 200 228
180 201 228
178 200 228
178 200 228
178 200 228
178 200 228
177 199 228
177 199 228
177 199 228
176 199 228
176 199 228
176 199 228
175 198 228
175 198 228
175 198 228
173 197 228
174 198 228
175 198 228
175 198 228
175 198 228
173 197 228
175 198 228
174 197 228
173 197 228
173 197 228
172 197 228
173 197 228
172 196 228
171 196 228
171 196 228
171 196 228
171 196 228
171 196 228
170 196 228
170 196 228
170 196 228
170 195 228
169 195 228
170 195 228
170 195 228
170 195 228
170 195 228
169 195 228
168 195 228
169 195 228
168 195 228
168 195 228
168 194 228
168 194 228
168 194 228
167 194 228
168 194 228
167 194 228
166 193 228
166 193 228
166 194 228
166 193 228
166 193 228
166 193 228
166 193 228
166 193 228
165 193 228
165 193 228
165 193 228
165 193 228
165 193 228
164 193 228
165 193 228
165 193 228
164 192 228
164 193 228
164 192 228
164 192 228
164 192 228
164 192 228
164 192 228
164 192 228
163 192 228
164 192 228
164 192 228
164 192 228
164 192 228
164 192 228
164 192 228
164 192 228
164 192 228
164 192 228
164 192 228
163 192 228
164 192 228
164 192 228
164 192 228
164 193 228
165 193 228
165 193 228
165 193 228
166 193 228
166 193 228
166 194 228
167 194 228
167 194 228
167 194 228
169 195 228
169 195 228
166 190 223
161 186 217
163 186 217
161 184 214
156 178 207
154 174 202
148 168 194
149 167 191
175 193 218
208 227 254
209 229 255
209 229 255
209 229 255
209 229 255
209 229 255
209 229 255
209 229 255
209 229 255
209 228 255
209 228 255
208 228 255
208 228 255
208 228 255
208 228 255
208 228 255
208 228 255
208 228 255
208 228 255
208 228 255
208 228 255
208 228 255
208 228 255
208 228 255
208 228 255
208 228 255
208 228 255
208 228 255
208 228 255
208 228 255
208 228 255
208 228 255
208 228 255
208 228 255
207 228 255
207 228 255
207 228 255
207 228 255
207 228 255
207 228 255
207 228 255
207 228 255
207 228 255
207 228 255
207 228 255
207 228 255
207 228 255
207 228 255
207 228 255
207 228 255
207 228 255
207 228 255
207 228 255
207 228 255
207 228 255
207 228 255
207 228 255
207 228 255
206 227 255
172 193 232
102 130 191
63 99 177
62 98 173
62 99 173
62 98 169
61 98 171
62 99 175
61 98 166
62 98 172
61 98 167
62 99 175
61 98 170
62 98 171
63 99 176
63 99 176
62 98 170
63 99 176
61 98 170
62 99 171
61 98 168
62 99 172
62 99 170
62 98 170
62 99 173
63 99 170
62 99 171
62 98 169
62 99 172
62 99 171
62 99 174
62 98 172
62 98 170
62 98 170
62 99 175
63 99 174
62 98 173
62 99 172
62 98 169
62 98 174
62 99 179
62 99 176
105 132 193
166 188 228
204 225 254
207 228 255
207 228 255
207 228 255
207 228 255
207 228 255
207 228 255
207 228 255
207 228 255
207 228 255
207 228 255
207 228 255
207 228 255
207 228 255
207 228 255
207 228 255
207 228 255
207 228 255
207 228 255
207 228 255
207 228 255
207 228 255
207 228 255
207 228 255
207 228 255
208 228 255
208 228 255
208 228 255
208 228 255
208 228 255
208 228 255
208 228 255
208 228 255
208 228 255
208 228 255
208 228 255
208 228 255
208 228 255
208 228 255
208 228 255
208 228 255
208 228 255
208 228 255
208 228 255
208 228 255
208 228 255
208 228 255
208 228 255
209 228 255
209 228 255
209 229 255
209 229 255
209 229 255
209 229 255
209 229 255
209 229 255
209 229 255
209 229 255
206 224 248
173 184 191
132 131 92
130 127 84
144 141 94
137 135 90
135 133 89
152 150 101
138 136 91
145 143 97
150 148 99
141 140 94
143 142 96
138 137 92
139 137 92
149 148 100
149 147 99
149 148 100
149 147 99
145 143 97
151 149 100
148 146 98
155 153 102
156 155 104
149 148 100
158 156 104
156 154 104
151 149 100
151 149 99
158 156 104
154 152 101
151 150 101
152 151 101
158 156 104
153 151 101
150 149 101
156 154 103
155 153 102
155 152 101
160 157 105
155 153 103
146 144 97
155 153 102
158 156 104
153 151 101
155 153 101
153 150 100
162 159 106
158 156 104
152 150 101
159 157 104
158 154 102
152 151 100
158 156 103
162 159 105
157 154 103
156 154 103
150 146 97
161 157 104
158 155 103
153 150 99
164 160 106
158 155 102
155 152 99
162 159 106
143 140 93
163 159 103
156 154 101
162 158 103
158 154 100
156 152 99
156 152 101
158 155 103
159 155 103
157 154 102
147 145 95
157 155 103
160 156 102
159 156 101
161 156 102
159 155 101
151 148 97
147 144 92
152 148 95
151 147 95
152 148 93
147 143 93
152 150 96
157 153 99
155 151 97
157 154 100
158 154 99
159 155 99
149 145 92
156 152 99
162 158 105
148 144 93
148 145 91
157 152 97
157 152 96
154 150 95
156 152 97
152 148 95
146 142 89
150 146 93
158 155 99
146 142 92
149 144 91
152 147 93
152 147 93
147 143 90
146 143 90
150 145 90
146 142 90
151 146 93
145 141 88
157 151 93
145 140 90
151 147 93
142 138 85
173 194 220
178 199 227
178 198 225
179 199 227
179 200 228
179 200 228
179 200 228
179 200 228
178 200 228
177 199 228
178 200 228
178 200 228
177 199 228
176 199 228
175 198 228
176 199 228
176 199 228
176 198 228
174 198 228
176 198 228
175 198 228
175 198 228
174 198 228
174 197 228
175 198 228
174 198 228
174 198 228
173 197 228
173 197 228
172 197 228
172 197 228
172 197 228
173 197 228
172 197 228
172 197 228
171 196 228
172 196 228
171 196 228
171 196 228
170 195 228
171 196 228
171 196 228
171 196 228
170 195 228
170 196 228
169 195 228
169 195 228
169 195 228
169 195 228
169 195 228
168 195 228
168 194 228
168 195 228
167 194 228
167 194 228
167 194 228
167 194 228
167 194 228
168 194 228
167 194 228
167 194 228
167 194 228
167 194 228
166 194 228
166 193 228
166 194 228
166 193 228
165 193 228
165 193 228
165 193 228
166 193 228
165 193 228
165 193 228
165 193 228
165 193 228
165 193 228
164 193 228
164 192 228
164 192 228
164 192 228
164 192 228
164 192 228
164 192 228
164 192 228
164 192 228
164 192 228
164 192 228
164 192 228
163 192 228
164 192 228
164 192 228
164 192 228
163 192 228
164 192 228
164 192 228
164 192 228
164 192 228
164 192 228
164 193 228
165 193 228
165 193 228
165 193 228
165 193 228
165 193 228
166 194 228
166 193 228
166 194 228
167 194 228
167 194 228
168 194 228
169 195 228
168 194 227
165 189 221
167 192 224
165 189 219
157 180 209
148 168 195
154 175 203
143 162 187
162 180 204
196 214 240
209 229 255
209 229 255
209 229 255
209 229 255
209 229 255
209 229 255
209 229 255
209 229 255
209 229 255
209 229 255
209 229 255
209 229 255
209 229 255
209 228 255
208 228 255
208 228 255
208 228 255
208 228 255
208 228 255
208 228 255
208 228 255
208 228 255
208 228 255
208 228 255
208 228 255
208 228 255
208 228 255
208 228 255
208 228 255
208 228 255
208 228 255
208 228 255
208 228 255
208 228 255
208 228 255
208 228 255
208 228 255
208 228 255
208 228 255
207 228 255
207 228 255
207 228 255
207 228 255
207 228 255
207 228 255
207 228 255
207 228 255
207 228 255
207 228 255
207 228 255
207 228 255
207 228 255
207 228 255
207 228 255
207 228 255
159 181 224
94 123 185
62 99 174
61 98 176
62 99 176
61 98 171
62 99 172
62 99 177
62 99 175
62 98 168
61 98 170
63 100 175
62 99 169
62 99 170
62 99 171
63 99 175
62 99 171
61 98 170
62 99 173
63 99 174
62 99 169
61 98 167
63 99 172
62 99 173
62 99 171
62 99 172
63 99 174
62 98 168
62 98 168
63 99 174
62 98 166
62 98 168
62 99 173
62 99 172
62 99 172
61 97 166
62 98 171
62 98 170
61 97 168
63 99 177
62 99 174
62 99 173
61 98 174
62 99 177
62 99 175
61 97 170
88 119 186
164 186 225
207 228 255
207 228 255
207 228 255
207 228 255
207 228 255
207 228 255
207 228 255
207 228 255
207 228 255
207 228 255
207 228 255
207 228 255
207 228 255
207 228 255
207 228 255
207 228 255
208 228 255
208 228 255
208 228 255
208 228 255
208 228 255
208 228 255
208 228 255
208 228 255
208 228 255
208 228 255
208 228 255
208 228 255
208 228 255
208 228 255
208 228 255
208 228 255
208 228 255
208 228 255
208 228 255
208 228 255
208 228 255
208 228 255
208 228 255
208 228 255
208 228 255
209 228 255
209 228 255
209 229 255
209 229 255
209 229 255
209 229 255
209 229 255
209 229 255
209 229 255
209 229 255
209 229 255
209 229 255
209 229 255
209 229 255
195 211 231
153 157 142
127 125 84
131 129 86
136 134 90
140 138 93
137 135 90
144 143 96
144 143 96
139 138 92
150 148 99
143 142 96
149 146 98
154 152 102
149 147 98
150 149 101
148 148 99
142 141 95
144 143 97
148 147 98
144 143 96
151 150 101
149 147 99
152 151 101
145 144 97
150 148 99
155 154 103
152 150 101
159 157 105
157 155 104
156 154 103
155 152 101
157 155 104
154 152 102
151 149 100
160 157 105
156 153 102
159 157 104
158 156 104
163 160 106
156 155 104
163 160 107
158 156 104
159 156 104
153 151 101
159 156 104
160 157 104
153 151 101
162 159 106
157 154 103
155 151 100
158 154 102
161 158 105
158 155 103
159 156 103
161 157 104
150 148 99
148 146 97
164 160 106
163 160 106
158 155 102
164 160 106
163 160 106
157 155 102
165 162 107
157 154 103
147 144 95
158 155 102
161 157 104
155 152 101
157 154 101
161 157 104
163 158 103
165 160 104
159 155 101
161 157 104
151 147 95
158 154 103
154 152 99
153 150 97
162 158 103
152 148 97
162 158 102
159 155 101
154 150 95
158 154 100
158 155 101
152 149 95
159 155 99
159 155 98
163 158 102
156 151 96
163 158 101
144 140 91
142 139 89
161 156 99
160 157 101
148 145 93
149 146 95
156 152 96
158 153 100
154 149 96
158 153 97
153 149 96
153 148 95
154 149 93
143 139 87
151 147 95
145 141 87
156 151 98
154 151 93
149 145 92
151 147 90
158 152 93
143 139 87
148 144 93
143 139 89
143 139 87
150 145 93
152 147 92
143 139 90
180 200 227
181 201 228
181 201 228
179 200 228
180 201 228
179 200 228
180 201 228
179 200 228
179 200 228
179 200 228
177 199 228
178 200 228
176 199 228
177 199 228
175 198 228
177 199 228
176 199 228
177 199 228
177 199 228
176 199 228
175 198 228
175 198 228
175 198 228
174 197 228
174 198 228
174 197 228
172 197 228
174 198 228
173 197 228
173 197 228
173 197 228
173 197 228
173 197 228
172 197 228
172 196 228
172 196 228
173 197 228
171 196 228
171 196 228
171 196 228
170 196 228
170 196 228
170 196 228
170 196 228
170 196 228
170 195 228
169 195 228
169 195 228
169 195 228
168 194 228
169 195 228
168 195 228
168 195 228
169 195 228
168 194 228
168 195 228
168 194 228
168 194 228
167 194 228
167 194 228
167 194 228
167 194 228
167 194 228
166 194 228
166 194 228
166 194 228
166 193 228
166 193 228
165 193 228
165 193 228
165 193 228
165 193 228
165 193 228
165 193 228
165 193 228
164 193 228
164 193 228
164 193 228
164 193 228
164 192 228
164 192 228
164 192 228
164 193 228
164 192 228
164 192 228
164 192 228
164 192 228
164 192 228
164 192 228
164 192 228
163 192 228
164 192 228
164 192 228
164 192 228
164 192 228
164 192 228
164 192 228
164 192 228
164 192 228
164 193 228
164 192 228
165 193 228
165 193 228
165 193 228
166 193 228
166 193 228
166 193 228
167 194 228
167 194 228
167 194 228
168 195 228
168 195 228
169 195 228
168 194 227
167 192 224
166 189 220
159 182 212
163 185 214
154 175 202
151 172 198
148 166 190
176 194 218
209 229 255
209 229 255
209 229 255
209 229 255
209 229 255
209 229 255
209 229 255
209 229 255
209 229 255
209 229 255
209 229 255
209 229 255
209 229 255
209 229 255
209 229 255
209 229 255
209 229 255
209 229 255
209 228 255
208 228 255
208 228 255
208 228 255
208 228 255
208 228 255
208 228 255
208 228 255
208 228 255
208 228 255
208 228 255
208 228 255
208 228 255
208 228 255
208 228 255
208 228 255
208 228 255
208 228 255
208 228 255
208 228 255
208 228 255
208 228 255
208 228 255
208 228 255
208 228 255
208 228 255
208 228 255
208 228 255
207 228 255
207 228 255
207 228 255
207 228 255
207 228 255
207 228 255
179 200 236
94 122 185
62 98 176
62 99 174
62 98 171
61 97 171
62 99 171
62 99 174
63 100 174
62 99 170
62 98 170
62 98 172
62 99 175
62 98 168
61 98 167
62 98 172
61 98 167
62 98 171
62 99 169
62 98 167
62 98 165
62 98 171
62 99 175
62 98 173
62 98 167
62 98 168
63 99 168
62 98 170
62 98 163
62 99 172
62 99 171
62 99 171
62 99 171
61 98 165
62 98 170
63 99 168
63 99 169
62 98 169
61 98 165
61 98 170
62 98 172
61 98 167
63 99 174
62 98 174
62 98 171
63 99 173
61 97 168
62 98 170
60 96 166
61 97 170
96 124 184
177 198 234
207 228 255
207 228 255
207 228 255
207 228 255
207 228 255
208 228 255
208 228 255
208 228 255
208 228 255
208 228 255
208 228 255
208 228 255
208 228 255
208 228 255
208 228 255
208 228 255
208 228 255
208 228 255
208 228 255
208 228 255
208 228 255
208 228 255
208 228 255
208 228 255
208 228 255
208 228 255
208 228 255
208 228 255
208 228 255
208 228 255
208 228 255
208 228 255
208 228 255
209 228 255
209 228 255
209 229 255
209 229 255
209 229 255
209 229 255
209 229 255
209 229 255
209 229 255
209 229 255
209 229 255
209 229 255
209 229 255
209 229 255
209 229 255
209 229 255
209 229 255
209 229 255
208 227 253
179 191 198
135 133 90
128 126 84
135 134 90
131 129 87
133 131 88
131 129 87
144 143 95
131 128 86
142 140 94
139 138 93
150 150 101
143 142 96
135 134 90
141 139 94
141 139 94
142 141 95
151 150 101
156 154 103
140 139 93
150 149 100
151 150 102
149 147 99
148 147 98
145 144 97
150 149 100
157 156 106
149 148 99
155 153 103
149 147 99
151 149 100
155 153 103
164 162 108
159 157 104
158 156 104
162 160 107
156 153 102
160 156 104
150 148 99
155 151 100
164 161 108
153 150 100
166 162 108
163 161 108
160 156 103
159 155 103
156 153 102
163 159 105
163 160 106
159 156 104
157 154 103
161 158 105
163 160 106
161 158 105
157 154 102
164 161 107
165 162 108
158 155 103
159 154 101
162 158 104
161 158 104
167 163 108
160 156 103
162 158 104
160 156 103
163 159 104
162 158 104
157 155 103
156 152 99
162 159 105
158 154 100
155 153 100
160 157 104
162 158 103
156 154 102
159 155 100
155 151 99
159 156 101
151 148 96
153 149 97
156 152 100
158 155 100
159 155 102
160 156 101
152 148 95
153 150 98
155 150 96
159 155 101
160 156 99
151 146 96
157 154 99
158 154 99
159 154 99
158 154 99
163 158 101
159 155 101
160 156 101
160 154 99
157 153 100
151 147 93
150 145 90
154 148 95
155 151 97
155 151 97
147 142 90
151 147 93
159 155 98
143 139 89
154 149 94
157 152 99
159 153 96
163 157 100
149 144 90
150 147 93
157 153 97
154 150 94
147 142 89
147 143 89
157 153 97
155 150 97
144 139 87
144 139 89
180 200 227
180 201 228
180 201 228
180 201 228
179 200 228
180 201 228
178 200 228
179 200 228
179 200 228
178 200 228
177 199 228
177 199 228
177 199 228
178 200 228
177 199 228
177 199 228
179 200 228
176 199 228
176 198 228
175 198 228
175 198 228
176 199 228
174 198 228
175 198 228
175 198 228
174 198 228
173 197 228
174 198 228
173 197 228
174 197 228
174 197 228
173 197 228
173 197 228
172 196 228
172 197 228
172 197 228
172 197 228
172 197 228
171 196 228
172 197 228
171 196 228
171 196 228
170 196 228
171 196 228
170 196 228
170 195 228
169 195 228
170 195 228
170 195 228
169 195 228
169 195 228
169 195 228
169 195 228
169 195 228
168 194 228
168 194 228
168 195 228
168 194 228
167 194 228
167 194 228
167 194 228
167 194 228
167 194 228
167 194 228
167 194 228
166 194 228
167 194 228
166 193 228
167 194 228
166 193 228
165 193 228
166 193 228
166 193 228
165 193 228
165 193 228
165 193 228
165 193 228
165 193 228
165 193 228
165 193 228
165 193 228
164 192 228
164 192 228
164 193 228
164 192 228
164 192 228
164 192 228
164 192 228
164 192 228
164 192 228
164 192 228
164 192 228
164 192 228
164 192 228
164 192 228
164 192 228
164 192 228
164 193 228
164 192 228
164 192 228
164 193 228
165 193 228
165 193 228
165 193 228
165 193 228
165 193 228
166 193 228
165 193 228
167 194 228
166 194 228
167 194 228
168 194 228
167 194 228
169 195 228
169 194 227
169 194 227
165 190 221
165 188 219
163 186 216
162 185 214
159 180 207
157 176 202
157 174 197
200 219 245
209 229 255
209 229 255
209 229 255
209 229 255
209 229 255
209 229 255
209 229 255
209 229 255
209 229 255
209 229 255
209 229 255
209 229 255
209 229 255
209 229 255
209 229 255
209 229 255
209 229 255
209 229 255
209 229 255
209 229 255
209 229 255
209 229 255
209 228 255
208 228 255
208 228 255
208 228 255
208 228 255
208 228 255
208 228 255
208 228 255
208 228 255
208 228 255
208 228 255
208 228 255
208 228 255
208 228 255
208 228 255
208 228 255
208 228 255
208 228 255
208 228 255
208 228 255
208 228 255
208 228 255
208 228 255
208 228 255
208 228 255
208 228 255
191 212 244
123 148 203
62 98 172
63 100 179
62 99 175
62 98 174
62 98 170
63 99 174
62 98 171
63 99 170
62 98 164
63 99 170
62 99 170
62 99 171
62 98 167
63 99 169
61 98 172
62 98 169
62 99 171
62 99 173
62 98 169
62 99 171
62 98 165
62 98 168
62 98 166
62 98 166
62 98 169
62 99 168
62 98 162
62 98 169
62 98 170
63 99 170
63 99 172
62 98 168
62 99 172
61 97 165
62 98 168
62 98 167
62 99 169
62 99 173
63 99 171
62 99 173
62 99 170
61 97 163
62 98 172
62 98 167
62 98 171
60 96 160
62 98 168
63 99 175
61 97 165
62 98 171
62 98 168
62 98 168
109 135 191
191 212 244
208 228 255
208 228 255
208 228 255
208 228 255
208 228 255
208 228 255
208 228 255
208 228 255
208 228 255
208 228 255
208 228 255
208 228 255
208 228 255
208 228 255
208 228 255
208 228 255
208 228 255
208 228 255
208 228 255
208 228 255
208 228 255
208 228 255
208 228 255
208 228 255
208 228 255
209 228 255
209 229 255
209 229 255
209 229 255
209 229 255
209 229 255
209 229 255
209 229 255
209 229 255
209 229 255
209 229 255
209 229 255
209 229 255
209 229 255
209 229 255
209 229 255
209 229 255
209 229 255
209 229 255
209 229 255
209 229 255
209 229 255
209 229 255
194 210 230
160 166 154
126 125 84
140 138 92
136 134 90
128 127 86
137 136 91
139 137 92
142 141 95
143 142 96
134 133 90
144 142 95
138 138 94
147 145 97
148 146 98
143 142 95
154 152 102
153 151 102
154 153 103
151 149 101
153 151 102
151 149 101
152 150 101
157 156 104
155 153 102
147 146 98
146 145 98
149 148 99
159 157 105
154 152 102
145 144 96
155 154 104
154 152 102
154 152 102
155 152 101
159 156 104
159 156 105
160 157 105
158 156 104
154 152 102
162 160 107
161 158 106
158 156 105
163 160 107
158 154 103
157 154 102
157 154 103
161 158 105
162 158 105
161 158 105
161 158 105
155 152 99
159 156 104
158 155 103
155 152 101
162 159 106
156 153 101
160 156 104
159 156 103
156 153 101
163 160 106
159 155 103
158 156 103
160 156 103
155 153 101
157 154 101
167 164 109
160 157 103
162 158 104
163 160 106
163 159 106
158 154 101
158 155 101
160 156 101
165 161 106
166 162 107
155 150 96
164 160 103
157 153 99
161 158 104
155 151 95
151 147 95
158 155 99
152 149 97
160 157 103
158 154 99
159 156 101
157 153 100
154 150 97
156 153 100
151 148 95
151 147 95
157 153 99
157 153 97
159 154 100
157 153 99
151 146 91
152 148 95
153 150 95
151 148 96
158 154 101
152 148 93
160 155 99
152 148 94
153 149 93
157 152 100
154 149 94
153 149 96
157 152 95
148 145 93
155 151 95
154 150 95
152 148 95
155 149 95
157 151 96
145 140 86
150 145 90
155 150 97
153 147 90
148 144 87
148 144 88
140 135 84
143 140 90
151 146 89
181 201 228
181 201 228
179 200 228
180 201 228
180 201 228
178 200 228
178 200 228
179 200 228
178 200 228
178 200 228
179 200 228
177 199 228
179 200 228
177 199 228
176 199 228
178 200 228
177 199 228
177 199 228
176 199 228
176 199 228
176 199 228
176 198 228
176 199 228
175 198 228
174 198 228
175 198 228
176 198 228
174 198 228
173 197 228
174 197 228
173 197 228
173 197 228
172 196 228
173 197 228
174 197 228
172 197 228
172 196 228
172 197 228
173 197 228
172 196 228
171 196 228
171 196 228
172 196 228
170 195 228
170 195 228
170 196 228
170 196 228
170 195 228
169 195 228
170 196 228
170 195 228
169 195 228
169 195 228
169 195 228
168 195 228
168 194 228
168 194 228
167 194 228
168 194 228
167 194 228
168 194 228
167 194 228
166 193 228
167 194 228
167 194 228
167 194 228
166 194 228
167 194 228
166 194 228
166 193 228
166 193 228
166 193 228
165 193 228
166 193 228
165 193 228
165 193 228
165 193 228
165 193 228
165 193 228
165 193 228
165 193 228
164 193 228
165 193 228
164 193 228
164 192 228
164 192 228
164 192 228
164 192 228
164 192 228
164 192 228
164 192 228
164 192 228
164 192 228
164 192 228
164 192 228
164 192 228
164 192 228
164 193 228
164 192 228
164 193 228
164 193 228
165 193 228
165 193 228
165 193 228
165 193 228
165 193 228
166 193 228
166 193 228
166 193 228
166 193 228
167 194 228
167 194 228
168 194 228
169 195 228
168 194 228
169 195 228
169 194 227
169 193 225
163 187 217
165 189 219
164 187 216
157 178 206
152 172 199
147 166 190
177 195 220
210 229 255
210 229 255
210 229 255
210 229 255
210 229 255
209 229 255
209 229 255
209 229 255
209 229 255
209 229 255
209 229 255
209 229 255
209 229 255
209 229 255
209 229 255
209 229 255
209 229 255
209 229 255
209 229 255
209 229 255
209 229 255
209 229 255
209 229 255
209 229 255
209 229 255
209 229 255
209 229 255
209 229 255
209 228 255
209 228 255
208 228 255
208 228 255
208 228 255
208 228 255
208 228 255
208 228 255
208 228 255
208 228 255
208 228 255
208 228 255
208 228 255
208 228 255
208 228 255
208 228 255
208 228 255
206 226 254
156 178 218
81 112 184
62 98 174
62 98 172
61 98 170
62 99 175
61 98 169
62 99 174
62 99 167
62 99 171
62 98 167
62 99 173
62 98 169
61 98 170
61 97 164
62 98 163
62 98 167
62 98 171
62 98 167
62 98 170
63 99 175
62 98 169
62 99 170
61 98 165
62 98 168
62 98 167
62 98 165
61 98 168
61 98 164
63 99 171
62 98 166
62 98 168
62 98 165
63 99 170
63 99 171
63 99 170
62 98 169
62 98 169
62 98 171
61 97 161
62 97 160
62 98 169
62 98 165
62 98 166
62 98 164
61 97 167
62 98 168
61 97 169
62 98 170
62 98 164
61 97 166
62 98 168
61 97 170
61 97 163
61 97 169
60 96 163
67 101 174
162 183 223
205 225 254
208 228 255
208 228 255
208 228 255
208 228 255
208 228 255
208 228 255
208 228 255
208 228 255
208 228 255
208 228 255
208 228 255
208 228 255
208 228 255
208 228 255
208 228 255
209 228 255
209 228 255
209 229 255
209 229 255
209 229 255
209 229 255
209 229 255
209 229 255
209 229 255
209 229 255
209 229 255
209 229 255
209 229 255
209 229 255
209 229 255
209 229 255
209 229 255
209 229 255
209 229 255
209 229 255
209 229 255
209 229 255
209 229 255
209 229 255
209 229 255
210 229 255
210 229 255
210 229 255
210 229 255
210 229 255
189 202 212
140 138 101
130 128 84
131 129 86
128 126 84
143 141 94
138 137 93
140 138 92
138 136 91
139 138 93
139 138 93
145 143 96
142 141 95
144 143 97
140 139 94
151 149 100
141 140 95
147 146 98
141 140 94
152 151 102
152 150 100
143 142 96
151 149 100
153 152 102
147 145 98
153 151 101
148 147 99
153 151 101
157 155 104
154 152 102
156 154 103
156 154 103
154 151 101
158 156 105
155 153 103
156 155 103
154 152 102
159 157 105
164 161 107
157 153 102
157 154 103
164 161 107
157 155 103
168 163 108
162 159 106
159 156 103
162 159 106
166 161 106
159 157 104
159 156 104
155 152 100
161 157 103
164 160 106
160 156 103
162 158 104
158 156 103
160 157 104
160 157 103
163 159 106
161 157 104
170 165 108
161 158 103
159 156 103
164 161 106
162 160 106
159 155 101
167 164 108
160 156 103
162 157 103
165 161 106
160 157 103
161 157 103
167 162 106
156 153 101
163 158 104
157 153 99
156 152 98
162 158 101
158 153 97
161 157 103
162 158 104
161 158 102
159 155 101
155 152 99
158 155 101
156 151 98
156 152 99
150 148 95
150 146 93
164 159 102
168 162 103
156 152 96
154 150 96
167 161 103
161 157 103
163 159 101
162 159 104
150 146 92
156 152 97
150 146 95
155 150 96
148 145 93
160 155 97
149 145 90
159 154 97
151 148 94
148 143 89
151 148 93
151 146 94
157 152 96
154 150 93
150 145 92
158 154 97
150 146 92
140 136 85
147 144 91
148 144 90
155 151 97
151 146 92
147 142 88
156 151 95
151 147 92
147 143 90
156 150 91
141 136 81
181 201 228
181 201 228
180 201 228
179 200 228
180 201 228
180 201 228
180 201 228
178 200 228
178 200 228
178 200 228
177 199 228
177 199 228
177 199 228
177 199 228
177 199 228
176 199 228
177 199 228
177 199 228
176 199 228
176 199 228
176 199 228
177 199 228
175 198 228
174 198 228
174 198 228
175 198 228
175 198 228
174 198 228
175 198 228
174 197 228
174 198 228
174 198 228
173 197 228
174 198 228
172 197 228
173 197 228
173 197 228
172 197 228
173 197 228
172 197 228
171 196 228
171 196 228
172 196 228
170 196 228
171 196 228
170 195 228
171 196 228
169 195 228
171 196 228
171 196 228
170 195 228
168 195 228
169 195 228
169 195 228
169 195 228
169 195 228
169 195 228
169 195 228
169 195 228
168 194 228
168 195 228
167 194 228
167 194 228
167 194 228
167 194 228
168 194 228
167 194 228
166 194 228
167 194 228
166 194 228
166 193 228
166 193 228
166 193 228
166 193 228
166 194 228
166 193 228
166 193 228
165 193 228
165 193 228
165 193 228
165 193 228
165 193 228
165 193 228
165 193 228
164 193 228
165 193 228
165 193 228
164 193 228
165 193 228
164 192 228
164 192 228
164 192 228
164 193 228
164 193 228
164 192 228
164 193 228
164 193 228
164 193 228
164 192 228
164 193 228
165 193 228
164 193 228
165 193 228
165 193 228
165 193 228
165 193 228
165 193 228
165 193 228
166 193 228
166 193 228
167 194 228
167 194 228
168 194 228
168 194 228
168 195 228
169 195 228
170 195 228
169 194 227
172 196 228
168 192 223
158 181 211
158 180 208
157 178 206
152 171 196
157 175 200
177 196 220
208 227 253
210 229 255
210 229 255
210 229 255
210 229 255
210 229 255
210 229 255
210 229 255
210 229 255
210 229 255
209 229 255
209 229 255
209 229 255
209 229 255
209 229 255
209 229 255
209 229 255
209 229 255
209 229 255
209 229 255
209 229 255
209 229 255
209 229 255
209 229 255
209 229 255
209 229 255
209 229 255
209 229 255
209 229 255
209 229 255
209 229 255
209 229 255
209 229 255
209 229 255
209 228 255
209 228 255
208 228 255
208 228 255
208 228 255
208 228 255
208 228 255
208 228 255
208 228 255
197 217 247
106 132 191
61 97 168
62 99 174
62 99 175
61 98 169
62 99 170
62 98 170
62 99 171
62 98 170
62 98 168
62 98 170
62 99 168
62 98 164
62 99 174
62 98 167
62 99 166
62 98 168
63 99 171
62 98 165
62 98 168
61 98 161
61 98 173
63 99 172
61 98 166
63 99 170
62 98 167
62 98 164
61 98 168
63 99 173
62 99 167
62 98 167
61 98 165
61 97 162
62 98 162
62 99 171
62 99 167
61 97 163
63 99 171
62 99 168
62 99 167
61 97 162
62 98 162
62 98 166
62 98 169
62 98 170
62 98 164
62 98 170
61 98 167
62 98 167
61 96 156
61 97 160
62 97 166
61 97 166
62 98 163
62 98 173
61 97 165
61 98 169
61 97 169
61 96 168
104 131 188
195 216 246
208 228 255
208 228 255
208 228 255
208 228 255
208 228 255
208 228 255
209 228 255
209 228 255
209 228 255
209 229 255
209 229 255
209 229 255
209 229 255
209 229 255
209 229 255
209 229 255
209 229 255
209 229 255
209 229 255
209 229 255
209 229 255
209 229 255
209 229 255
209 229 255
209 229 255
209 229 255
209 229 255
209 229 255
209 229 255
209 229 255
209 229 255
209 229 255
209 229 255
210 229 255
210 229 255
210 229 255
210 229 255
210 229 255
210 229 255
210 229 255
210 229 255
210 229 255
209 228 254
157 164 165
120 118 78
132 130 87
141 139 93
134 132 88
137 136 92
141 139 93
144 142 95
130 127 86
135 135 91
146 145 98
133 132 90
147 146 99
146 145 98
145 143 97
151 150 102
155 154 104
147 146 98
148 147 98
147 146 98
151 149 100
152 150 102
153 151 100
152 151 101
154 152 102
150 148 99
151 149 100
159 156 104
157 155 104
151 149 100
157 155 103
162 159 106
153 151 101
160 158 106
160 158 106
166 164 109
158 155 103
163 160 107
160 157 105
158 156 104
162 159 106
155 152 101
158 155 103
164 161 107
163 160 107
159 156 103
158 155 102
158 155 103
161 159 106
156 154 103
154 149 98
165 161 106
156 153 102
160 157 104
162 159 104
163 159 104
164 161 106
169 165 109
159 156 103
168 163 108
163 159 105
162 158 105
168 164 109
162 158 104
165 160 104
158 154 101
162 158 103
160 156 101
161 159 104
163 158 102
153 150 97
161 156 101
158 154 101
157 153 99
155 153 101
172 166 106
158 155 101
164 161 104
162 157 103
164 160 104
163 159 103
159 154 100
160 156 100
162 157 102
161 158 103
160 157 101
151 148 96
156 152 97
156 153 98
160 155 100
159 155 99
151 148 96
160 156 101
153 149 97
158 154 98
160 155 99
152 148 95
162 157 99
166 161 103
157 152 96
153 148 93
149 145 94
147 143 87
149 146 94
161 157 99
161 156 102
152 149 96
155 150 95
162 157 97
156 152 96
155 151 95
154 148 92
142 138 89
149 145 90
162 157 99
151 147 90
153 149 94
147 143 88
150 146 93
148 144 88
144 140 87
149 144 90
151 147 90
144 140 88
154 149 93
148 143 87
180 201 228
180 201 228
180 201 228
180 201 228
181 201 228
179 200 228
178 200 228
179 200 228
178 200 228
178 200 228
179 200 228
180 201 228
177 199 228
178 200 228
179 200 228
177 199 228
177 199 228
177 199 228
177 199 228
177 199 228
175 198 228
176 199 228
175 198 228
175 198 228
175 198 228
176 199 228
175 198 228
174 198 228
176 199 228
175 198 228
175 198 228
173 197 228
174 198 228
174 197 228
174 197 228
173 197 228
173 197 228
172 197 228
172 196 228
172 197 228
172 197 228
172 197 228
172 197 228
171 196 228
172 196 228
171 196 228
171 196 228
171 196 228
171 196 228
170 196 228
171 196 228
170 195 228
170 196 228
169 195 228
170 195 228
170 195 228
169 195 228
169 195 228
169 195 228
168 195 228
169 195 228
168 194 228
168 195 228
167 194 228
168 194 228
168 195 228
167 194 228
167 194 228
168 194 228
166 193 228
167 194 228
167 194 228
166 194 228
167 194 228
166 194 228
166 194 228
166 193 228
166 193 228
165 193 228
166 193 228
166 193 228
166 193 228
165 193 228
165 193 228
165 193 228
165 193 228
165 193 228
165 193 228
165 193 228
164 192 228
165 193 228
165 193 228
164 193 228
165 193 228
164 193 228
164 193 228
164 193 228
165 193 228
165 193 228
165 193 228
164 193 228
165 193 228
165 193 228
165 193 228
165 193 228
165 193 228
166 193 228
165 193 228
166 194 228
166 194 228
166 194 228
167 194 228
167 194 228
168 194 228
168 195 228
169 195 228
168 195 228
170 195 228
170 196 228
171 196 228
170 195 226
164 187 217
162 185 214
156 178 206
155 176 203
147 165 190
163 181 206
204 223 248
210 229 255
210 229 255
210 229 255
210 229 255
210 229 255
210 229 255
210 229 255
210 229 255
210 229 255
210 229 255
210 229 255
210 229 255
210 229 255
210 229 255
209 229 255
209 229 255
209 229 255
209 229 255
209 229 255
209 229 255
209 229 255
209 229 255
209 229 255
209 229 255
209 229 255
209 229 255
209 229 255
209 229 255
209 229 255
209 229 255
209 229 255
209 229 255
209 229 255
209 229 255
209 229 255
209 229 255
209 229 255
209 229 255
209 229 255
209 229 255
188 208 242
73 106 175
60 97 167
62 98 172
61 97 169
62 98 173
63 99 172
61 98 167
62 99 175
62 98 171
61 97 163
62 98 168
62 98 169
62 98 169
62 98 167
62 99 169
62 98 168
62 98 166
62 98 169
61 97 166
61 97 166
61 97 162
63 99 171
62 99 164
62 98 166
62 98 162
61 97 160
61 98 166
63 99 171
62 99 169
62 98 167
62 99 166
62 97 165
62 98 164
63 99 169
62 98 168
62 98 163
62 99 170
63 99 174
62 98 162
62 98 168
62 98 168
62 99 169
62 98 165
63 99 173
61 96 160
61 98 165
61 97 165
62 98 170
61 97 163
62 98 170
61 97 164
62 99 171
61 97 166
62 97 166
62 97 167
62 99 171
61 97 166
60 95 170
61 97 168
62 97 165
61 97 166
67 101 172
186 207 240
209 229 255
209 229 255
209 229 255
209 229 255
209 229 255
209 229 255
209 229 255
209 229 255
209 229 255
209 229 255
209 229 255
209 229 255
209 229 255
209 229 255
209 229 255
209 229 255
209 229 255
209 229 255
209 229 255
209 229 255
209 229 255
209 229 255
209 229 255
209 229 255
209 229 255
209 229 255
210 229 255
210 229 255
210 229 255
210 229 255
210 229 255
210 229 255
210 229 255
210 229 255
210 229 255
210 229 255
210 229 255
210 229 255
210 229 255
210 229 255
200 218 243
153 158 145
134 133 88
133 131 87
132 130 86
135 134 90
139 138 92
138 137 92
148 146 98
140 138 92
137 135 91
144 143 96
141 140 94
139 138 93
149 147 99
153 151 101
135 134 91
150 148 99
149 149 100
152 150 102
146 145 98
149 148 99
156 154 103
151 149 100
152 150 101
151 149 100
148 146 98
153 152 103
156 153 102
155 154 104
159 157 105
155 152 102
158 156 105
154 152 102
162 160 106
153 151 102
160 158 106
159 157 105
164 161 108
155 152 101
167 164 109
161 158 104
165 162 107
162 159 105
157 154 103
166 162 108
164 161 108
164 160 106
169 166 110
165 161 107
157 154 102
162 159 105
167 165 110
165 162 107
170 166 110
163 158 104
162 159 105
162 158 104
170 165 109
162 158 105
159 155 101
167 162 106
156 153 100
161 158 104
162 158 104
160 157 104
163 158 103
160 157 102
162 157 101
158 154 101
162 158 104
163 159 104
163 160 104
167 162 104
160 156 102
164 160 104
160 156 100
156 152 96
158 155 101
162 158 103
164 160 102
161 157 101
163 158 104
161 157 102
158 153 99
166 162 105
158 155 102
161 156 101
164 160 104
160 155 97
153 149 96
153 150 96
161 158 99
160 155 101
162 156 99
148 144 93
156 152 96
156 152 99
155 151 97
157 153 99
170 164 103
154 150 96
155 151 97
160 156 99
146 142 90
152 148 93
159 155 94
153 149 95
157 153 96
160 156 98
150 145 90
160 154 97
154 149 94
157 153 98
156 151 95
148 144 93
141 138 87
151 146 89
151 146 92
152 148 93
146 142 85
155 150 95
147 142 85
150 146 93
145 141 91
141 138 84
154 150 93
155 151 95
182 202 228
179 200 228
180 201 228
181 201 228
180 201 228
179 200 228
180 201 228
180 201 228
178 200 228
179 200 228
179 200 228
179 200 228
179 200 228
177 199 228
178 200 228
176 199 228
176 199 228
176 199 228
179 200 228
177 199 228
177 199 228
176 199 228
177 199 228
176 199 228
177 199 228
176 199 228
176 198 228
175 198 228
173 197 228
175 198 228
174 198 228
173 197 228
174 198 228
174 198 228
173 197 228
173 197 228
173 197 228
174 198 228
173 197 228
173 197 228
173 197 228
171 196 228
171 196 228
172 197 228
172 196 228
172 196 228
172 196 228
171 196 228
171 196 228
170 195 228
171 196 228
170 196 228
171 196 228
170 196 228
170 196 228
169 195 228
169 195 228
169 195 228
169 195 228
169 195 228
170 195 228
168 195 228
170 195 228
169 195 228
168 194 228
168 195 228
168 194 228
168 194 228
167 194 228
167 194 228
167 194 228
168 194 228
167 194 228
167 194 228
167 194 228
167 194 228
166 194 228
166 194 228
166 193 228
165 193 228
166 193 228
166 193 228
165 193 228
165 193 228
165 193 228
165 193 228
165 193 228
165 193 228
165 193 228
165 193 228
164 193 228
164 193 228
165 193 228
165 193 228
164 193 228
164 193 228
164 193 228
165 193 228
165 193 228
165 193 228
165 193 228
166 193 228
165 193 228
165 193 228
166 193 228
165 193 228
166 193 228
165 193 228
166 193 228
166 193 228
166 193 228
166 194 228
167 194 228
167 194 228
168 194 228
168 195 228
170 195 228
169 195 228
170 195 228
172 197 228
171 196 228
168 192 224
165 188 218
164 187 217
159 180 208
156 176 203
150 169 194
154 172 195
196 214 239
210 229 255
210 229 255
210 229 255
210 229 255
210 229 255
210 229 255
210 229 255
210 229 255
210 229 255
210 229 255
210 229 255
210 229 255
210 229 255
210 229 255
210 229 255
210 229 255
210 229 255
210 229 255
210 229 255
210 229 255
209 229 255
209 229 255
209 229 255
209 229 255
209 229 255
209 229 255
209 229 255
209 229 255
209 229 255
209 229 255
209 229 255
209 229 255
209 229 255
209 229 255
209 229 255
209 229 255
209 229 255
209 229 255
151 173 216
64 100 170
61 98 171
62 99 175
62 98 171
61 97 169
61 98 169
62 98 171
62 98 161
62 98 173
62 98 168
62 99 171
63 99 170
62 98 168
63 99 168
63 99 170
62 99 169
62 98 163
62 98 164
61 97 160
62 98 160
62 98 168
62 98 163
61 98 163
62 99 170
62 98 166
62 99 168
62 98 165
62 98 164
62 99 167
62 98 164
63 99 167
63 99 169
61 98 164
63 99 167
63 99 167
61 97 155
62 97 156
61 97 161
62 98 162
62 99 173
62 98 163
62 98 166
63 99 166
61 97 163
61 97 166
62 98 169
61 97 161
61 97 162
61 97 163
62 98 168
62 98 168
61 97 165
62 98 169
61 96 158
63 100 176
62 98 164
61 97 165
60 95 160
62 97 164
62 98 166
60 96 165
60 96 168
62 97 172
65 99 166
144 167 211
209 229 255
209 229 255
209 229 255
209 229 255
209 229 255
209 229 255
209 229 255
209 229 255
209 229 255
209 229 255
209 229 255
209 229 255
209 229 255
209 229 255
209 229 255
209 229 255
209 229 255
209 229 255
210 229 255
210 229 255
210 229 255
210 229 255
210 229 255
210 229 255
210 229 255
210 229 255
210 229 255
210 229 255
210 229 255
210 229 255
210 229 255
210 229 255
210 229 255
210 229 255
210 229 255
210 229 255
210 229 255
210 229 255
196 211 226
121 120 90
135 132 87
127 125 84
132 130 87
137 134 90
138 136 92
141 140 95
149 147 99
145 144 98
149 147 99
133 132 90
142 141 95
144 142 96
149 147 99
157 155 103
142 141 96
146 145 98
148 148 100
151 149 101
153 151 101
157 155 103
147 145 98
144 144 97
159 157 106
151 150 101
161 159 107
153 152 102
159 157 105
162 159 106
153 152 103
156 153 102
159 156 104
161 159 106
157 155 104
161 158 105
158 155 103
155 152 101
166 163 108
167 164 109
164 161 107
154 151 100
156 153 102
162 159 106
164 160 106
161 157 104
158 154 103
161 157 104
157 154 101
161 157 103
164 162 106
163 160 106
160 156 103
163 159 104
167 164 109
167 163 108
163 161 106
164 159 103
169 165 108
167 163 106
167 163 107
162 159 102
165 161 104
166 162 107
158 153 101
160 157 103
161 158 103
161 157 103
165 162 106
163 159 103
164 161 104
163 159 102
163 160 103
163 159 105
155 151 99
167 163 105
167 163 104
156 152 100
154 151 97
156 153 101
170 165 106
162 158 103
163 158 103
157 154 101
163 157 99
167 162 104
161 156 100
155 150 95
163 159 102
161 157 102
159 154 97
159 156 99
162 158 100
156 151 96
159 155 99
159 155 99
160 155 99
148 145 92
160 155 99
155 151 95
164 159 102
156 152 95
157 154 97
158 154 97
157 153 95
154 151 95
150 146 94
158 154 97
151 148 95
159 154 98
154 148 94
158 154 97
159 154 100
149 145 92
160 156 97
154 150 94
154 149 93
154 149 93
152 148 91
146 141 88
159 154 93
154 150 92
144 140 86
145 142 88
142 139 86
151 146 89
151 146 90
150 145 89
146 141 87
182 202 228
181 201 228
181 202 228
180 201 228
180 201 228
180 201 228
179 200 228
180 201 228
180 201 228
179 200 228
179 200 228
177 199 228
179 200 228
178 200 228
179 200 228
177 199 228
177 199 228
179 200 228
178 199 228
177 199 228
176 199 228
178 200 228
176 199 228
176 199 228
176 199 228
176 198 228
175 198 228
176 199 228
175 198 228
176 198 228
176 198 228
175 198 228
174 198 228
175 198 228
175 198 228
175 198 228
174 197 228
174 198 228
173 197 228
174 197 228
173 197 228
173 197 228
173 197 228
173 197 228
172 197 228
171 196 228
171 196 228
172 197 228
171 196 228
171 196 228
172 196 228
171 196 228
171 196 228
170 196 228
171 196 228
169 195 228
171 196 228
171 196 228
170 195 228
169 195 228
170 196 228
170 195 228
169 195 228
169 195 228
169 195 228
169 195 228
169 195 228
168 195 228
168 195 228
168 194 228
168 194 228
168 194 228
167 194 228
168 194 228
167 194 228
167 194 228
166 193 228
166 193 228
166 194 228
166 193 228
166 194 228
167 194 228
166 193 228
166 194 228
166 193 228
167 194 228
165 193 228
166 193 228
165 193 228
166 193 228
166 193 228
165 193 228
165 193 228
165 193 228
165 193 228
165 193 228
165 193 228
165 193 228
165 193 228
165 193 228
165 193 228
165 193 228
165 193 228
166 193 228
166 193 228
166 193 228
165 193 228
166 193 228
166 193 228
166 194 228
166 193 228
167 194 228
167 194 228
168 194 228
167 194 228
168 195 228
168 195 228
169 195 228
169 195 228
170 196 228
171 196 228
172 197 228
172 197 228
167 190 220
165 187 217
158 179 207
155 176 203
149 168 192
150 168 192
185 202 226
210 230 255
210 230 255
210 230 255
210 229 255
210 229 255
210 229 255
210 229 255
210 229 255
210 229 255
210 229 255
210 229 255
210 229 255
210 229 255
210 229 255
210 229 255
210 229 255
210 229 255
210 229 255
210 229 255
210 229 255
210 229 255
210 229 255
210 229 255
210 229 255
210 229 255
210 229 255
210 229 255
209 229 255
209 229 255
209 229 255
209 229 255
209 229 255
209 229 255
209 229 255
209 229 255
202 222 251
120 145 198
61 97 172
61 97 171
62 98 173
62 98 168
62 98 168
61 98 165
60 96 160
61 97 163
61 98 168
63 98 169
62 99 169
64 100 175
61 97 163
62 98 169
62 98 166
61 97 163
62 98 167
62 98 169
61 97 164
62 98 168
63 99 171
62 98 164
62 98 164
62 98 161
62 98 165
63 99 168
62 98 160
62 98 165
62 98 165
61 97 157
61 97 156
61 98 168
62 99 164
61 97 152
61 97 157
62 98 164
62 98 163
61 97 158
62 98 167
62 98 168
62 98 163
62 98 163
62 98 166
61 97 160
62 98 166
62 98 167
62 99 170
62 98 171
62 98 166
62 97 160
61 96 165
61 97 163
63 99 170
62 98 166
61 98 164
63 98 169
61 96 167
61 97 162
61 96 161
60 96 165
60 96 162
62 97 165
62 98 168
61 96 161
61 97 166
61 97 164
139 161 205
208 228 255
209 229 255
209 229 255
209 229 255
209 229 255
209 229 255
209 229 255
209 229 255
209 229 255
210 229 255
210 229 255
210 229 255
210 229 255
210 229 255
210 229 255
210 229 255
210 229 255
210 229 255
210 229 255
210 229 255
210 229 255
210 229 255
210 229 255
210 229 255
210 229 255
210 229 255
210 229 255
210 229 255
210 229 255
210 229 255
210 229 255
210 229 255
210 229 255
210 230 255
210 230 255
210 230 255
177 188 194
135 133 90
138 135 89
132 129 85
132 130 86
133 131 88
138 137 91
149 147 99
143 143 97
145 144 97
143 142 96
146 144 97
148 146 97
148 146 98
142 141 95
142 140 94
151 149 100
149 147 99
146 144 97
148 147 99
153 151 102
152 151 103
151 150 101
149 148 100
158 157 106
153 151 102
155 153 103
154 152 101
155 152 102
158 156 104
158 155 103
157 156 104
157 155 104
162 159 106
164 161 108
158 155 104
159 156 104
162 159 105
160 157 105
158 155 103
157 154 103
160 158 105
158 156 104
167 163 108
158 155 102
161 159 106
169 166 110
164 161 107
167 163 108
164 160 106
167 165 110
163 159 104
167 163 107
166 161 106
165 161 104
165 161 106
165 161 106
165 163 109
165 162 107
165 161 106
161 157 103
164 161 106
158 154 102
169 165 108
166 162 106
168 164 108
162 159 106
168 163 105
159 155 101
167 163 107
165 161 103
161 158 99
161 157 103
167 163 107
160 156 101
166 162 106
164 161 105
168 162 104
162 158 101
160 156 103
158 154 99
161 157 100
166 161 105
162 157 101
161 156 101
160 155 99
167 162 104
159 156 101
157 153 100
162 158 97
163 158 103
157 153 99
161 157 98
163 159 101
159 156 97
165 160 102
165 159 101
162 158 100
160 155 99
161 156 101
153 149 95
159 155 97
163 158 99
155 151 97
157 152 96
165 161 100
155 151 94
150 145 89
156 151 92
164 158 100
155 150 95
155 150 95
154 149 93
166 162 104
151 147 93
155 150 96
153 148 92
153 148 93
160 155 97
146 141 88
150 145 89
150 146 89
149 145 90
151 147 88
151 146 90
153 149 90
151 146 91
154 150 90
153 148 91
144 140 86
181 201 228
182 202 228
181 201 228
181 201 228
181 201 228
179 201 228
180 201 228
179 200 228
180 201 228
179 200 228
179 200 228
178 200 228
179 200 228
178 200 228
179 200 228
179 200 228
177 199 228
177 199 228
177 199 228
176 199 228
177 199 228
177 199 228
177 199 228
176 199 228
176 199 228
177 199 228
177 199 228
177 199 228
175 198 228
174 198 228
175 198 228
176 199 228
175 198 228
175 198 228
174 198 228
175 198 228
175 198 228
174 198 228
173 197 228
173 197 228
174 198 228
174 198 228
173 197 228
173 197 228
171 196 228
172 197 228
172 196 228
173 197 228
171 196 228
172 197 228
172 197 228
172 197 228
172 196 228
171 196 228
171 196 228
170 196 228
170 196 228
170 195 228
170 195 228
171 196 228
170 195 228
170 195 228
170 195 228
169 195 228
168 195 228
169 195 228
168 195 228
168 194 228
169 195 228
169 195 228
168 194 228
168 194 228
168 194 228
167 194 228
167 194 228
167 194 228
167 194 228
167 194 228
167 194 228
167 194 228
167 194 228
167 194 228
166 194 228
166 194 228
166 194 228
167 194 228
166 193 228
166 193 228
167 194 228
166 193 228
165 193 228
166 193 228
165 193 228
165 193 228
166 193 228
165 193 228
165 193 228
165 193 228
166 194 228
166 193 228
165 193 228
165 193 228
165 193 228
165 193 228
166 194 228
166 193 228
166 193 228
167 194 228
167 194 228
166 193 228
167 194 228
167 194 228
168 194 228
168 194 228
167 194 228
168 194 228
169 195 228
169 195 228
169 195 228
169 195 228
170 196 228
170 196 228
172 196 228
173 197 228
168 192 223
168 191 221
165 187 217
154 174 200
159 179 206
139 156 178
184 201 225
211 230 255
211 230 255
211 230 255
211 230 255
211 230 255
211 230 255
210 230 255
210 230 255
210 229 255
210 229 255
210 229 255
210 229 255
210 229 255
210 229 255
210 229 255
210 229 255
210 229 255
210 229 255
210 229 255
210 229 255
210 229 255
210 229 255
210 229 255
210 229 255
210 229 255
210 229 255
210 229 255
210 229 255
210 229 255
210 229 255
210 229 255
210 229 255
210 229 255
202 221 250
112 138 191
62 98 172
61 98 173
61 97 168
62 98 170
62 98 171
61 97 163
61 97 164
61 97 163
61 97 164
61 97 162
62 98 168
62 98 165
62 99 171
61 98 165
62 99 173
61 98 164
62 99 170
62 98 164
61 97 160
62 98 161
61 98 161
63 99 165
62 98 161
62 98 166
62 99 168
62 99 163
62 99 168
61 98 164
62 98 166
62 99 167
62 98 164
61 98 160
61 97 157
61 97 158
62 98 163
62 98 161
61 96 158
62 98 165
62 98 166
62 98 168
61 97 156
62 98 167
62 98 165
62 99 170
62 98 165
62 98 164
62 98 166
61 97 156
61 98 164
63 99 166
62 98 170
61 97 159
62 98 166
63 98 171
62 98 169
61 97 161
61 97 164
62 97 165
61 96 163
61 97 167
61 96 156
61 97 160
61 97 161
61 96 162
61 96 164
60 95 162
60 95 162
62 97 166
106 131 182
200 219 248
210 229 255
210 229 255
210 229 255
210 229 255
210 229 255
210 229 255
210 229 255
210 229 255
210 229 255
210 229 255
210 229 255
210 229 255
210 229 255
210 229 255
210 229 255
210 229 255
210 229 255
210 229 255
210 229 255
210 229 255
210 229 255
210 229 255
210 229 255
210 229 255
210 230 255
210 230 255
210 230 255
211 230 255
211 230 255
211 230 255
211 230 255
211 230 255
211 230 255
181 191 193
134 132 90
130 129 87
133 130 86
128 127 86
127 125 84
135 134 90
131 131 89
131 131 89
142 141 95
136 136 93
141 140 95
134 133 90
137 135 91
147 146 98
143 143 97
149 147 99
139 139 94
155 153 103
144 143 96
143 142 95
148 147 100
153 150 100
149 149 101
154 152 102
154 152 102
158 156 105
156 153 101
151 149 100
154 152 102
152 150 101
155 152 102
158 156 105
156 154 103
157 155 104
160 157 105
157 154 102
160 157 105
154 151 100
164 160 106
156 154 103
161 158 105
155 152 101
159 156 103
162 159 104
161 158 105
156 154 103
167 164 108
165 161 107
160 157 104
168 164 107
167 164 109
162 158 104
169 165 107
162 159 105
163 160 104
171 167 108
168 164 108
166 162 105
162 158 101
163 159 104
166 162 106
168 165 107
162 158 104
168 163 106
167 161 104
168 163 106
167 162 105
167 163 106
168 163 104
172 167 109
165 161 102
166 161 103
168 162 106
169 164 108
163 159 103
160 158 99
166 161 104
162 158 101
153 149 96
164 160 103
159 156 99
165 161 103
166 161 102
166 161 103
165 160 101
160 156 99
159 155 99
163 159 101
165 160 103
165 161 103
162 158 101
161 157 99
161 156 100
160 155 99
158 153 98
163 159 102
163 159 100
167 162 105
158 153 97
159 155 99
158 153 99
163 159 99
163 159 99
157 152 92
159 156 98
162 157 100
157 152 95
154 150 92
156 152 99
154 149 93
158 153 95
152 148 93
147 142 90
158 152 94
168 164 104
160 155 99
155 149 93
170 163 104
146 142 87
152 147 89
155 150 92
160 155 97
149 144 88
153 148 92
150 145 87
151 146 90
154 148 93
142 137 87
143 139 88
149 145 90
182 202 228
181 201 228
183 202 228
181 201 228
180 201 228
180 201 228
180 201 228
180 201 228
181 201 228
180 201 228
179 200 228
179 200 228
180 201 228
178 200 228
179 200 228
178 200 228
177 199 228
179 200 228
178 200 228
178 200 228
178 200 228
178 200 228
178 200 228
177 199 228
177 199 228
177 199 228
177 199 228
176 199 228
177 199 228
175 198 228
177 199 228
176 199 228
175 198 228
175 198 228
175 198 228
175 198 228
174 198 228
174 198 228
175 198 228
174 197 228
173 197 228
173 197 228
173 197 228
172 197 228
173 197 228
172 197 228
172 196 228
172 197 228
172 196 228
172 197 228
171 196 228
172 197 228
171 196 228
172 197 228
171 196 228
171 196 228
171 196 228
171 196 228
171 196 228
170 196 228
170 196 228
170 196 228
171 196 228
169 195 228
169 195 228
169 195 228
169 195 228
169 195 228
169 195 228
169 195 228
169 195 228
169 195 228
168 195 228
168 194 228
167 194 228
167 194 228
167 194 228
168 194 228
167 194 228
167 194 228
168 195 228
167 194 228
167 194 228
167 194 228
167 194 228
167 194 228
166 194 228
167 194 228
166 194 228
166 194 228
166 194 228
167 194 228
167 194 228
167 194 228
166 193 228
166 193 228
166 194 228
166 194 228
166 194 228
166 194 228
166 194 228
167 194 228
166 194 228
166 193 228
166 194 228
166 194 228
166 194 228
166 194 228
166 194 228
167 194 228
167 194 228
167 194 228
168 194 228
168 194 228
168 194 228
168 194 228
169 195 228
169 195 228
169 195 228
168 195 228
170 196 228
170 196 228
171 196 228
171 196 228
172 196 227
173 196 227
164 186 216
163 184 212
169 191 219
164 185 212
144 161 184
174 191 214
211 230 255
211 230 255
211 230 255
211 230 255
211 230 255
211 230 255
211 230 255
211 230 255
211 230 255
211 230 255
211 230 255
211 230 255
210 230 255
210 230 255
210 230 255
210 229 255
210 229 255
210 229 255
210 229 255
210 229 255
210 229 255
210 229 255
210 229 255
210 229 255
210 229 255
210 229 255
210 229 255
210 229 255
210 229 255
210 229 255
210 229 255
201 221 249
112 137 192
61 96 167
60 96 167
61 98 169
61 97 163
60 96 155
62 98 173
62 98 166
61 97 163
61 97 164
61 97 165
62 98 166
62 98 164
62 98 169
62 98 168
62 98 162
61 97 163
62 98 167
63 99 165
62 98 163
62 98 162
62 98 162
62 98 163
63 99 169
62 98 159
61 97 161
62 98 162
61 97 157
62 99 170
63 99 165
61 97 161
61 97 160
63 99 166
62 97 153
62 98 163
61 97 155
61 97 158
62 99 166
63 99 162
62 98 164
63 99 171
62 97 162
61 97 159
62 98 163
62 98 165
62 98 164
62 97 160
61 98 159
62 98 166
62 98 166
62 98 168
61 97 162
62 98 164
61 97 163
61 96 159
62 98 163
62 98 167
61 96 158
62 98 163
62 98 166
61 97 162
60 96 156
61 96 162
61 96 161
62 98 166
61 97 164
61 96 157
59 93 155
60 95 159
60 94 157
61 97 168
100 126 182
203 222 250
210 229 255
210 229 255
210 229 255
210 229 255
210 229 255
210 229 255
210 229 255
210 229 255
210 229 255
210 229 255
210 229 255
210 229 255
210 229 255
210 229 255
210 229 255
210 229 255
210 230 255
210 230 255
210 230 255
211 230 255
211 230 255
211 230 255
211 230 255
211 230 255
211 230 255
211 230 255
211 230 255
211 230 255
211 230 255
211 230 255
211 230 255
156 165 168
121 119 79
139 137 91
139 136 91
138 137 92
132 131 88
148 146 98
130 129 89
142 140 94
141 140 95
141 141 96
136 135 91
145 144 97
142 140 95
155 153 102
142 141 95
144 142 96
140 138 93
154 152 102
152 151 102
156 154 103
147 146 99
148 147 100
147 146 98
161 160 107
158 156 104
155 153 103
149 148 100
152 151 101
157 155 103
156 153 101
158 155 103
161 159 106
157 155 103
157 154 102
158 156 104
158 155 103
161 158 105
162 158 106
157 155 104
165 161 107
160 157 104
159 157 104
164 160 105
163 160 105
165 161 105
162 159 105
165 162 106
162 158 104
163 159 104
165 161 106
158 154 101
171 167 110
165 161 106
168 164 108
170 166 107
164 160 104
162 157 101
160 157 102
163 159 103
165 162 107
162 159 103
171 166 108
171 166 106
167 163 106
166 161 104
170 166 108
165 161 103
162 158 103
166 162 105
161 156 98
162 158 103
169 164 106
164 161 104
168 163 106
168 164 104
166 162 107
164 160 103
167 163 105
163 159 103
161 158 101
162 158 101
165 161 103
167 162 103
159 154 98
162 158 101
159 156 100
162 158 103
166 161 100
163 158 101
161 156 99
168 163 102
168 163 101
167 163 103
161 157 98
164 159 101
162 158 100
158 154 99
158 154 97
162 158 103
164 160 102
166 161 103
156 152 97
155 151 96
161 155 97
162 157 99
154 150 91
160 155 98
154 150 91
158 154 97
161 156 97
163 157 97
164 159 99
159 154 94
160 155 97
159 154 97
157 152 93
163 157 97
159 153 94
158 152 88
157 153 96
162 157 93
156 152 95
156 152 91
152 148 93
158 154 95
152 148 89
157 152 92
147 143 90
145 140 84
153 148 93
151 146 91
182 202 228
183 202 228
182 202 228
180 201 228
181 201 228
180 201 228
180 201 228
182 202 228
180 201 228
180 201 228
181 201 228
179 200 228
178 200 228
180 201 228
179 200 228
179 200 228
180 201 228
178 200 228
178 200 228
179 200 228
179 200 228
177 199 228
178 200 228
178 200 228
176 199 228
179 200 228
177 199 228
176 199 228
178 200 228
177 199 228
177 199 228
176 199 228
177 199 228
175 198 228
176 199 228
175 198 228
175 198 228
175 198 228
176 198 228
175 198 228
175 198 228
175 198 228
175 198 228
174 198 228
173 197 228
173 197 228
174 198 228
172 197 228
173 197 228
172 196 228
172 197 228
173 197 228
173 197 228
172 196 228
171 196 228
171 196 228
172 196 228
171 196 228
172 196 228
171 196 228
172 196 228
171 196 228
171 196 228
169 195 228
170 196 228
170 196 228
170 196 228
170 195 228
170 195 228
170 195 228
169 195 228
169 195 228
169 195 228
169 195 228
169 195 228
169 195 228
168 194 228
168 194 228
168 195 228
168 194 228
169 195 228
167 194 228
168 194 228
167 194 228
168 195 228
167 194 228
167 194 228
167 194 228
168 194 228
167 194 228
168 194 228
167 194 228
167 194 228
167 194 228
166 194 228
167 194 228
167 194 228
166 194 228
167 194 228
167 194 228
167 194 228
167 194 228
166 194 228
166 193 228
166 193 228
167 194 228
166 194 228
167 194 228
167 194 228
167 194 228
167 194 228
167 194 228
168 194 228
168 194 228
167 194 228
168 195 228
168 195 228
168 194 228
169 195 228
169 195 228
170 195 228
170 196 228
171 196 228
172 197 228
173 197 228
174 197 228
173 196 227
169 192 221
164 185 213
168 189 217
152 171 196
147 164 187
177 194 218
210 229 254
211 230 255
211 230 255
211 230 255
211 230 255
211 230 255
211 230 255
211 230 255
211 230 255
211 230 255
211 230 255
211 230 255
211 230 255
211 230 255
211 230 255
211 230 255
211 230 255
211 230 255
211 230 255
210 230 255
210 230 255
210 230 255
210 230 255
210 229 255
210 229 255
210 229 255
210 229 255
210 229 255
210 229 255
200 220 248
91 119 176
60 97 170
60 97 169
61 97 167
62 97 164
61 97 165
62 98 168
61 97 163
61 97 165
61 97 164
62 98 172
62 98 163
61 97 160
62 98 165
61 97 161
60 96 159
62 98 168
61 97 162
62 98 166
62 99 170
62 98 164
62 98 165
61 97 163
61 97 165
61 96 161
61 98 164
62 98 165
62 98 164
61 97 156
63 99 165
61 97 152
63 99 166
62 98 162
63 99 170
63 99 164
61 98 161
62 98 162
62 97 158
63 99 162
61 96 148
61 97 155
62 98 166
61 97 163
61 98 162
61 97 160
61 98 166
61 97 158
61 97 162
62 98 161
62 98 161
62 98 162
61 97 159
63 99 168
61 95 154
62 98 163
61 98 164
61 97 156
63 98 165
61 97 159
59 94 152
61 96 160
61 96 159
60 96 160
62 97 160
62 97 162
61 97 164
62 97 167
60 96 165
60 95 162
60 94 154
61 97 161
61 96 166
61 95 160
94 122 182
201 221 249
210 229 255
210 229 255
210 229 255
210 229 255
210 229 255
210 229 255
210 230 255
210 230 255
210 230 255
210 230 255
211 230 255
211 230 255
211 230 255
211 230 255
211 230 255
211 230 255
211 230 255
211 230 255
211 230 255
211 230 255
211 230 255
211 230 255
211 230 255
211 230 255
211 230 255
211 230 255
211 230 255
211 230 255
211 230 255
163 170 168
131 128 85
126 124 83
132 129 86
128 127 86
137 135 91
147 145 97
131 130 89
122 120 81
143 142 97
140 139 94
142 140 95
142 140 95
140 139 94
144 142 97
147 145 98
143 141 95
146 146 99
145 144 98
142 141 97
144 143 97
154 152 103
149 148 101
147 146 99
157 155 104
150 149 101
156 154 104
156 154 103
154 152 102
162 159 106
162 160 107
159 156 102
162 159 105
157 154 102
161 158 106
160 157 105
162 159 106
164 162 107
162 159 104
159 156 103
156 153 102
166 162 107
160 157 104
159 157 105
166 161 107
154 151 100
159 156 103
160 156 102
164 161 105
162 159 103
168 165 109
163 160 105
167 163 106
161 158 104
166 163 107
168 164 108
162 158 103
165 161 106
169 165 107
160 155 101
172 167 109
169 165 106
170 166 109
169 164 107
163 158 101
162 158 103
171 165 107
171 166 108
165 160 101
169 163 104
168 163 105
164 159 101
169 165 108
166 161 103
166 161 104
169 164 104
165 160 101
157 153 99
168 163 104
165 160 103
162 156 101
163 159 103
165 160 102
162 157 101
170 165 106
161 156 101
167 163 106
165 161 103
160 155 98
164 160 103
158 155 97
164 160 103
164 159 100
159 155 101
164 160 101
163 158 98
165 160 101
163 159 101
164 160 104
161 157 100
154 150 92
161 156 100
158 154 93
168 163 101
161 156 99
159 156 97
160 155 97
154 150 94
160 154 97
158 154 95
162 157 99
153 148 94
148 143 90
156 153 95
159 154 92
155 149 90
154 149 92
159 154 96
148 143 86
161 157 96
160 154 94
157 153 96
160 155 95
161 156 97
155 151 93
154 150 95
158 153 95
145 141 87
161 156 98
150 145 90
153 148 95
162 157 96
163 156 96
182 202 228
182 202 228
181 201 228
181 202 228
182 202 228
181 201 228
180 201 228
180 201 228
180 201 228
181 201 228
180 201 228
179 200 228
180 201 228
180 201 228
180 201 228
179 200 228
179 200 228
179 200 228
179 200 228
179 200 228
179 201 228
178 200 228
177 199 228
178 200 228
176 199 228
177 199 228
177 199 228
178 200 228
177 199 228
178 200 228
176 199 228
176 198 228
176 199 228
177 199 228
175 198 228
176 199 228
175 198 228
174 198 228
175 198 228
173 197 228
175 198 228
175 198 228
175 198 228
175 198 228
174 197 228
174 198 228
173 197 228
174 197 228
174 198 228
173 197 228
173 197 228
172 197 228
173 197 228
172 197 228
172 197 228
172 197 228
172 197 228
173 197 228
171 196 228
172 197 228
172 196 228
170 195 228
171 196 228
170 196 228
170 196 228
171 196 228
170 196 228
170 196 228
171 196 228
170 196 228
170 195 228
170 196 228
170 195 228
170 195 228
170 195 228
170 195 228
169 195 228
168 195 228
168 195 228
169 195 228
168 195 228
168 194 228
168 195 228
168 195 228
168 194 228
168 194 228
167 194 228
167 194 228
167 194 228
167 194 228
167 194 228
168 194 228
167 194 228
168 194 228
167 194 228
167 194 228
166 194 228
167 194 228
167 194 228
167 194 228
167 194 228
167 194 228
167 194 228
167 194 228
167 194 228
167 194 228
167 194 228
167 194 228
167 194 228
167 194 228
168 194 228
168 195 228
167 194 228
168 195 228
168 195 228
168 195 228
168 194 228
169 195 228
170 195 228
169 195 228
169 195 228
172 196 228
172 196 228
170 196 228
173 197 228
172 196 228
173 197 228
174 197 227
173 196 226
170 192 221
166 186 213
165 184 211
152 170 194
177 194 217
211 230 255
211 230 255
211 230 255
211 230 255
211 230 255
211 230 255
211 230 255
211 230 255
211 230 255
211 230 255
211 230 255
211 230 255
211 230 255
211 230 255
211 230 255
211 230 255
211 230 255
211 230 255
211 230 255
211 230 255
211 230 255
211 230 255
211 230 255
211 230 255
211 230 255
211 230 255
211 230 255
209 228 254
101 127 184
61 97 170
61 98 172
61 97 164
60 96 165
61 97 162
62 98 167
61 97 158
62 98 166
62 98 169
62 99 170
62 98 160
61 97 161
62 98 165
62 98 169
61 97 156
62 98 165
62 98 166
61 97 158
61 97 163
62 97 161
62 98 163
61 97 162
61 98 166
61 97 158
61 97 154
61 97 160
61 97 155
62 97 158
61 97 158
62 98 164
62 98 165
62 98 161
62 98 164
62 98 160
62 98 163
62 98 160
62 98 164
61 97 160
62 98 163
61 97 160
63 99 168
62 98 165
62 98 161
61 96 157
62 98 158
63 99 168
62 98 164
62 98 159
61 97 162
62 98 165
62 97 161
61 97 161
61 96 156
62 98 162
61 96 155
62 98 163
61 97 161
62 97 162
61 96 158
61 96 162
61 97 166
60 96 156
62 98 167
61 96 161
62 97 163
60 95 157
61 96 154
62 98 165
60 95 159
61 96 161
61 95 159
61 96 159
61 95 156
60 94 161
116 139 187
206 225 252
211 230 255
211 230 255
211 230 255
211 230 255
211 230 255
211 230 255
211 230 255
211 230 255
211 230 255
211 230 255
211 230 255
211 230 255
211 230 255
211 230 255
211 230 255
211 230 255
211 230 255
211 230 255
211 230 255
211 230 255
211 230 255
211 230 255
211 230 255
211 230 255
211 230 255
211 230 255
211 230 255
165 172 169
134 131 86
131 129 86
132 130 87
126 127 87
138 135 89
138 136 92
136 135 92
138 137 93
144 143 97
143 142 95
139 138 93
140 140 95
139 138 94
135 134 91
145 144 98
137 136 91
140 140 95
150 148 99
147 145 97
143 143 97
151 148 99
148 146 98
143 143 97
154 152 102
152 149 101
153 151 101
155 152 101
153 151 101
152 150 101
152 150 100
158 156 102
160 156 104
162 161 108
157 154 102
158 155 103
166 163 107
161 158 106
162 159 107
160 157 104
167 165 110
166 162 107
164 161 105
164 160 106
167 164 109
163 160 106
158 154 101
165 162 107
165 162 107
164 161 106
164 159 104
171 166 108
167 163 106
169 164 106
171 167 110
166 163 107
166 161 104
168 163 105
162 159 105
171 167 109
163 158 103
168 164 107
171 167 109
168 163 105
167 163 107
166 161 105
171 166 109
167 163 105
161 156 100
163 159 103
168 164 106
166 161 104
170 166 106
164 160 103
163 159 103
168 163 101
167 162 103
163 159 103
168 163 107
164 160 101
163 158 102
167 162 103
168 163 106
161 156 99
164 161 104
166 161 99
166 160 103
162 157 100
163 158 100
166 162 101
168 163 104
161 156 99
164 159 100
162 157 96
169 164 104
159 154 98
157 152 97
169 163 103
165 160 103
165 161 101
157 153 96
161 157 97
158 154 94
161 157 100
158 154 97
166 162 101
163 159 100
163 157 92
160 154 99
161 155 97
159 153 96
167 161 97
159 154 97
162 157 98
157 152 95
158 153 98
155 150 95
159 153 94
152 147 90
151 148 93
160 155 94
164 158 97
155 150 95
154 150 95
156 151 90
161 155 91
153 149 92
152 147 91
155 151 96
148 143 90
152 147 88
145 140 84
147 142 90
156 152 93
180 201 228
182 202 228
183 202 228
181 202 228
182 202 228
182 202 228
181 201 228
182 202 228
182 202 228
182 202 228
179 200 228
180 201 228
180 201 228
181 201 228
180 201 228
180 201 228
179 200 228
180 201 228
179 200 228
178 200 228
180 201 228
178 200 228
178 200 228
180 201 228
177 199 228
179 200 228
178 200 228
178 200 228
176 199 228
177 199 228
177 199 228
177 199 228
177 199 228
177 199 228
176 199 228
176 199 228
175 198 228
177 199 228
175 198 228
175 198 228
176 199 228
174 198 228
175 198 228
175 198 228
174 198 228
174 198 228
175 198 228
173 197 228
173 197 228
174 198 228
173 197 228
174 197 228
173 197 228
173 197 228
173 197 228
173 197 228
172 197 228
172 197 228
174 197 228
173 197 228
172 196 228
172 197 228
173 197 228
172 196 228
172 196 228
171 196 228
171 196 228
170 196 228
171 196 228
170 196 228
170 196 228
171 196 228
171 196 228
169 195 228
169 195 228
169 195 228
170 196 228
170 195 228
170 195 228
170 195 228
170 195 228
170 195 228
168 195 228
169 195 228
168 195 228
169 195 228
169 195 228
168 195 228
169 195 228
169 195 228
168 194 228
168 194 228
168 194 228
168 194 228
168 195 228
168 195 228
167 194 228
168 194 228
168 194 228
167 194 228
168 194 228
168 194 228
167 194 228
168 194 228
168 194 228
168 194 228
168 194 228
167 194 228
168 194 228
168 194 228
168 194 228
168 194 228
168 195 228
168 195 228
169 195 228
169 195 228
169 195 228
170 195 228
169 195 228
169 195 228
170 195 228
171 196 228
171 196 228
170 196 228
172 196 228
172 197 228
173 197 228
173 197 228
174 196 226
171 193 223
168 189 217
163 182 208
160 180 206
156 175 199
181 199 222
212 230 255
212 230 255
212 230 255
212 230 255
212 230 255
211 230 255
211 230 255
211 230 255
211 230 255
211 230 255
211 230 255
211 230 255
211 230 255
211 230 255
211 230 255
211 230 255
211 230 255
211 230 255
211 230 255
211 230 255
211 230 255
211 230 255
211 230 255
211 230 255
211 230 255
210 229 255
116 141 196
61 97 169
61 97 168
60 96 166
60 95 162
60 96 161
61 97 161
62 97 164
62 98 161
61 97 164
61 96 156
61 98 162
62 98 169
61 97 164
62 98 168
61 97 162
61 97 161
61 97 159
61 97 161
62 98 158
62 98 163
61 97 154
61 97 157
61 97 160
61 97 158
61 96 155
61 98 161
62 98 164
61 97 160
61 97 159
62 98 156
62 98 162
62 98 161
62 98 160
62 98 159
62 98 161
62 97 157
61 97 161
62 98 161
63 99 163
62 98 162
61 97 156
62 98 159
61 97 164
62 98 163
63 98 164
62 98 163
62 97 164
61 96 155
61 97 157
62 98 161
61 97 159
61 97 164
61 96 155
62 98 164
61 97 161
61 97 159
61 97 164
62 97 165
61 96 160
62 97 163
62 97 161
61 96 160
62 98 165
61 96 162
61 96 161
61 96 157
62 97 162
61 96 154
61 96 158
60 95 156
62 98 166
61 96 156
61 96 165
61 96 161
61 96 160
60 95 161
107 131 182
209 228 254
211 230 255
211 230 255
211 230 255
211 230 255
211 230 255
211 230 255
211 230 255
211 230 255
211 230 255
211 230 255
211 230 255
211 230 255
211 230 255
211 230 255
211 230 255
211 230 255
211 230 255
211 230 255
211 230 255
211 230 255
211 230 255
212 230 255
212 230 255
212 230 255
212 230 255
172 180 179
137 134 88
131 129 84
136 135 90
125 123 82
130 128 88
131 130 88
139 138 92
128 128 88
135 134 91
137 136 92
137 138 96
135 133 90
149 148 100
146 144 98
138 137 93
143 141 94
143 142 97
146 145 98
150 148 101
146 144 96
155 153 103
152 151 101
156 154 104
145 144 98
161 158 104
144 143 96
155 154 103
159 157 105
155 153 103
158 155 104
159 156 104
154 152 101
155 153 102
154 151 101
158 155 102
163 160 105
164 161 106
149 147 98
160 157 104
165 161 107
164 160 105
157 153 101
163 159 103
160 157 103
164 160 107
166 163 108
167 163 107
164 161 106
167 164 108
162 159 103
171 167 108
168 164 108
166 163 106
165 161 105
166 162 105
164 160 105
171 167 106
163 159 103
166 161 104
169 166 106
167 163 106
169 164 107
170 165 106
166 162 104
164 160 103
164 160 101
173 167 109
166 161 101
168 162 103
169 164 104
159 155 99
167 162 102
164 160 103
170 165 106
162 158 101
166 161 104
168 164 108
167 162 103
165 161 103
164 159 101
159 153 97
164 159 103
170 165 102
172 166 104
163 158 99
168 163 104
167 162 103
164 158 100
158 155 95
168 163 104
163 158 100
164 158 102
163 160 99
163 158 101
161 157 99
165 160 99
170 164 104
161 156 102
165 159 100
168 162 104
164 159 99
165 160 101
159 155 95
162 156 97
159 155 98
167 162 104
156 152 96
165 159 103
165 159 99
160 156 94
154 150 93
157 152 91
169 164 104
161 157 97
159 155 97
154 149 93
164 159 95
159 154 95
152 148 93
152 147 88
154 149 88
155 150 93
155 150 93
157 151 90
154 148 90
149 144 88
155 150 91
151 147 90
159 154 95
158 154 97
150 146 90
157 151 93
150 144 88
150 146 90
184 203 228
181 201 228
182 202 228
182 202 228
181 202 228
182 202 228
182 202 228
183 202 228
183 202 228
180 201 228
180 201 228
180 201 228
180 201 228
181 201 228
180 201 228
180 201 228
180 201 228
179 200 228
181 201 228
180 201 228
180 201 228
179 200 228
180 201 228
179 200 228
179 200 228
179 200 228
179 200 228
178 200 228
177 199 228
176 199 228
178 200 228
177 199 228
178 200 228
176 199 228
178 200 228
176 199 228
178 200 228
176 199 228
175 198 228
177 199 228
175 198 228
175 198 228
176 198 228
176 199 228
174 198 228
176 199 228
175 198 228
174 198 228
174 197 228
174 198 228
174 198 228
175 198 228
174 197 228
173 197 228
174 197 228
174 197 228
174 198 228
173 197 228
172 197 228
173 197 228
173 197 228
173 197 228
173 197 228
172 196 228
172 197 228
172 196 228
171 196 228
172 196 228
171 196 228
172 197 228
171 196 228
171 196 228
171 196 228
170 196 228
171 196 228
171 196 228
170 195 228
170 196 228
170 195 228
170 196 228
170 195 228
170 196 228
170 195 228
170 195 228
169 195 228
169 195 228
170 195 228
169 195 228
169 195 228
169 195 228
169 195 228
168 195 228
169 195 228
169 195 228
169 195 228
169 195 228
168 194 228
168 194 228
168 194 228
168 195 228
168 195 228
168 195 228
168 194 228
168 195 228
168 194 228
169 195 228
168 195 228
169 195 228
168 194 228
168 195 228
168 194 228
168 194 228
168 195 228
169 195 228
169 195 228
170 196 228
169 195 228
170 195 228
170 195 228
169 195 228
170 196 228
171 196 228
170 196 228
172 197 228
171 196 228
172 197 228
173 197 228
174 197 228
174 198 228
172 195 225
174 196 225
173 194 223
167 187 214
161 180 204
153 171 194
183 200 223
212 230 255
212 230 255
212 230 255
212 230 255
212 230 255
212 230 255
212 230 255
212 230 255
212 230 255
212 230 255
212 230 255
211 230 255
211 230 255
211 230 255
211 230 255
211 230 255
211 230 255
211 230 255
211 230 255
211 230 255
211 230 255
211 230 255
211 230 255
211 230 255
134 156 201
60 95 165
61 97 165
60 96 164
61 97 167
61 97 162
60 96 164
60 96 155
61 96 157
61 96 158
62 98 166
62 98 165
62 98 164
62 98 168
62 98 163
63 98 164
62 98 166
61 97 158
62 97 157
61 96 154
61 97 163
61 97 162
62 98 165
62 98 155
61 97 158
62 98 152
61 97 155
62 98 160
62 98 159
62 98 159
61 97 154
62 98 157
61 96 160
61 97 160
63 99 166
63 99 165
62 98 164
61 97 157
62 97 159
61 97 152
61 97 156
62 97 152
61 97 155
62 98 162
62 99 167
61 97 154
62 98 157
62 97 156
62 98 158
61 96 151
62 98 160
62 98 164
62 98 161
61 96 161
62 97 155
61 97 159
62 98 162
61 96 155
61 96 155
61 97 154
62 97 160
61 97 162
60 96 157
61 97 165
62 98 161
62 97 162
62 97 159
61 96 152
62 97 163
62 97 158
60 95 154
60 96 165
61 96 159
60 94 153
61 96 162
61 96 163
60 94 156
61 96 163
60 94 161
137 158 201
211 230 255
211 230 255
211 230 255
211 230 255
211 230 255
211 230 255
211 230 255
211 230 255
211 230 255
211 230 255
211 230 255
211 230 255
212 230 255
212 230 255
212 230 255
212 230 255
212 230 255
212 230 255
212 230 255
212 230 255
212 230 255
212 230 255
212 230 255
212 230 255
175 184 187
129 127 84
130 129 85
125 124 83
126 125 85
136 135 92
134 133 91
136 135 91
138 138 95
144 143 98
132 132 91
138 138 93
142 142 96
137 137 93
152 151 101
144 144 98
138 137 93
143 142 97
144 143 96
146 145 98
146 144 96
148 145 96
142 141 96
152 150 101
152 150 100
149 148 100
154 153 101
150 149 100
153 151 100
156 153 102
155 153 103
163 159 105
154 151 100
152 150 99
162 159 105
160 158 105
156 153 99
165 162 106
160 157 104
161 158 104
162 159 103
163 161 106
165 162 108
165 161 105
167 164 108
168 164 107
173 169 111
168 164 108
166 162 106
165 162 107
169 165 108
174 169 109
167 163 106
165 161 104
169 164 106
165 161 104
169 164 104
172 167 107
163 158 103
164 161 104
166 161 104
169 165 107
168 164 108
167 163 108
168 165 107
170 165 107
167 162 104
171 166 106
165 160 101
171 166 108
166 162 104
161 157 99
168 163 104
167 163 106
167 162 100
166 161 104
164 159 102
163 159 102
169 164 104
162 158 99
169 163 103
164 160 99
168 162 101
164 159 101
168 163 102
167 161 102
165 160 101
167 163 103
165 161 101
164 159 100
163 158 99
169 164 102
166 161 100
170 165 104
163 158 98
162 157 97
167 162 101
161 156 95
165 159 97
165 158 99
166 160 103
163 159 98
167 161 98
164 159 101
163 157 96
158 154 98
163 157 99
162 156 97
163 158 95
163 158 96
160 154 92
158 154 96
148 145 90
159 154 93
160 155 96
161 156 97
158 153 94
166 160 96
155 149 93
159 154 95
155 151 93
169 163 99
161 157 100
158 153 93
166 159 97
154 149 92
159 154 90
157 152 92
155 149 88
162 156 97
159 154 93
153 148 90
154 149 93
157 152 93
156 151 95
157 151 91
183 203 228
182 202 228
183 202 228
181 201 228
182 202 228
182 202 228
182 202 228
182 202 228
181 202 228
182 202 228
181 201 228
181 201 228
182 202 228
180 201 228
180 201 228
181 201 228
180 201 228
181 201 228
180 201 228
182 202 228
179 200 228
180 201 228
179 200 228
180 201 228
180 201 228
180 201 228
178 200 228
178 200 228
178 200 228
178 200 228
177 199 228
177 199 228
177 199 228
177 199 228
177 199 228
178 200 228
178 199 228
177 199 228
178 200 228
177 199 228
177 199 228
176 199 228
176 199 228
176 199 228
176 199 228
175 198 228
175 198 228
176 198 228
175 198 228
175 198 228
175 198 228
175 198 228
174 198 228
174 197 228
174 197 228
173 197 228
174 198 228
174 198 228
174 198 228
175 198 228
173 197 228
173 197 228
173 197 228
173 197 228
173 197 228
172 197 228
173 197 228
173 197 228
173 197 228
172 196 228
172 197 228
172 197 228
171 196 228
171 196 228
172 197 228
171 196 228
170 195 228
171 196 228
170 196 228
171 196 228
170 195 228
169 195 228
170 195 228
170 196 228
170 195 228
171 196 228
170 195 228
169 195 228
169 195 228
169 195 228
170 195 228
169 195 228
169 195 228
168 195 228
169 195 228
169 195 228
169 195 228
169 195 228
169 195 228
169 195 228
169 195 228
168 195 228
169 195 228
169 195 228
169 195 228
169 195 228
169 195 228
169 195 228
169 195 228
169 195 228
169 195 228
169 195 228
169 195 228
169 195 228
170 195 228
170 195 228
170 196 228
170 195 228
170 196 228
170 196 228
171 196 228
171 196 228
171 196 228
171 196 228
172 197 228
173 197 228
174 197 228
174 198 228
175 198 228
175 198 228
174 197 226
172 194 223
165 185 212
168 188 216
159 178 202
140 156 177
185 201 224
212 230 255
212 230 255
212 230 255
212 230 255
212 230 255
212 230 255
212 230 255
212 230 255
212 230 255
212 230 255
212 230 255
212 230 255
212 230 255
212 230 255
212 230 255
212 230 255
212 230 255
212 230 255
212 230 255
212 230 255
211 230 255
211 230 255
180 199 233
59 94 163
60 96 169
62 97 166
61 97 164
61 97 167
61 96 156
61 96 161
61 96 156
60 95 157
61 96 161
61 96 149
61 97 160
61 97 157
61 96 159
61 96 160
60 96 152
61 97 162
61 97 152
62 97 154
61 97 159
61 96 159
62 97 162
62 98 164
61 97 161
62 98 159
61 97 159
60 96 151
62 98 161
60 96 152
62 98 164
62 98 161
62 99 167
62 98 162
62 98 164
62 98 158
62 98 160
61 97 156
62 98 158
62 98 161
61 96 151
62 98 160
61 95 147
62 97 157
61 97 160
62 98 160
62 98 161
62 97 162
62 98 161
62 98 159
62 97 159
62 98 161
60 95 150
61 96 157
60 96 153
61 96 153
59 94 151
61 97 159
62 97 165
61 96 153
62 97 160
61 96 159
62 97 161
61 97 158
62 98 162
59 94 153
60 94 150
61 96 159
62 97 159
61 96 158
60 95 153
61 96 161
61 97 163
60 94 154
60 94 153
60 94 152
60 94 150
60 94 154
60 94 158
59 92 151
58 91 155
162 182 217
211 230 255
211 230 255
212 230 255
212 230 255
212 230 255
212 230 255
212 230 255
212 230 255
212 230 255
212 230 255
212 230 255
212 230 255
212 230 255
212 230 255
212 230 255
212 230 255
212 230 255
212 230 255
212 230 255
212 230 255
212 230 255
212 230 255
190 202 212
126 124 83
130 128 84
130 129 86
132 130 88
121 119 80
127 125 84
137 136 91
133 133 92
131 131 89
121 121 86
132 132 91
139 138 94
137 136 92
150 149 100
141 139 95
139 138 94
142 141 96
148 147 100
148 146 98
142 141 95
151 149 101
148 146 98
149 146 98
149 147 99
154 152 102
155 151 101
149 148 100
151 149 100
152 151 100
152 150 100
154 152 101
157 155 103
159 157 106
157 155 103
158 156 103
155 153 102
158 154 103
159 156 103
160 157 103
157 154 99
159 156 103
164 161 105
161 157 104
167 163 106
169 165 108
169 164 107
170 166 109
166 162 105
164 161 106
164 160 104
169 164 108
166 163 106
169 166 108
165 161 103
173 169 109
171 167 108
171 166 109
170 165 106
169 164 106
168 164 104
164 160 106
157 153 99
169 164 104
165 162 103
163 159 99
173 168 108
168 164 105
165 162 101
168 163 104
167 162 100
166 163 103
171 166 104
166 161 99
166 162 104
165 160 101
173 166 106
173 167 107
172 166 104
166 161 105
171 165 105
167 163 103
168 163 103
166 162 104
165 160 102
162 158 101
170 164 103
169 164 103
168 162 103
172 166 105
173 168 107
170 164 104
165 160 102
164 159 97
159 154 97
158 154 95
167 162 101
160 155 96
162 157 100
165 159 97
164 158 99
165 160 99
163 158 95
166 160 101
165 159 96
165 159 101
165 160 101
161 157 95
155 151 94
160 155 97
163 159 98
159 154 96
162 157 97
164 159 99
155 150 90
164 159 99
155 150 92
166 160 100
159 155 94
155 149 86
163 157 97
161 156 98
152 147 91
164 159 96
154 149 87
153 148 92
162 156 92
157 152 93
163 158 99
155 150 94
160 154 88
162 156 93
154 149 90
155 149 92
152 147 87
152 147 90
151 147 89
184 203 228
184 203 228
183 203 228
183 202 228
184 203 228
183 202 228
183 202 228
183 202 228
183 202 228
182 202 228
182 202 228
181 201 228
180 201 228
182 202 228
180 201 228
181 201 228
180 201 228
181 201 228
180 201 228
180 201 228
180 201 228
179 200 228
180 201 228
179 200 228
179 200 228
179 200 228
179 200 228
180 201 228
178 200 228
180 201 228
178 200 228
178 200 228
178 200 228
179 200 228
178 199 228
179 200 228
178 199 228
177 199 228
177 199 228
177 199 228
178 200 228
178 200 228
178 200 228
177 199 228
176 199 228
176 199 228
176 199 228
176 199 228
176 199 228
176 199 228
175 198 228
176 199 228
175 198 228
176 198 228
174 198 228
174 198 228
175 198 228
175 198 228
174 198 228
174 197 228
175 198 228
173 197 228
174 198 228
174 197 228
174 197 228
173 197 228
173 197 228
173 197 228
173 197 228
172 197 228
174 197 228
172 196 228
172 197 228
173 197 228
172 197 228
171 196 228
171 196 228
171 196 228
171 196 228
171 196 228
171 196 228
172 196 228
170 196 228
171 196 228
171 196 228
171 196 228
170 196 228
170 196 228
171 196 228
170 195 228
171 196 228
170 196 228
170 195 228
170 196 228
171 196 228
170 196 228
169 195 228
169 195 228
170 195 228
170 195 228
170 196 228
170 196 228
170 195 228
170 195 228
169 195 228
170 195 228
169 195 228
170 196 228
169 195 228
170 195 228
170 195 228
170 195 228
170 196 228
171 196 228
170 196 228
171 196 228
171 196 228
170 196 228
171 196 228
171 196 228
171 196 228
171 196 228
172 197 228
172 197 228
172 196 228
172 196 228
172 197 228
174 198 228
174 198 228
175 198 228
176 198 228
173 195 224
173 195 223
173 194 221
170 190 217
164 182 207
160 177 198
198 215 239
212 231 255
212 231 255
212 231 255
212 231 255
212 231 255
212 230 255
212 230 255
212 230 255
212 230 255
212 230 255
212 230 255
212 230 255
212 230 255
212 230 255
212 230 255
212 230 255
212 230 255
212 230 255
212 230 255
212 230 255
194 213 243
64 99 170
59 95 163
61 97 167
59 95 160
60 96 160
60 95 156
60 96 160
60 96 158
61 96 156
61 97 163
61 96 157
61 97 161
62 97 161
61 97 162
61 97 159
62 98 164
62 98 164
62 98 161
61 97 155
61 96 156
61 97 154
62 98 160
62 98 164
62 98 162
62 98 162
62 99 167
62 98 162
62 97 153
61 96 156
62 98 163
61 97 155
62 97 164
61 97 157
61 97 154
62 98 163
62 97 157
61 97 155
61 97 154
61 97 156
63 98 157
63 98 165
62 98 161
61 97 157
61 97 151
61 97 160
60 95 149
61 96 149
62 97 158
62 97 162
61 96 153
63 99 161
62 98 156
62 98 163
62 98 160
62 98 160
61 97 155
60 96 159
61 97 160
61 97 161
61 96 151
60 94 150
62 97 159
61 97 158
62 98 162
61 97 161
61 96 156
60 95 154
61 97 164
61 95 152
60 95 152
62 97 163
63 98 164
60 95 154
59 93 149
60 95 160
61 96 156
59 94 152
60 94 160
59 94 151
60 94 156
59 93 153
67 99 165
193 212 239
212 230 255
212 230 255
212 230 255
212 230 255
212 230 255
212 230 255
212 230 255
212 230 255
212 230 255
212 230 255
212 230 255
212 230 255
212 230 255
212 230 255
212 230 255
212 231 255
212 231 255
212 231 255
212 231 255
212 231 255
198 213 229
126 125 92
137 135 91
137 135 91
117 116 78
134 134 92
118 118 82
124 124 85
139 137 92
127 127 87
134 134 91
134 134 92
130 131 90
142 142 97
138 137 95
140 139 94
140 139 95
145 143 97
147 146 99
140 140 96
142 142 96
143 141 96
156 154 103
152 150 102
149 147 100
153 151 101
157 154 102
145 145 99
156 154 102
150 149 100
163 160 107
153 151 99
158 154 102
157 155 103
157 154 102
163 161 107
159 156 103
161 158 105
161 158 105
169 165 108
159 156 103
162 160 106
167 163 107
157 154 101
163 159 103
165 161 105
166 161 104
167 163 104
163 159 105
166 162 106
166 162 102
165 161 104
160 157 101
172 167 107
169 164 107
169 164 107
166 162 101
168 162 106
164 160 103
164 159 101
168 164 104
167 163 101
171 166 106
167 162 105
172 167 107
170 166 106
172 166 104
169 165 106
170 164 103
168 164 106
169 165 105
171 166 107
166 161 102
173 167 107
170 165 106
171 167 104
166 161 103
171 166 103
170 164 104
169 164 104
165 160 101
164 160 101
169 164 104
166 161 103
167 162 102
165 160 101
165 160 100
162 158 99
168 164 104
168 164 101
165 160 101
162 158 95
170 164 103
163 159 97
169 163 101
167 163 99
173 167 104
170 164 100
164 159 100
167 162 103
166 161 95
165 160 101
163 158 98
163 158 99
158 155 93
163 159 99
159 154 95
159 154 93
163 157 94
163 158 99
166 160 99
160 155 96
164 160 98
168 161 98
164 159 97
163 158 97
160 154 96
160 155 91
162 157 98
165 159 96
161 155 97
147 142 87
158 154 95
157 152 90
155 150 86
157 152 94
144 140 86
144 141 85
151 146 87
157 153 90
150 145 87
158 153 92
154 148 88
157 151 93
156 150 92
152 147 88
156 151 94
156 152 91
184 203 228
184 203 228
183 203 228
183 202 228
183 203 228
182 202 228
182 202 228
184 203 228
183 202 228
182 202 228
182 202 228
182 202 228
181 202 228
182 202 228
182 202 228
181 201 228
181 201 228
182 202 228
181 202 228
181 201 228
180 201 228
181 201 228
181 201 228
182 202 228
179 200 228
179 200 228
180 201 228
181 201 228
180 201 228
179 200 228
178 200 228
178 200 228
179 200 228
177 199 228
178 200 228
178 199 228
178 200 228
177 199 228
177 199 228
178 200 228
178 200 228
177 199 228
177 199 228
177 199 228
177 199 228
176 199 228
176 199 228
177 199 228
175 198 228
176 199 228
176 199 228
176 199 228
176 199 228
175 198 228
175 198 228
175 198 228
175 198 228
175 198 228
175 198 228
175 198 228
174 198 228
175 198 228
174 198 228
174 198 228
174 198 228
173 197 228
174 197 228
174 197 228
174 198 228
173 197 228
173 197 228
173 197 228
172 197 228
172 197 228
173 197 228
173 197 228
172 197 228
173 197 228
173 197 228
172 196 228
172 196 228
172 197 228
172 196 228
171 196 228
171 196 228
172 196 228
171 196 228
170 196 228
171 196 228
171 196 228
171 196 228
171 196 228
170 196 228
171 196 228
170 195 228
170 196 228
170 196 228
170 196 228
170 195 228
170 195 228
171 196 228
170 196 228
170 195 228
170 196 228
170 196 228
170 195 228
169 195 228
170 195 228
169 195 228
170 196 228
169 195 228
170 195 228
171 196 228
171 196 228
170 196 228
171 196 228
171 196 228
171 196 228
171 196 228
173 197 228
172 196 228
172 196 228
171 196 228
172 197 228
174 198 228
173 197 228
173 197 228
174 198 228
174 198 228
174 198 228
175 198 228
176 198 228
177 199 227
170 192 220
172 192 218
167 186 212
160 178 202
151 167 188
207 225 249
213 231 255
213 231 255
213 231 255
213 231 255
212 231 255
212 231 255
212 231 255
212 231 255
212 231 255
212 231 255
212 231 255
212 231 255
212 231 255
212 231 255
212 230 255
212 230 255
212 230 255
212 230 255
207 225 252
99 125 181
58 93 158
61 96 161
61 96 162
59 94 159
61 96 160
61 97 163
60 95 154
61 97 164
61 97 157
61 96 158
61 97 164
61 96 155
62 97 158
61 97 162
61 97 157
62 98 166
61 97 153
61 97 165
61 96 150
62 98 160
60 96 156
62 98 161
63 99 166
62 98 157
61 97 151
62 98 160
61 97 160
62 98 169
62 98 162
62 98 156
62 97 155
62 97 153
62 97 157
63 98 161
62 98 159
62 97 156
62 98 158
61 97 159
62 98 161
61 97 158
61 97 158
62 98 159
62 98 160
62 98 161
61 97 158
61 97 154
60 96 154
62 97 154
62 97 160
61 97 159
61 97 152
62 98 157
62 97 155
60 95 152
63 98 162
62 97 156
59 94 154
62 98 162
60 95 154
61 96 156
61 96 155
62 98 158
61 96 160
61 96 155
62 98 165
61 97 154
60 95 157
59 94 147
61 97 161
60 94 152
61 96 158
62 97 163
60 94 151
61 95 161
60 95 156
60 94 154
60 94 152
61 96 160
60 94 151
61 96 162
60 93 155
60 93 155
76 104 158
208 227 252
212 230 255
212 230 255
212 230 255
212 230 255
212 230 255
212 231 255
212 231 255
212 231 255
212 231 255
212 231 255
212 231 255
212 231 255
212 231 255
212 231 255
212 231 255
213 231 255
213 231 255
213 231 255
206 222 242
143 144 117
130 127 84
132 130 86
128 125 84
126 126 86
119 119 81
122 122 84
132 132 90
133 133 92
132 132 90
142 141 97
146 145 98
131 131 91
141 140 96
134 134 92
137 137 93
139 138 95
140 141 96
140 140 95
144 143 96
154 152 102
148 147 100
148 146 98
150 150 102
146 145 96
153 152 101
142 141 94
151 149 99
147 145 98
153 151 103
155 153 101
155 153 100
149 147 98
159 156 103
157 154 101
159 156 103
154 151 99
158 156 102
163 159 106
164 161 106
162 159 106
161 158 105
161 158 103
169 165 109
162 158 102
166 162 103
169 165 108
164 160 105
167 163 104
165 162 108
167 163 104
161 157 100
170 166 109
168 164 104
163 159 103
166 162 105
167 163 103
167 163 104
164 160 103
175 170 109
165 161 105
168 164 103
171 166 104
169 164 103
167 163 106
171 166 107
167 162 106
165 162 100
174 170 108
171 166 107
169 163 102
172 166 106
166 162 103
169 164 105
170 166 107
167 163 103
169 163 103
167 163 101
170 164 103
169 163 102
171 165 105
164 160 99
167 162 98
170 165 103
168 163 104
171 165 104
163 158 98
172 165 103
171 164 101
168 163 104
166 162 103
160 156 96
166 161 100
170 164 100
164 160 101
168 163 101
165 159 98
163 159 99
166 162 100
167 161 100
163 158 95
169 163 101
166 160 101
165 159 97
162 158 96
164 159 97
163 158 97
162 157 97
163 158 97
162 157 97
162 156 94
163 158 95
156 152 93
166 161 95
159 155 97
161 156 94
151 147 87
163 158 93
171 165 101
162 157 98
162 157 91
154 149 91
153 149 89
162 158 97
167 161 97
154 148 90
161 156 95
158 153 90
152 148 90
159 153 90
163 157 93
165 159 97
157 151 88
152 147 88
157 152 90
146 140 85
157 151 88
151 146 80
185 203 228
183 202 228
184 203 228
183 202 228
184 203 228
184 203 228
185 203 228
183 203 228
184 203 228
184 203 228
183 202 228
182 202 228
182 202 228
182 202 228
182 202 228
183 202 228
181 201 228
183 202 228
181 202 228
182 202 228
181 201 228
182 202 228
180 201 228
181 201 228
181 201 228
181 201 228
180 201 228
179 200 228
180 201 228
181 201 228
178 200 228
179 200 228
180 201 228
178 200 228
179 200 228
179 200 228
179 201 228
179 200 228
179 200 228
178 200 228
177 199 228
178 200 228
178 200 228
178 200 228
177 199 228
178 200 228
177 199 228
178 200 228
176 199 228
177 199 228
177 199 228
176 199 228
176 199 228
176 199 228
176 199 228
176 199 228
176 198 228
175 198 228
175 198 228
175 198 228
176 199 228
176 199 228
174 198 228
176 199 228
175 198 228
175 198 228
175 198 228
174 198 228
174 198 228
174 197 228
174 198 228
175 198 228
174 198 228
175 198 228
174 198 228
173 197 228
174 198 228
174 198 228
173 197 228
173 197 228
173 197 228
173 197 228
173 197 228
173 197 228
171 196 228
171 196 228
172 197 228
172 196 228
172 196 228
171 196 228
172 196 228
172 196 228
172 196 228
172 197 228
171 196 228
171 196 228
171 196 228
171 196 228
170 196 228
171 196 228
171 196 228
170 196 228
171 196 228
170 196 228
170 195 228
170 195 228
171 196 228
171 196 228
171 196 228
171 196 228
171 196 228
171 196 228
171 196 228
171 196 228
170 196 228
171 196 228
170 196 228
172 196 228
172 196 228
172 197 228
171 196 228
172 196 228
171 196 228
168 193 225
171 196 228
172 196 228
173 197 228
170 194 226
173 196 227
173 197 227
175 198 228
176 199 228
178 200 228
177 199 227
174 195 223
165 184 209
172 191 217
154 170 192
166 181 202
211 229 254
213 231 255
213 231 255
213 231 255
213 231 255
213 231 255
213 231 255
213 231 255
213 231 255
213 231 255
213 231 255
213 231 255
213 231 255
213 231 255
212 231 255
212 231 255
212 231 255
212 231 255
130 152 198
59 95 167
61 96 161
61 96 164
60 95 164
61 97 167
62 98 163
61 97 158
62 97 163
61 96 158
61 96 158
62 98 163
60 95 155
61 97 157
61 96 158
60 96 157
61 97 156
62 98 160
62 98 163
61 96 156
62 98 160
61 97 160
62 97 153
62 98 161
62 98 161
61 97 156
62 98 161
61 96 157
62 98 161
62 98 163
62 98 163
61 97 152
62 97 156
62 98 163
61 96 147
61 96 151
62 98 162
62 98 160
61 96 156
61 97 157
60 96 151
63 99 167
61 97 153
61 97 158
61 97 160
61 97 159
61 96 151
62 98 157
62 98 162
62 98 153
60 96 150
61 96 150
62 98 159
62 98 163
63 98 153
61 96 145
61 97 156
63 98 162
61 96 155
60 96 148
61 95 145
60 96 154
60 95 152
59 94 150
62 97 163
61 97 157
62 97 160
62 98 160
62 97 155
62 98 163
60 94 156
61 95 155
59 94 154
61 97 158
61 95 153
59 92 149
59 93 149
59 92 148
59 93 147
61 96 154
60 94 157
59 92 148
60 93 156
58 92 154
58 90 146
150 169 205
212 231 255
212 231 255
212 231 255
212 231 255
213 231 255
213 231 255
213 231 255
213 231 255
213 231 255
213 231 255
213 231 255
213 231 255
213 231 255
213 231 255
213 231 255
213 231 255
213 231 255
212 230 254
154 157 144
125 123 82
130 128 85
136 135 92
130 128 87
120 119 82
127 128 89
133 133 91
118 119 84
134 134 92
131 130 88
135 135 94
136 135 93
130 131 91
129 129 89
128 129 90
141 139 95
140 140 95
142 142 97
148 147 97
145 144 98
147 146 99
148 147 99
146 144 97
148 146 99
156 154 103
154 153 103
150 148 98
159 156 104
154 152 101
158 156 102
159 158 105
158 155 103
151 149 98
157 155 101
161 157 103
154 151 100
155 153 101
155 153 100
161 157 101
160 157 105
160 156 101
165 162 105
168 163 105
163 160 104
162 160 107
168 164 108
166 162 101
165 162 105
166 161 103
167 163 105
163 159 103
168 164 105
161 158 104
168 163 104
169 165 106
168 164 104
168 163 104
168 163 100
169 164 103
169 164 102
170 166 106
170 164 104
169 165 104
169 164 102
168 164 104
171 165 103
172 167 106
170 166 101
169 164 104
170 164 101
168 164 104
170 165 102
176 170 106
173 168 104
169 163 102
171 166 107
166 162 99
168 162 101
172 166 105
168 163 101
170 165 104
163 158 97
174 167 106
172 166 101
172 166 103
164 160 99
170 164 103
167 161 99
173 167 105
165 160 100
166 161 97
168 163 104
164 160 98
166 161 102
167 162 99
166 159 99
166 161 101
166 161 98
163 158 97
158 152 90
159 154 92
163 158 96
166 161 99
167 162 101
166 160 94
166 161 99
170 164 103
168 163 101
168 162 99
162 157 95
160 155 92
160 155 92
167 161 98
158 155 95
161 155 95
157 152 93
160 155 92
165 160 99
164 158 97
154 150 93
166 160 99
160 156 94
158 153 90
167 161 99
159 153 95
159 152 95
154 149 87
159 153 93
156 151 89
156 150 90
165 159 97
161 155 94
161 155 93
158 153 92
157 152 92
161 156 93
157 152 90
160 154 97
185 204 228
184 203 228
185 204 228
185 204 228
183 203 228
183 202 228
184 203 228
183 202 228
183 202 228
183 202 228
182 202 228
183 202 228
182 202 228
183 202 228
183 202 228
183 202 228
181 201 228
182 202 228
181 201 228
183 202 228
182 202 228
181 201 228
181 201 228
181 201 228
181 201 228
181 201 228
181 201 228
180 201 228
181 201 228
181 201 228
181 201 228
180 201 228
179 200 228
180 201 228
179 200 228
181 201 228
181 201 228
179 200 228
177 199 228
178 200 228
178 200 228
178 200 228
178 200 228
178 200 228
178 200 228
177 199 228
177 199 228
179 200 228
178 199 228
176 199 228
177 199 228
177 199 228
178 200 228
178 200 228
178 200 228
178 199 228
176 199 228
176 199 228
176 199 228
177 199 228
176 199 228
177 199 228
175 198 228
176 198 228
175 198 228
177 199 228
176 199 228
175 198 228
174 198 228
174 198 228
174 197 228
174 198 228
174 198 228
174 198 228
174 198 228
174 198 228
174 198 228
174 197 228
175 198 228
174 197 228
173 197 228
174 197 228
173 197 228
172 197 228
175 198 228
173 197 228
173 197 228
172 197 228
172 197 228
172 197 228
173 197 228
172 197 228
171 196 228
172 197 228
172 196 228
172 197 228
172 197 228
172 197 228
172 197 228
171 196 228
172 196 228
171 196 228
172 196 228
172 196 228
172 197 228
173 197 228
172 197 228
172 196 228
171 196 228
172 197 228
171 196 228
172 197 228
171 196 228
172 196 228
173 197 228
172 197 228
173 197 228
172 197 228
172 196 227
171 195 227
171 195 227
165 189 223
169 194 227
172 196 228
166 190 224
167 190 223
171 195 227
167 191 224
173 196 227
173 196 227
172 194 226
173 195 225
177 199 228
178 200 228
178 199 227
177 198 225
171 191 217
168 187 212
158 174 195
183 199 221
213 231 255
213 231 255
213 231 255
213 231 255
213 231 255
213 231 255
213 231 255
213 231 255
213 231 255
213 231 255
213 231 255
213 231 255
213 231 255
213 231 255
213 231 255
213 231 255
181 200 234
61 96 167
61 97 167
60 95 166
61 96 163
61 96 168
60 95 154
61 97 161
61 97 161
62 98 167
61 97 161
60 96 159
60 96 161
62 98 168
60 96 151
61 97 161
61 97 161
62 97 159
61 96 155
62 98 160
62 97 157
61 97 152
62 97 162
62 98 164
60 96 151
61 97 158
62 98 165
61 97 158
61 97 155
61 97 154
61 97 161
61 97 155
62 98 164
61 97 156
61 96 155
61 97 154
62 98 157
62 97 156
61 97 159
62 98 158
62 98 159
61 96 153
62 98 154
62 98 160
62 97 161
63 99 163
60 96 150
62 98 161
62 97 155
62 98 156
62 97 155
60 96 150
61 96 155
62 97 159
61 96 147
61 97 160
61 96 151
62 98 160
62 98 158
62 97 155
61 96 156
62 97 158
61 97 158
61 97 158
62 98 161
61 96 154
62 97 155
61 96 152
62 97 159
62 97 152
62 98 162
60 95 155
61 96 158
61 96 157
60 96 151
61 96 161
61 96 160
60 95 152
61 96 152
59 93 154
58 92 142
60 95 155
60 94 155
58 92 151
59 93 156
59 93 154
58 90 146
179 198 229
213 231 255
213 231 255
213 231 255
213 231 255
213 231 255
213 231 255
213 231 255
213 231 255
213 231 255
213 231 255
213 231 255
213 231 255
213 231 255
213 231 255
213 231 255
213 231 255
176 186 191
126 123 80
127 124 80
118 117 79
120 120 82
119 119 81
123 123 85
132 131 90
135 134 91
130 129 88
129 129 89
131 130 88
129 129 88
130 131 90
136 135 92
125 126 87
144 142 98
136 136 93
128 129 88
141 140 95
142 141 95
148 147 99
147 145 98
143 142 95
151 150 100
158 155 102
150 149 101
147 145 97
146 145 97
149 147 96
151 150 101
158 154 101
159 156 103
155 153 101
155 153 102
157 154 100
164 160 104
164 161 106
165 161 104
160 157 103
156 153 100
162 158 102
167 162 108
162 159 103
167 162 106
159 156 102
166 162 104
163 160 104
171 167 108
169 165 108
167 162 105
168 163 105
163 159 101
169 163 102
162 157 101
164 160 100
170 166 107
165 160 102
172 167 107
170 166 103
174 169 108
170 166 107
171 164 104
171 166 106
173 168 106
174 170 107
167 163 101
171 167 105
170 165 102
174 169 108
169 163 101
173 167 107
165 160 96
171 166 106
169 164 99
173 167 106
168 163 104
170 165 106
171 166 104
166 162 99
168 162 103
168 163 102
175 169 108
168 163 99
168 163 99
172 167 101
172 168 104
165 160 98
167 162 99
166 161 95
170 164 104
166 161 101
166 162 101
169 164 100
167 161 99
171 166 102
165 160 99
169 163 103
167 162 101
169 163 99
167 162 98
166 160 97
167 161 99
164 159 97
164 158 97
163 158 93
169 164 101
168 162 100
162 156 93
169 162 97
165 159 99
161 156 95
167 162 103
166 161 96
169 162 99
154 149 88
159 153 94
161 156 95
161 155 90
167 160 98
158 153 92
162 157 97
168 161 100
155 150 92
161 156 95
160 154 94
160 154 93
157 152 90
159 152 90
159 153 91
156 151 90
158 154 92
154 148 88
156 151 87
153 148 93
156 150 90
153 148 87
155 150 90
150 145 84
157 152 92
184 203 228
185 203 228
185 203 228
185 203 228
185 204 228
183 203 228
184 203 228
184 203 228
183 202 228
184 203 228
183 202 228
184 203 228
183 203 228
185 203 228
184 203 228
182 202 228
181 201 228
182 202 228
182 202 228
182 202 228
182 202 228
182 202 228
181 202 228
181 201 228
182 202 228
181 201 228
182 202 228
181 201 228
181 202 228
180 201 228
181 201 228
182 202 228
179 200 228
181 201 228
180 201 228
180 201 228
180 201 228
180 201 228
179 200 228
181 201 228
179 200 228
179 200 228
178 200 228
179 200 228
179 200 228
178 200 228
180 201 228
178 200 228
180 201 228
178 199 228
179 200 228
179 200 228
178 200 228
178 200 228
177 199 228
177 199 228
177 199 228
177 199 228
177 199 228
177 199 228
177 199 228
176 199 228
177 199 228
175 198 228
176 199 228
176 199 228
176 199 228
175 198 228
176 199 228
176 199 228
176 198 228
175 198 228
176 198 228
176 198 228
176 199 228
174 198 228
175 198 228
174 197 228
176 199 228
174 197 228
174 198 228
174 198 228
174 198 228
174 197 228
174 198 228
173 197 228
174 198 228
173 197 228
173 197 228
173 197 228
174 197 228
173 197 228
174 198 228
173 197 228
173 197 228
173 197 228
173 197 228
173 197 228
172 196 228
173 197 228
172 197 228
173 197 228
172 197 228
172 197 228
172 197 228
172 196 228
173 197 228
174 197 228
172 197 228
173 197 228
172 196 228
172 197 228
172 197 228
173 197 228
172 197 228
173 197 228
172 196 227
170 194 227
169 193 226
170 194 226
165 189 222
168 193 226
164 188 221
162 187 221
164 188 222
160 184 218
157 181 217
163 187 219
165 188 220
163 187 220
166 188 221
168 191 222
171 194 225
176 199 228
176 198 227
174 195 222
171 190 217
162 180 204
164 183 208
157 173 194
204 222 246
213 231 255
213 231 255
213 231 255
213 231 255
213 231 255
213 231 255
213 231 255
213 231 255
213 231 255
213 231 255
213 231 255
213 231 255
213 231 255
213 231 255
207 225 251
99 124 179
59 94 158
59 94 160
60 96 163
60 96 156
61 96 159
61 97 156
60 95 151
60 95 156
60 96 152
61 96 154
60 96 151
60 95 150
62 98 163
62 98 166
61 96 154
61 97 162
61 97 154
62 98 160
60 96 153
60 96 152
62 98 160
62 98 162
62 98 160
61 97 157
60 96 152
61 97 159
61 97 152
61 97 148
60 96 150
61 97 160
60 95 148
61 97 153
60 95 140
62 98 158
61 97 157
61 97 155
61 96 152
62 98 160
62 98 159
62 98 158
62 98 160
62 98 159
61 96 152
62 98 159
61 97 154
62 97 158
62 98 156
61 96 151
62 98 162
63 99 163
61 97 160
62 98 162
62 97 155
62 98 158
62 97 154
60 95 152
62 97 155
60 95 150
62 98 159
60 95 150
62 97 157
61 96 154
61 97 154
61 97 156
63 99 167
60 95 150
60 95 147
60 95 150
60 95 151
60 95 157
60 95 147
62 96 159
60 96 154
61 97 159
61 97 160
62 97 161
62 97 159
61 95 147
60 95 154
61 95 157
60 92 151
61 94 153
58 91 150
59 92 148
60 93 147
58 91 147
88 113 163
208 226 251
213 231 255
213 231 255
213 231 255
213 231 255
213 231 255
213 231 255
213 231 255
213 231 255
213 231 255
213 231 255
213 231 255
213 231 255
213 231 255
213 231 255
201 216 233
126 123 81
123 121 77
126 125 83
129 128 87
129 128 86
135 134 90
133 133 92
119 119 82
128 127 88
129 130 91
138 137 92
131 130 89
129 130 90
135 134 91
138 137 94
134 134 93
143 142 95
132 132 91
148 146 98
133 133 90
149 148 100
143 141 94
139 139 93
144 143 96
143 143 98
147 146 99
149 149 101
152 150 101
145 143 96
158 156 106
151 149 99
157 154 101
160 157 101
156 154 99
156 154 101
155 152 98
162 158 103
156 153 101
159 156 100
158 155 97
161 158 105
164 160 104
160 157 101
160 157 100
162 160 104
162 159 103
164 160 104
169 165 105
167 162 104
163 159 102
163 159 100
168 164 106
165 161 100
166 161 102
164 160 102
171 166 105
166 162 103
171 166 106
170 166 105
166 161 100
168 164 104
171 166 106
169 163 102
169 166 105
159 155 100
173 168 106
170 166 104
171 166 104
167 163 101
169 164 101
168 164 103
172 166 100
163 159 97
170 165 105
172 166 104
172 167 106
169 164 103
173 168 107
171 166 106
169 164 101
165 160 97
168 162 101
167 162 103
172 166 102
168 164 102
168 163 101
164 161 101
167 162 97
171 165 103
166 160 98
166 160 100
168 162 99
167 162 103
166 159 95
164 160 95
169 163 104
169 163 101
167 162 103
162 156 95
166 161 95
170 164 102
163 159 101
171 165 97
168 163 97
167 161 101
163 158 97
159 155 94
167 161 99
170 165 104
159 153 96
164 158 93
162 156 93
167 162 97
164 158 94
166 161 96
167 161 99
157 153 90
167 162 100
164 157 98
160 155 95
163 157 92
163 158 90
162 156 92
157 153 90
159 153 95
163 158 96
158 153 90
161 155 88
169 164 104
160 154 94
153 149 90
160 154 90
162 157 93
156 150 91
154 149 85
157 152 91
155 150 86
158 153 87
154 149 88
153 148 91
185 204 228
185 203 228
184 203 228
186 204 228
185 204 228
184 203 228
184 203 228
184 203 228
184 203 228
185 204 228
185 203 228
184 203 228
183 203 228
183 202 228
184 203 228
184 203 228
182 202 228
182 202 228
183 203 228
183 202 228
181 202 228
182 202 228
183 202 228
182 202 228
182 202 228
182 202 228
181 201 228
182 202 228
182 202 228
181 202 228
182 202 228
181 202 228
180 201 228
182 202 228
181 201 228
179 201 228
181 201 228
180 201 228
180 201 228
180 201 228
180 201 228
180 201 228
179 200 228
180 201 228
179 200 228
179 200 228
180 201 228
180 201 228
179 200 228
179 200 228
178 200 228
178 200 228
179 200 228
178 200 228
177 199 228
178 200 228
178 200 228
179 200 228
179 200 228
178 200 228
177 199 228
178 200 228
177 199 228
177 199 228
177 199 228
178 199 228
176 199 228
177 199 228
177 199 228
175 198 228
177 199 228
176 199 228
177 199 228
176 199 228
176 199 228
176 198 228
175 198 228
175 198 228
175 198 228
175 198 228
175 198 228
173 197 228
174 198 228
175 198 228
175 198 228
174 198 228
174 198 228
174 198 228
174 198 228
174 198 228
173 197 228
175 198 228
174 198 228
173 197 228
174 198 228
174 197 228
173 197 228
172 197 228
174 198 228
173 197 228
174 197 228
173 197 228
173 197 228
173 197 228
175 198 228
173 197 228
173 197 228
173 197 228
173 197 228
172 197 228
173 197 228
174 197 228
174 197 228
174 198 228
174 197 228
173 197 228
169 193 225
172 196 227
168 192 224
168 192 224
167 191 223
169 192 225
159 183 218
159 183 218
160 185 220
159 183 218
159 182 217
156 180 216
157 181 216
160 183 217
162 185 219
168 190 222
165 187 220
169 192 224
171 193 224
179 200 228
174 194 221
171 190 216
171 190 216
166 183 206
163 179 200
211 229 253
214 231 255
214 231 255
214 231 255
214 231 255
214 231 255
214 231 255
213 231 255
213 231 255
213 231 255
213 231 255
213 231 255
213 231 255
213 231 255
152 171 209
58 93 158
59 95 158
59 94 157
59 94 161
60 96 160
60 95 151
61 96 163
61 96 156
61 97 158
60 95 153
61 97 163
60 96 153
60 95 158
62 97 158
61 97 156
61 97 155
62 98 160
62 97 159
60 95 148
61 96 156
62 98 158
61 97 154
60 96 152
62 97 160
62 97 160
61 97 156
62 98 160
61 97 152
62 98 159
62 98 160
62 98 157
61 96 156
62 97 155
62 97 150
61 97 147
61 97 156
62 97 150
61 97 156
61 97 157
62 97 153
61 97 151
62 98 161
61 97 153
61 97 157
62 98 160
61 96 151
61 96 151
61 97 152
61 96 158
61 97 153
61 96 149
62 97 158
62 97 155
61 97 153
60 95 147
62 97 150
63 98 160
62 98 156
60 95 148
61 96 152
60 95 152
62 97 159
61 96 154
61 96 154
62 97 157
61 96 153
61 96 147
61 96 152
62 97 161
61 96 156
61 96 153
60 95 154
61 95 152
60 94 147
60 95 148
60 94 154
60 95 152
61 95 156
60 94 154
60 95 152
59 92 144
59 92 146
59 93 147
59 92 157
58 92 144
58 90 151
59 92 152
58 89 140
152 170 202
213 231 255
213 231 255
213 231 255
213 231 255
213 231 255
213 231 255
213 231 255
214 231 255
214 231 255
214 231 255
214 231 255
214 231 255
214 231 255
213 230 252
132 132 107
129 126 84
127 126 82
128 126 84
121 121 82
117 117 80
124 125 87
124 125 86
118 119 84
123 124 86
136 137 95
124 126 89
133 133 90
129 130 90
130 129 88
131 131 91
122 122 82
133 132 90
144 142 96
138 138 94
147 146 100
145 144 97
138 137 93
145 144 96
152 150 100
146 145 97
146 144 94
151 149 100
148 147 97
149 147 97
145 143 95
159 156 103
150 148 98
166 162 106
149 147 98
157 154 102
150 148 99
159 155 101
164 161 104
158 155 103
160 156 101
160 156 102
165 161 106
163 158 101
163 158 100
166 163 106
166 161 100
162 158 100
167 162 103
171 167 106
164 161 101
171 165 105
164 160 103
162 159 101
165 160 100
171 166 103
173 168 106
171 165 105
169 163 104
168 164 102
165 161 103
176 170 108
172 167 105
166 161 100
169 164 103
167 163 102
168 162 101
168 164 104
172 167 103
170 165 101
174 168 102
172 167 105
171 166 104
170 165 103
173 167 103
168 163 102
172 167 104
165 159 95
171 167 107
167 162 99
171 166 101
171 167 100
169 164 101
167 163 98
169 164 102
171 166 103
171 165 102
162 158 97
169 164 102
168 162 97
169 163 98
168 162 100
168 162 99
171 165 103
169 163 102
166 161 97
166 160 99
166 161 100
168 163 100
161 157 91
165 160 98
170 164 99
173 166 100
167 161 96
166 160 99
171 165 102
167 161 100
169 163 101
168 162 98
164 158 93
170 164 101
164 160 99
167 162 95
159 154 93
161 155 94
170 164 101
164 159 92
149 144 82
164 158 96
166 159 95
159 154 97
166 160 93
169 161 97
161 156 95
159 153 88
158 153 93
155 150 93
157 151 90
162 156 96
155 151 89
165 160 95
153 148 85
157 151 92
158 152 95
155 150 84
160 154 93
159 154 93
159 152 86
152 147 87
154 149 87
158 153 90
185 204 228
186 204 228
185 203 228
186 204 228
184 203 228
184 203 228
184 203 228
184 203 228
185 204 228
184 203 228
185 204 228
184 203 228
184 203 228
184 203 228
183 203 228
184 203 228
183 202 228
183 203 228
185 203 228
182 202 228
184 203 228
183 202 228
183 202 228
183 202 228
181 201 228
182 202 228
183 202 228
183 202 228
183 202 228
182 202 228
181 201 228
182 202 228
181 202 228
182 202 228
181 201 228
183 202 228
181 201 228
180 201 228
180 201 228
180 201 228
181 201 228
180 201 228
182 202 228
180 201 228
180 201 228
179 200 228
180 201 228
181 201 228
179 200 228
179 201 228
179 200 228
180 201 228
179 200 228
179 200 228
178 200 228
178 200 228
177 199 228
177 199 228
180 201 228
179 200 228
178 200 228
178 200 228
178 200 228
177 199 228
178 200 228
178 200 228
178 200 228
177 199 228
175 198 228
178 199 228
176 199 228
177 199 228
177 199 228
177 199 228
177 199 228
178 199 228
177 199 228
176 199 228
176 199 228
176 199 228
175 198 228
175 198 228
176 199 228
175 198 228
175 198 228
175 198 228
176 198 228
175 198 228
176 198 228
176 199 228
175 198 228
175 198 228
176 198 228
175 198 228
175 198 228
175 198 228
175 198 228
174 198 228
174 198 228
175 198 228
175 198 228
173 197 228
173 197 228
174 197 228
174 198 228
174 198 228
175 198 228
174 198 228
174 198 228
174 198 228
172 197 228
175 198 228
173 197 228
174 197 228
174 198 228
171 194 226
168 192 224
165 189 220
165 190 223
160 183 218
156 180 216
162 186 219
164 187 220
158 181 217
164 188 222
158 182 216
157 181 216
158 181 216
159 182 217
159 183 217
148 171 207
156 179 214
155 178 213
154 177 212
161 184 215
169 191 222
177 198 227
173 192 219
166 184 208
160 177 199
155 170 191
173 188 209
214 231 255
214 231 255
214 231 255
214 231 255
214 231 255
214 231 255
214 231 255
214 231 255
214 231 255
214 231 255
214 231 255
214 231 255
201 220 247
68 99 161
58 92 157
60 95 159
61 97 163
60 95 160
60 95 156
60 96 162
61 97 161
61 96 154
60 96 154
61 96 158
61 97 156
61 97 164
60 96 154
62 97 158
59 94 152
61 97 159
60 95 147
61 96 149
61 97 156
61 97 158
62 98 157
61 97 161
62 97 159
61 96 154
61 96 148
63 98 164
60 96 151
62 98 157
62 98 159
61 96 148
62 97 159
62 98 156
61 96 153
61 97 156
62 97 158
61 96 156
60 95 150
62 97 148
61 97 148
61 96 151
62 98 160
62 98 154
62 97 157
60 95 145
62 97 158
61 97 145
61 97 157
61 97 155
60 96 151
61 96 150
61 97 154
61 97 155
61 97 154
62 98 161
62 97 158
60 95 150
61 96 155
61 96 154
61 96 148
60 95 150
61 96 151
63 99 161
62 97 159
61 97 152
61 97 154
60 96 157
61 96 155
62 98 163
60 95 151
61 96 154
61 96 157
60 95 149
61 95 151
61 95 147
60 94 149
60 93 148
59 93 145
61 94 150
60 94 153
60 94 148
57 90 137
60 93 146
59 93 152
59 93 151
58 90 140
59 93 152
58 91 147
60 93 149
70 98 149
200 218 245
214 231 255
214 231 255
214 231 255
214 231 255
214 231 255
214 231 255
214 231 255
214 231 255
214 231 255
214 231 255
214 231 255
214 231 255
168 177 177
126 124 81
117 116 79
112 111 73
129 127 86
126 126 86
124 124 85
120 120 82
127 127 87
130 131 91
124 125 87
125 126 86
117 118 82
132 132 91
123 124 86
132 132 90
137 137 93
140 139 95
131 132 91
138 137 93
139 139 95
148 146 99
143 142 94
134 134 92
148 146 95
140 138 90
146 143 93
145 144 99
156 154 102
152 150 98
150 149 98
157 153 98
156 153 101
158 155 103
153 151 100
158 155 100
148 146 95
163 158 102
157 154 99
165 161 104
155 152 100
164 159 103
163 159 100
163 160 104
162 158 102
165 161 101
160 157 102
158 154 99
162 159 101
164 160 103
167 162 100
168 164 106
160 156 101
161 157 97
172 167 106
161 157 102
171 167 108
165 161 104
168 164 103
173 167 106
169 165 100
165 161 99
172 166 103
169 165 103
168 163 102
170 166 102
169 165 103
175 169 107
168 163 98
171 166 106
171 166 105
168 163 103
171 166 103
168 163 103
175 169 103
169 164 103
167 161 99
170 164 100
169 163 100
165 160 99
167 162 98
169 164 101
174 168 106
166 161 95
169 164 99
169 164 104
168 164 101
170 165 104
168 163 101
170 164 97
167 162 101
169 165 102
169 164 101
165 160 96
171 166 102
172 167 101
165 161 96
167 161 93
171 166 103
161 157 95
165 160 99
167 161 97
174 168 105
164 159 92
167 161 98
165 159 95
165 159 95
161 156 95
166 161 99
159 154 96
160 154 92
168 162 98
162 157 93
165 159 95
164 158 97
164 159 95
167 161 99
162 155 95
162 157 95
168 162 102
162 155 94
166 160 98
163 157 93
163 157 94
160 154 89
158 154 90
156 150 93
157 153 87
157 151 88
162 156 94
160 154 92
157 151 87
165 159 94
164 158 93
155 149 89
165 160 92
149 144 84
162 156 95
168 162 94
156 150 88
152 146 87
155 150 87
186 204 228
187 205 228
186 204 228
186 204 228
186 204 228
185 203 228
186 204 228
186 204 228
184 203 228
185 204 228
184 203 228
185 203 228
184 203 228
184 203 228
183 203 228
183 203 228
185 203 228
184 203 228
183 202 228
184 203 228
183 202 228
183 202 228
184 203 228
183 202 228
184 203 228
182 202 228
182 202 228
184 203 228
183 203 228
183 202 228
183 202 228
182 202 228
181 201 228
183 202 228
183 202 228
182 202 228
181 201 228
181 201 228
182 202 228
181 202 228
181 201 228
181 201 228
181 202 228
181 201 228
182 202 228
180 201 228
180 201 228
181 202 228
181 202 228
181 202 228
180 201 228
179 200 228
180 201 228
181 201 228
178 200 228
179 200 228
179 200 228
180 201 228
180 201 228
180 201 228
178 200 228
179 200 228
179 200 228
178 200 228
179 200 228
177 199 228
179 200 228
178 200 228
179 200 228
177 199 228
178 200 228
178 200 228
178 200 228
177 199 228
178 200 228
176 199 228
178 200 228
177 199 228
176 199 228
177 199 228
178 200 228
177 199 228
176 199 228
177 199 228
177 199 228
177 199 228
176 198 228
176 199 228
176 199 228
175 198 228
176 198 228
176 198 228
176 198 228
176 199 228
176 199 228
176 198 228
176 199 228
175 198 228
174 198 228
174 198 228
176 199 228
176 198 228
175 198 228
175 198 228
175 198 228
174 198 228
175 198 228
175 198 228
175 198 228
175 198 228
176 199 228
174 198 228
172 196 227
173 196 227
173 196 227
172 195 226
166 190 223
166 189 222
159 183 216
168 192 224
161 185 220
157 181 217
159 183 217
152 177 213
150 174 211
150 174 211
146 170 206
147 171 209
151 174 209
155 178 215
152 176 212
154 177 212
158 180 214
157 179 213
156 178 213
165 187 218
167 189 219
176 196 224
174 193 219
169 187 211
168 186 209
148 163 183
195 211 233
214 232 255
214 232 255
214 232 255
214 232 255
214 232 255
214 232 255
214 232 255
214 231 255
214 231 255
214 231 255
214 231 255
137 158 202
60 95 162
60 95 164
60 95 161
59 94 156
60 96 158
59 93 151
60 95 158
60 96 152
60 95 154
60 95 150
60 96 157
62 98 163
61 97 164
61 96 154
61 96 151
61 96 154
61 96 153
61 97 152
61 96 154
60 96 146
62 97 155
61 96 161
62 98 165
60 96 152
61 96 151
60 96 151
61 97 153
61 96 154
62 98 160
62 97 156
60 95 151
61 97 151
60 96 149
62 98 160
62 98 159
62 98 160
61 97 154
62 98 156
61 97 154
61 97 155
61 96 155
61 96 151
61 97 154
62 97 158
62 97 156
62 98 161
61 97 157
60 95 145
61 96 152
62 98 158
61 96 153
62 98 161
60 95 150
61 97 158
61 96 149
61 96 152
61 97 152
61 96 149
62 97 153
61 96 152
61 96 153
61 96 149
62 97 151
61 96 156
60 94 144
61 96 156
61 96 154
61 95 149
59 93 149
61 95 149
60 95 150
60 94 144
61 96 153
60 94 151
60 96 153
61 96 153
59 93 147
60 94 153
59 94 151
59 93 147
60 94 149
60 94 151
59 93 147
60 94 155
60 94 155
59 93 149
59 93 149
59 92 146
58 90 147
57 88 141
137 156 191
214 231 255
214 231 255
214 231 255
214 231 255
214 232 255
214 232 255
214 232 255
214 232 255
214 232 255
214 232 255
214 232 255
199 214 232
117 114 72
123 120 79
114 113 76
117 117 81
116 116 79
114 114 80
127 127 86
116 117 82
122 123 86
119 118 80
124 125 87
114 116 81
126 126 86
123 123 85
133 134 92
126 126 88
138 138 94
135 135 94
136 136 94
131 131 89
142 141 95
131 131 90
143 143 96
146 144 96
147 146 97
144 142 97
142 142 97
147 145 95
145 144 97
144 143 97
148 147 98
147 145 96
160 157 103
154 152 101
157 153 101
153 150 97
161 157 101
160 156 100
159 156 99
154 152 99
164 159 102
162 159 103
158 154 98
166 161 103
161 158 102
164 161 102
161 158 102
165 160 103
166 162 104
165 160 103
167 163 103
168 162 102
173 168 106
168 164 107
165 161 100
167 163 101
167 163 98
171 165 103
169 164 103
167 163 103
172 167 104
170 165 106
172 167 108
168 163 103
173 167 104
165 161 100
166 161 100
170 164 100
163 159 98
173 168 106
170 165 102
171 165 101
172 167 107
169 164 103
168 164 100
172 168 106
168 163 99
171 166 104
169 164 99
168 163 97
176 170 104
172 166 103
173 167 99
176 169 105
173 167 103
174 168 104
171 165 98
162 158 95
170 165 99
169 164 101
169 162 101
172 166 101
169 163 97
172 166 100
165 159 96
167 162 99
164 159 95
170 164 101
171 166 103
166 161 98
171 166 99
166 161 94
165 161 95
163 159 97
170 164 99
166 160 96
161 156 94
161 157 93
163 158 93
155 151 87
167 161 98
164 158 90
172 166 99
167 161 96
166 161 93
163 157 94
166 160 97
164 160 93
165 160 93
163 158 93
159 154 90
163 157 97
156 150 86
160 154 92
165 159 93
159 153 90
161 156 96
166 161 98
166 160 97
165 158 93
154 150 90
156 150 89
162 155 91
157 151 90
161 156 95
163 156 87
158 152 89
155 150 88
156 151 87
160 154 93
156 150 89
154 149 84
187 205 228
186 204 228
186 204 228
185 204 228
186 204 228
185 204 228
185 203 228
185 204 228
186 204 228
185 204 228
185 204 228
184 203 228
186 204 228
185 203 228
185 203 228
185 203 228
185 203 228
184 203 228
184 203 228
184 203 228
185 203 228
184 203 228
184 203 228
184 203 228
183 202 228
183 203 228
184 203 228
185 203 228
183 203 228
183 203 228
183 202 228
183 202 228
181 202 228
183 203 228
184 203 228
183 202 228
182 202 228
182 202 228
182 202 228
183 202 228
182 202 228
182 202 228
181 201 228
181 201 228
182 202 228
182 202 228
182 202 228
182 202 228
183 202 228
181 201 228
181 202 228
182 202 228
181 201 228
180 201 228
181 201 228
181 201 228
179 201 228
180 201 228
179 200 228
180 201 228
180 201 228
178 200 228
179 200 228
181 201 228
181 201 228
179 200 228
178 200 228
179 200 228
178 200 228
179 200 228
178 200 228
180 201 228
178 200 228
178 200 228
178 200 228
177 199 228
179 200 228
177 199 228
177 199 228
178 200 228
176 199 228
177 199 228
178 200 228
177 199 228
176 199 228
177 199 228
176 199 228
176 198 228
177 199 228
177 199 228
175 198 228
177 199 228
177 199 228
176 199 228
177 199 228
176 199 228
175 198 228
175 198 228
177 199 228
176 199 228
175 198 228
176 199 228
176 199 228
175 198 228
176 199 228
176 198 228
176 199 228
176 199 228
175 198 228
177 199 228
176 198 228
175 198 228
172 195 226
167 190 222
173 196 226
166 189 222
158 181 214
161 184 217
164 187 221
160 183 217
154 177 213
147 171 208
146 169 205
153 177 214
145 169 206
148 171 207
141 165 204
153 177 212
143 167 204
140 163 200
146 168 204
143 166 203
150 173 210
146 169 206
155 177 211
161 182 214
159 181 213
166 187 217
173 193 222
166 184 209
172 191 216
162 178 199
162 177 196
214 232 255
214 232 255
214 232 255
214 232 255
214 232 255
214 232 255
214 232 255
214 232 255
214 232 255
214 232 255
200 218 246
62 95 161
58 92 154
60 95 159
60 95 159
59 93 152
60 95 151
59 93 149
60 95 157
60 96 153
61 97 166
60 94 151
60 96 154
60 95 147
61 96 157
60 96 150
61 96 154
61 96 157
61 97 158
62 97 161
61 96 158
61 96 151
61 97 151
60 95 146
62 97 157
61 97 157
60 96 150
62 97 147
61 97 152
61 96 154
62 98 156
61 97 153
61 97 154
61 97 148
61 96 152
61 97 155
61 97 147
62 98 154
62 98 158
61 97 155
60 96 150
61 96 151
61 96 150
62 98 155
61 96 150
61 96 151
61 97 152
62 97 150
61 96 152
61 97 151
61 97 156
61 97 150
60 96 150
62 97 154
63 98 160
63 99 166
61 96 148
61 96 145
62 98 159
61 96 151
60 95 139
62 97 153
62 97 151
61 97 158
61 97 156
61 96 148
61 97 158
61 95 145
62 97 159
62 97 155
61 96 150
61 96 145
61 96 153
60 95 150
60 95 155
60 94 146
60 94 147
61 96 156
60 94 147
60 94 149
60 94 149
59 93 146
59 93 148
60 94 147
59 92 145
59 93 145
60 94 148
59 92 141
58 90 139
59 91 148
57 89 146
58 90 139
60 89 137
195 213 237
214 232 255
214 232 255
214 232 255
214 232 255
214 232 255
214 232 255
214 232 255
214 232 255
214 232 255
214 232 255
151 156 144
103 103 71
123 123 83
114 114 79
106 107 74
113 115 81
116 116 80
112 112 78
126 126 86
113 114 79
111 112 79
121 122 86
128 128 88
122 123 87
130 130 91
135 134 92
129 129 90
134 134 90
124 125 87
131 131 89
138 137 92
134 133 89
144 144 96
137 137 92
138 136 92
148 146 96
143 142 97
143 141 92
143 142 94
150 148 98
150 148 98
162 159 104
148 146 99
154 152 99
159 156 103
161 157 102
154 153 100
162 158 103
159 154 99
160 156 100
158 155 99
158 155 100
161 157 100
157 154 100
165 161 101
164 161 102
164 160 99
162 159 98
165 160 103
171 167 106
165 162 99
169 165 104
168 164 104
168 163 104
169 165 101
164 160 102
168 164 102
170 164 101
172 168 108
162 158 96
169 164 102
168 162 102
170 165 103
169 163 101
172 166 103
166 161 98
172 166 103
170 164 100
173 167 102
171 166 103
171 166 104
171 167 104
172 166 101
175 169 103
167 161 94
172 167 102
176 169 105
173 167 102
171 165 99
171 165 100
172 165 100
171 166 101
166 161 97
172 166 102
169 164 99
169 163 101
166 160 97
170 164 99
171 166 101
173 167 101
170 164 98
171 165 98
170 164 98
171 164 99
169 163 97
166 161 97
166 161 99
171 165 99
168 161 98
166 161 98
170 165 101
165 159 93
170 164 98
172 166 101
165 159 94
169 163 98
169 163 100
165 159 93
172 165 100
161 157 92
166 159 93
168 162 99
168 162 91
164 159 95
165 160 94
166 161 97
161 156 94
161 156 93
154 149 86
164 158 95
166 160 97
166 161 97
160 155 90
167 160 97
159 154 93
164 158 93
158 153 87
157 150 89
155 150 90
160 154 94
164 158 93
159 153 87
156 151 87
164 158 96
169 164 97
156 150 86
152 148 86
160 154 93
170 163 96
159 154 93
154 148 87
159 153 87
163 158 91
187 204 228
188 205 228
187 204 228
186 204 228
186 204 228
185 203 228
187 204 228
187 204 228
185 204 228
187 205 228
186 204 228
186 204 228
185 204 228
185 203 228
185 204 228
184 203 228
185 204 228
185 203 228
185 203 228
185 204 228
185 204 228
185 203 228
184 203 228
184 203 228
185 203 228
184 203 228
184 203 228
184 203 228
184 203 228
184 203 228
183 203 228
184 203 228
183 202 228
183 202 228
184 203 228
183 202 228
184 203 228
182 202 228
184 203 228
183 202 228
183 202 228
181 201 228
181 202 228
182 202 228
182 202 228
182 202 228
183 203 228
183 202 228
182 202 228
182 202 228
182 202 228
183 202 228
180 201 228
181 202 228
181 202 228
181 201 228
180 201 228
180 201 228
182 202 228
181 201 228
181 201 228
181 202 228
181 201 228
178 200 228
180 201 228
179 200 228
180 201 228
179 200 228
179 200 228
180 201 228
180 201 228
179 200 228
178 200 228
179 200 228
180 201 228
179 200 228
179 200 228
178 200 228
179 200 228
179 200 228
179 200 228
177 199 228
179 200 228
178 200 228
177 199 228
178 200 228
178 200 228
178 200 228
178 200 228
178 199 228
177 199 228
175 198 228
177 199 228
176 198 228
177 199 228
176 199 228
178 199 228
177 199 228
177 199 228
177 199 228
176 199 228
175 198 228
177 199 228
178 199 228
176 199 228
177 199 228
177 199 228
175 198 228
176 199 228
177 199 228
177 199 228
173 196 227
176 198 228
173 195 226
168 190 221
166 189 220
162 185 219
165 188 221
157 180 214
152 176 211
157 180 215
151 174 210
146 169 207
154 178 212
145 169 207
137 161 201
142 166 204
146 170 207
134 157 197
134 157 196
144 168 205
140 164 203
140 163 200
138 160 198
138 161 199
142 165 201
148 170 204
167 188 218
160 180 211
172 191 216
162 179 204
161 177 198
151 167 187
196 212 234
215 232 255
215 232 255
215 232 255
215 232 255
215 232 255
215 232 255
215 232 255
215 232 255
215 232 255
144 163 203
57 91 153
60 95 157
59 93 154
59 94 154
59 94 148
60 96 156
60 96 160
59 94 158
61 96 156
60 94 147
60 95 144
61 97 158
60 95 160
61 96 150
60 96 151
59 94 148
60 95 151
60 95 152
61 97 154
60 95 143
60 96 149
61 96 158
62 98 156
61 97 152
61 96 154
61 97 154
62 97 156
61 97 154
61 96 154
62 98 160
61 97 157
61 96 150
61 96 150
61 97 156
62 97 157
61 96 147
61 97 156
62 97 153
61 97 148
62 98 158
61 97 152
61 97 154
62 97 156
62 98 158
62 98 159
61 96 152
61 96 158
61 96 147
61 97 149
60 95 145
62 98 161
61 97 153
61 96 149
61 96 152
62 97 157
61 95 145
61 96 152
61 97 157
62 97 152
61 96 150
61 97 153
62 97 148
62 98 158
61 97 154
61 95 147
62 97 156
61 96 155
61 96 151
61 97 152
60 95 146
61 95 154
60 95 147
60 95 145
61 96 155
61 95 149
59 94 144
60 94 145
59 93 149
59 94 148
60 94 144
60 94 153
59 94 146
60 94 150
60 94 155
59 93 147
60 94 144
58 90 144
59 93 145
58 91 146
56 87 134
59 91 150
58 90 145
131 150 184
215 232 255
215 232 255
215 232 255
215 232 255
215 232 255
215 232 255
215 232 255
215 232 255
215 232 255
192 205 219
118 116 73
123 121 80
113 111 73
97 98 65
116 116 80
111 110 76
116 116 80
122 123 86
110 112 80
111 113 79
120 120 84
130 130 89
121 122 86
129 129 89
130 129 87
123 122 83
117 118 82
130 129 88
127 128 88
144 143 97
136 136 93
141 140 94
128 128 88
137 137 93
148 147 99
142 141 93
145 145 97
147 145 95
154 152 98
142 141 95
151 148 97
150 149 99
152 148 97
156 154 99
152 149 97
160 157 101
153 150 96
156 152 99
154 152 97
161 157 101
158 154 96
159 156 99
158 156 102
165 161 103
162 159 99
163 159 98
160 156 99
163 159 100
169 164 102
159 156 100
165 161 102
162 158 96
171 166 106
170 165 102
164 160 102
171 165 104
166 162 102
171 165 104
172 167 105
169 164 101
171 166 101
172 167 104
172 167 104
172 166 103
173 168 107
173 167 103
169 164 101
174 168 106
166 161 99
171 166 100
173 167 103
173 166 103
175 169 103
167 162 100
170 164 100
169 164 101
176 170 104
175 170 108
170 164 100
175 169 104
170 164 100
174 169 104
173 168 101
172 167 103
170 165 98
164 159 95
171 165 99
169 163 100
174 167 99
171 165 99
168 163 90
166 161 97
168 163 97
168 163 99
167 161 95
167 161 96
171 166 101
165 159 98
165 160 96
173 166 100
165 159 97
167 162 97
166 160 97
168 163 96
173 167 103
158 153 89
170 165 99
165 160 97
165 159 92
166 160 90
162 156 85
165 159 95
165 160 91
169 163 95
164 157 95
166 160 96
169 163 101
161 155 93
160 155 88
164 158 93
163 157 90
157 152 90
167 160 93
163 157 92
164 158 97
161 155 93
161 155 93
161 155 92
160 154 89
163 156 90
152 147 87
156 151 87
156 150 87
158 152 89
154 149 87
157 153 89
165 159 93
162 156 90
159 154 89
166 160 90
163 156 93
157 152 87
152 147 84
187 205 228
187 204 228
187 205 228
188 205 228
186 204 228
187 205 228
186 204 228
187 204 228
187 204 228
186 204 228
186 204 228
186 204 228
186 204 228
186 204 228
186 204 228
187 205 228
186 204 228
185 204 228
186 204 228
185 204 228
185 203 228
186 204 228
184 203 228
184 203 228
185 204 228
186 204 228
184 203 228
183 203 228
185 204 228
184 203 228
184 203 228
184 203 228
183 203 228
184 203 228
183 202 228
184 203 228
184 203 228
183 203 228
184 203 228
183 203 228
182 202 228
183 203 228
185 203 228
183 202 228
183 202 228
182 202 228
183 203 228
183 202 228
183 202 228
182 202 228
182 202 228
182 202 228
181 201 228
183 202 228
181 201 228
181 201 228
182 202 228
180 201 228
183 202 228
182 202 228
181 201 228
181 202 228
181 201 228
180 201 228
181 201 228
180 201 228
180 201 228
180 201 228
180 201 228
180 201 228
180 201 228
181 201 228
180 201 228
179 200 228
180 201 228
180 201 228
180 201 228
179 200 228
180 201 228
179 200 228
179 200 228
180 201 228
179 201 228
179 200 228
179 200 228
178 200 228
179 200 228
178 200 228
180 201 228
179 200 228
178 200 228
179 200 228
178 200 228
176 199 228
178 199 228
178 200 228
177 199 228
178 200 228
179 200 228
177 199 228
178 200 228
178 200 228
178 199 228
177 199 228
178 200 228
177 199 228
177 199 228
177 199 228
178 200 228
177 199 228
177 199 228
176 198 228
175 197 227
171 194 224
166 188 220
165 187 220
159 182 216
154 177 212
158 181 215
157 180 212
157 180 215
149 173 209
149 172 208
151 174 209
135 159 200
141 165 204
146 169 207
130 154 193
137 160 198
137 161 200
125 148 192
134 157 197
131 154 195
142 165 201
135 158 197
138 160 198
135 157 196
149 170 206
156 176 209
161 180 210
165 184 211
162 178 201
162 177 198
162 176 196
213 230 253
215 232 255
215 232 255
215 232 255
215 232 255
215 232 255
215 232 255
215 232 255
201 219 245
58 92 157
59 94 159
57 91 149
58 93 156
58 93 147
58 93 146
61 96 160
58 93 146
59 93 148
61 96 161
61 96 157
59 94 150
62 97 156
61 96 157
60 95 146
60 96 151
62 97 155
60 96 154
61 97 152
62 98 160
61 96 150
61 96 153
61 97 158
61 97 154
60 95 150
61 96 146
61 97 155
61 97 146
61 97 153
61 96 148
61 96 153
61 97 151
62 97 156
60 95 144
60 96 145
62 98 157
62 97 157
61 97 151
61 96 151
60 95 149
61 96 155
61 97 155
61 96 152
61 97 152
61 97 156
62 98 154
61 97 154
60 95 143
61 96 147
60 95 148
62 98 157
61 97 148
61 97 153
61 96 151
61 96 148
61 96 151
60 95 145
61 96 150
60 95 148
61 96 149
61 97 149
61 95 148
61 96 146
61 96 153
60 95 151
60 95 153
61 96 153
61 95 144
61 97 153
61 95 145
62 97 156
60 95 148
60 95 148
61 95 147
60 95 151
60 95 147
60 95 152
60 94 142
59 93 146
60 94 148
60 94 143
61 96 150
61 95 152
61 94 151
58 91 139
58 90 140
59 92 146
60 94 152
60 93 148
60 94 150
59 91 148
56 88 142
55 85 134
75 102 150
197 214 240
215 232 255
215 232 255
215 232 255
215 232 255
215 232 255
215 232 255
215 232 255
213 230 253
136 138 119
125 124 79
116 116 78
123 121 80
110 111 78
96 98 68
121 122 85
127 127 87
110 112 78
115 116 80
114 115 82
111 112 76
123 125 88
116 118 83
121 122 84
117 118 82
115 116 81
123 124 85
129 128 86
139 138 92
142 141 95
135 135 93
139 138 93
141 140 93
137 136 90
139 138 90
141 139 90
152 150 99
146 144 93
143 142 91
150 148 95
145 144 98
149 147 96
148 145 92
160 156 102
154 151 98
159 155 100
159 156 102
152 150 97
160 157 98
158 156 102
160 156 99
158 154 95
166 162 104
163 158 98
166 161 103
164 161 101
168 163 104
164 159 97
165 160 102
170 166 104
160 155 97
168 164 102
162 158 99
169 164 100
169 164 100
168 163 102
170 165 102
171 166 100
170 164 97
167 162 97
171 165 103
171 166 103
167 162 98
172 167 101
174 169 106
171 166 103
173 168 101
167 162 98
174 167 102
169 165 100
171 165 101
173 167 98
169 165 100
173 168 102
171 165 98
173 167 103
171 166 100
176 169 101
164 159 94
174 167 100
175 168 99
172 166 100
174 168 104
172 166 100
166 161 97
174 168 101
172 166 97
172 164 101
164 159 95
169 163 94
174 168 103
166 160 94
170 164 99
175 168 104
164 158 93
172 167 100
165 159 99
171 166 99
162 156 87
164 158 93
168 163 101
165 160 95
167 161 95
164 158 90
168 162 97
166 160 91
166 160 96
170 164 99
162 157 90
167 161 95
164 158 93
166 160 99
162 157 87
166 161 95
160 153 92
166 160 93
159 153 90
166 160 93
168 163 99
158 153 90
164 158 92
168 161 95
162 156 92
160 154 89
162 156 89
167 162 97
162 155 89
162 156 95
157 152 85
166 161 99
165 160 96
159 154 93
157 152 85
156 149 87
170 162 97
158 152 88
155 150 83
168 162 97
162 155 87
149 145 85
157 152 89
164 157 94
161 155 89
188 205 228
189 206 228
189 206 228
185 204 228
186 204 228
186 204 228
188 205 228
187 204 228
186 204 228
186 204 228
187 205 228
188 205 228
188 205 228
186 204 228
187 205 228
186 204 228
186 204 228
186 204 228
186 204 228
185 204 228
185 204 228
184 203 228
186 204 228
185 204 228
186 204 228
187 205 228
185 204 228
185 204 228
184 203 228
184 203 228
185 203 228
184 203 228
184 203 228
185 204 228
184 203 228
186 204 228
185 203 228
184 203 228
184 203 228
184 203 228
185 203 228
184 203 228
183 202 228
184 203 228
183 203 228
183 202 228
182 202 228
183 203 228
183 202 228
182 202 228
183 203 228
183 203 228
183 202 228
182 202 228
183 202 228
182 202 228
181 202 228
182 202 228
182 202 228
183 202 228
183 202 228
182 202 228
182 202 228
182 202 228
182 202 228
181 201 228
182 202 228
182 202 228
181 201 228
181 201 228
181 202 228
181 201 228
181 201 228
180 201 228
180 201 228
180 201 228
180 201 228
179 200 228
180 201 228
181 201 228
179 200 228
181 201 228
179 200 228
181 201 228
180 201 228
178 200 228
180 201 228
179 200 228
180 201 228
180 201 228
179 200 228
179 200 228
178 200 228
178 200 228
180 201 228
180 201 228
178 200 228
180 201 228
178 200 228
178 200 228
179 200 228
179 200 228
178 200 228
179 200 228
179 200 228
179 200 228
178 199 228
179 200 228
178 200 228
179 200 228
176 198 227
174 196 225
170 192 223
165 187 218
163 186 218
164 186 219
159 182 216
161 184 216
151 175 212
153 176 211
150 173 207
149 172 208
142 165 203
150 173 210
140 164 200
136 160 197
135 158 196
142 166 202
135 158 195
121 145 187
125 149 192
124 148 189
121 145 189
125 148 192
137 160 198
130 152 192
134 156 196
148 169 205
142 163 200
150 170 205
155 174 204
160 177 203
166 183 206
156 171 190
194 210 230
215 232 255
215 232 255
215 232 255
215 232 255
215 232 255
215 232 255
215 232 255
149 168 207
56 90 155
57 91 151
59 94 159
59 93 155
58 93 152
60 96 155
60 95 152
60 95 144
59 94 149
60 94 149
60 95 154
61 96 155
61 96 154
62 97 159
61 96 158
60 96 150
61 97 159
61 97 156
60 94 147
59 94 144
62 97 155
62 97 154
62 97 152
61 96 154
61 96 152
61 96 154
61 97 152
62 97 154
62 97 156
61 96 154
60 95 146
60 96 152
62 98 161
62 98 155
61 96 151
61 97 153
60 95 146
61 97 153
61 96 153
60 94 135
61 97 152
61 96 152
61 96 156
61 96 149
62 98 157
61 96 152
61 96 148
61 97 155
62 97 151
60 95 151
59 94 143
61 97 151
62 98 158
62 97 154
62 97 152
61 97 153
60 96 149
62 97 150
60 95 144
59 94 140
61 96 149
62 97 154
62 96 152
61 96 148
62 96 146
62 98 156
61 96 148
61 97 150
60 96 153
61 96 158
62 97 159
61 94 149
61 95 143
61 95 152
60 94 141
60 94 142
60 95 145
60 94 152
60 94 144
60 95 150
60 95 147
60 95 152
60 94 146
59 93 146
58 92 140
59 93 140
58 91 132
58 91 143
60 93 147
58 90 145
59 92 149
57 88 142
58 90 143
57 88 137
146 164 195
215 232 255
215 232 255
215 232 255
215 232 255
215 232 255
215 232 255
215 232 255
177 187 196
118 116 73
116 115 78
107 107 73
116 115 78
106 108 76
111 112 76
113 113 79
109 111 78
109 110 77
108 110 77
109 112 81
114 116 80
125 126 87
110 112 78
127 128 87
120 121 84
122 123 85
120 121 84
118 119 83
129 129 89
133 133 91
134 134 90
124 124 85
131 131 90
140 141 94
144 142 92
149 147 92
142 140 91
151 150 96
151 149 97
150 148 94
151 149 98
148 146 94
152 150 95
151 148 95
156 153 101
157 154 95
157 153 94
150 147 93
163 160 98
158 155 100
160 157 100
159 156 100
159 155 95
161 158 99
162 158 97
164 161 102
164 160 96
167 162 99
165 161 102
168 163 99
164 161 103
165 160 97
169 164 103
164 159 95
160 155 96
166 162 102
171 165 99
168 164 100
169 164 103
167 162 99
168 163 99
167 162 97
168 164 97
170 164 99
173 167 103
171 165 98
171 166 100
171 166 103
173 166 103
170 163 98
171 166 104
175 169 105
171 165 97
175 169 103
170 165 100
172 167 99
167 162 96
173 167 101
175 169 100
174 168 98
170 165 101
170 165 100
176 169 107
174 167 99
171 164 95
170 164 97
175 169 100
171 165 101
166 161 89
169 163 96
167 162 95
170 164 100
167 161 96
167 160 93
170 165 99
170 164 99
166 161 94
167 161 96
168 162 97
163 158 91
167 161 96
164 157 95
175 168 103
166 161 95
166 161 95
172 165 99
170 164 99
167 162 91
167 161 97
166 160 91
165 159 91
160 155 89
167 161 93
162 156 89
167 162 95
168 162 95
163 158 90
164 158 88
165 158 93
172 166 97
160 155 88
168 162 95
160 155 92
165 160 88
163 158 90
161 154 89
162 157 89
163 157 94
162 157 93
160 155 84
162 155 92
164 159 96
158 153 87
159 154 89
164 158 90
154 149 83
159 154 90
152 147 85
157 152 87
158 153 89
156 151 90
154 149 88
160 153 85
188 205 228
189 206 228
188 205 228
188 205 228
188 205 228
187 205 228
187 205 228
189 206 228
188 205 228
187 205 228
187 204 228
187 205 228
187 205 228
187 204 228
188 205 228
188 205 228
187 205 228
186 204 228
185 204 228
186 204 228
186 204 228
186 204 228
187 204 228
186 204 228
186 204 228
186 204 228
185 204 228
184 203 228
185 203 228
186 204 228
185 204 228
186 204 228
184 203 228
184 203 228
184 203 228
185 204 228
185 203 228
184 203 228
185 203 228
185 204 228
184 203 228
184 203 228
184 203 228
184 203 228
182 202 228
184 203 228
185 203 228
183 202 228
183 203 228
184 203 228
185 203 228
183 203 228
183 203 228
183 202 228
184 203 228
183 203 228
184 203 228
183 203 228
182 202 228
181 201 228
183 202 228
182 202 228
182 202 228
182 202 228
183 202 228
182 202 228
182 202 228
183 202 228
182 202 228
181 201 228
181 202 228
182 202 228
182 202 228
182 202 228
182 202 228
181 201 228
181 201 228
181 201 228
181 201 228
181 201 228
181 201 228
181 201 228
181 201 228
181 201 228
180 201 228
181 201 228
180 201 228
180 201 228
182 202 228
181 201 228
180 201 228
181 201 228
180 201 228
180 201 228
179 200 228
179 200 228
179 200 228
180 201 228
180 201 228
180 201 228
180 201 228
178 200 228
179 201 228
180 201 228
179 200 228
179 200 228
180 201 228
180 201 228
179 200 228
179 200 228
175 196 225
171 193 222
165 187 218
168 189 220
164 185 218
159 180 213
159 181 215
146 169 204
152 175 209
149 172 206
146 169 203
139 162 197
131 154 192
137 160 198
137 161 197
139 162 198
131 154 196
127 150 190
121 145 188
123 147 189
119 143 185
110 133 178
126 149 190
117 140 184
121 144 184
126 148 189
130 151 189
123 144 185
142 163 199
147 167 202
153 172 204
162 180 208
163 181 205
163 178 199
160 174 192
215 232 255
216 232 255
216 232 255
216 232 255
216 232 255
215 232 255
211 228 252
70 99 154
57 90 150
58 92 150
58 93 151
60 95 160
58 93 147
60 95 150
59 94 152
60 96 155
60 96 154
60 95 150
58 92 144
61 96 155
59 94 146
59 93 148
60 95 154
59 94 141
62 98 163
61 96 148
60 94 142
61 96 160
62 98 165
61 96 154
60 95 149
61 96 154
59 94 144
62 97 153
61 97 154
61 96 154
61 97 151
60 95 147
61 96 142
61 96 152
61 97 152
60 95 139
61 97 153
60 95 141
61 96 141
62 97 154
61 96 150
63 99 161
61 96 151
61 96 151
63 99 161
61 96 149
63 98 162
60 96 150
61 96 143
60 95 142
62 97 154
61 97 152
61 96 145
60 95 148
61 96 150
60 95 143
60 95 141
60 95 144
61 97 156
61 96 147
60 95 140
60 96 140
59 94 142
61 95 152
60 95 146
60 95 147
60 94 146
61 96 151
61 96 152
61 96 145
60 94 139
61 96 142
61 96 153
60 95 152
61 96 152
61 96 155
60 95 149
59 93 139
60 95 152
60 94 145
61 96 148
57 90 139
60 94 145
61 96 154
59 92 143
58 92 145
58 91 143
59 92 150
58 92 148
57 89 138
57 87 131
56 87 132
57 89 141
56 87 136
57 89 137
55 85 132
92 113 149
212 229 253
215 232 255
216 232 255
216 232 255
216 232 255
216 232 255
214 231 253
135 137 117
110 109 71
111 112 76
110 110 76
107 108 74
108 109 75
103 105 76
107 109 76
107 109 78
107 108 77
125 126 87
107 109 77
112 114 80
118 120 84
114 116 81
119 120 83
123 124 86
124 125 85
121 122 82
123 124 85
126 128 87
137 136 92
130 130 89
131 131 86
125 125 87
142 141 92
149 148 97
137 137 92
149 146 96
155 151 94
148 146 95
156 153 100
153 151 99
155 151 96
147 144 90
153 151 98
154 152 99
149 147 93
155 152 98
160 156 98
156 152 96
163 158 100
160 157 100
161 156 99
165 161 99
162 158 96
163 159 98
163 158 100
164 160 102
165 160 96
164 160 97
163 158 97
159 156 97
165 160 98
165 161 98
166 161 99
172 167 103
170 164 99
166 162 103
171 166 103
170 165 100
170 165 102
171 166 102
162 157 95
169 164 102
173 167 104
166 162 95
172 166 103
168 164 95
169 163 95
166 162 96
171 166 101
170 165 96
170 165 100
171 165 99
172 166 98
172 167 99
171 166 99
169 164 99
169 163 91
167 162 99
170 165 101
177 170 101
168 163 98
170 165 98
169 164 95
172 166 101
171 165 100
171 165 102
168 162 90
165 160 91
168 162 95
174 168 103
173 167 101
166 161 95
169 163 95
170 163 99
173 167 100
171 165 95
169 163 95
171 165 101
169 163 96
169 164 99
169 163 95
167 162 95
167 161 95
165 159 92
169 163 99
169 162 94
167 161 93
169 162 93
169 164 94
165 160 96
167 160 91
166 159 93
157 153 85
159 154 89
161 155 92
164 159 89
165 158 92
168 162 95
166 158 95
165 160 91
169 163 99
168 162 93
168 161 95
165 159 91
160 154 89
167 162 93
162 156 88
159 154 87
167 162 96
165 159 90
162 157 93
158 152 88
154 149 79
154 150 84
160 154 86
147 141 78
163 158 93
154 149 84
162 155 90
161 154 85
159 154 93
151 146 80
189 206 226
188 205 227
189 205 226
188 205 228
189 206 228
188 205 228
188 205 228
189 205 228
187 205 228
188 205 228
188 205 228
189 206 228
186 204 228
187 204 228
188 205 228
188 205 228
187 205 228
188 205 228
187 204 228
188 205 228
187 205 228
187 205 228
186 204 228
186 204 228
187 204 228
187 205 228
186 204 228
187 204 228
186 204 228
186 204 228
186 204 228
186 204 228
186 204 228
186 204 228
185 203 228
185 203 228
185 204 228
186 204 228
185 204 228
185 203 228
185 203 228
185 204 228
186 204 228
184 203 228
185 204 228
185 204 228
185 203 228
185 204 228
186 204 228
184 203 228
184 203 228
184 203 228
184 203 228
184 203 228
185 204 228
183 203 228
183 203 228
183 202 228
184 203 228
183 203 228
184 203 228
183 202 228
184 203 228
183 203 228
185 203 228
183 202 228
181 202 228
183 202 228
184 203 228
182 202 228
183 203 228
183 202 228
184 203 228
182 202 228
181 201 228
182 202 228
182 202 228
182 202 228
181 202 228
182 202 228
181 201 228
182 202 228
181 201 228
180 201 228
182 202 228
182 202 228
181 201 228
182 202 228
181 201 228
183 202 228
181 202 228
180 201 228
180 201 228
180 201 228
180 201 228
181 201 228
181 201 228
181 201 228
182 202 228
180 201 228
181 201 228
180 201 228
181 201 228
181 201 228
180 201 228
180 201 228
179 200 228
180 201 228
181 201 228
177 198 226
177 198 226
170 190 220
165 186 218
167 188 217
161 182 214
159 180 212
154 177 209
158 180 212
158 181 213
155 177 209
145 168 202
135 158 195
139 161 197
135 158 193
128 151 192
119 143 185
114 137 178
117 141 183
104 128 174
105 129 174
105 130 174
119 142 184
108 131 175
112 135 182
116 139 183
125 147 188
103 125 170
135 156 192
128 150 189
142 163 197
149 168 200
149 168 200
150 167 195
165 181 203
165 180 198
201 217 238
216 233 255
216 233 255
216 233 255
216 232 255
216 232 255
182 199 227
58 92 157
56 90 142
57 91 148
60 94 155
58 92 146
60 95 156
60 95 161
57 91 138
59 94 148
59 94 146
60 96 150
61 96 152
60 96 156
60 95 144
59 94 147
60 95 145
60 96 151
59 94 141
60 95 144
60 95 142
61 96 145
60 95 147
60 95 142
61 96 147
60 95 147
61 96 146
60 95 151
61 96 147
62 97 149
61 96 144
61 96 150
61 96 144
61 96 145
62 97 152
62 97 158
61 96 152
62 98 162
61 96 151
61 95 148
62 97 151
61 97 149
61 96 150
62 97 154
60 95 141
60 95 148
61 97 143
60 95 143
62 98 155
61 96 147
61 96 152
61 96 143
61 96 144
60 96 153
60 95 143
61 97 145
61 96 150
61 96 145
61 96 146
60 95 145
61 96 149
61 96 153
60 96 143
58 93 137
60 94 139
62 98 161
61 96 152
61 96 154
60 95 142
61 96 151
61 97 149
61 96 149
61 96 154
62 96 156
60 95 146
60 94 148
61 96 152
59 93 145
61 96 154
59 92 141
60 93 140
61 96 151
60 94 147
59 93 150
60 93 140
59 92 144
58 91 137
59 92 139
58 92 143
59 92 144
58 90 137
59 92 146
57 88 138
57 89 136
56 86 135
56 87 132
55 87 135
177 194 219
216 232 255
216 232 255
216 232 255
216 233 255
216 233 255
179 189 195
118 115 72
108 106 69
99 99 65
106 107 74
102 104 73
103 105 75
101 103 73
115 117 81
105 108 78
113 114 80
105 106 74
124 125 86
106 108 76
131 131 90
108 109 76
117 119 82
126 126 87
113 116 82
125 125 83
118 119 81
132 131 88
133 133 88
141 140 95
129 129 87
134 134 92
137 136 91
139 138 93
144 142 94
149 148 94
149 147 96
146 143 90
153 151 99
148 146 95
156 153 101
154 151 96
157 154 102
153 151 97
160 157 100
159 156 98
158 155 99
158 156 99
161 158 99
157 154 99
164 160 99
159 154 94
156 153 93
164 160 101
162 158 96
161 158 95
168 162 101
158 154 96
170 165 101
169 164 103
169 164 100
160 155 96
163 158 98
167 163 100
172 166 99
163 159 96
171 167 102
166 162 93
171 165 100
170 165 99
164 160 97
166 161 99
172 166 98
171 166 101
172 167 100
168 162 99
171 166 101
172 167 98
172 167 103
174 168 101
173 167 100
171 165 95
173 167 101
173 168 101
173 167 100
170 164 96
172 166 95
171 164 97
176 169 98
171 166 97
178 170 102
174 167 101
174 169 104
172 166 93
170 164 97
173 167 99
170 164 93
172 166 98
169 164 95
172 166 94
169 164 94
165 160 94
171 165 99
171 164 95
168 162 97
170 164 95
173 167 98
166 160 95
169 163 98
170 164 97
169 163 95
168 161 96
168 163 95
165 159 89
168 162 96
165 160 92
173 168 99
171 165 99
167 162 93
170 163 99
164 159 91
163 159 91
164 159 93
159 153 87
164 159 92
167 161 93
166 160 95
162 156 89
168 162 97
163 157 93
169 163 94
162 157 90
163 157 93
160 155 92
154 150 86
164 158 90
166 160 96
163 157 92
163 157 91
159 154 90
164 157 89
163 157 89
161 155 93
153 148 80
167 161 92
164 158 92
163 157 93
163 156 91
162 156 90
155 150 82
159 153 89
154 148 84
189 206 225
189 206 227
189 206 227
188 205 225
189 205 227
188 205 228
189 206 228
189 206 228
189 206 228
188 205 227
188 205 228
189 206 228
187 205 228
189 205 228
189 206 228
189 205 228
187 205 228
188 205 228
187 205 228
188 205 228
187 205 228
187 204 228
189 206 228
187 205 228
189 206 228
188 205 228
186 204 228
187 204 228
186 204 228
187 205 228
187 204 228
186 204 228
186 204 228
186 204 228
187 204 228
186 204 228
187 205 228
185 204 228
186 204 228
187 204 228
186 204 228
186 204 228
186 204 228
186 204 228
185 204 228
186 204 228
186 204 228
184 203 228
185 204 228
185 204 228
185 203 228
185 203 228
185 203 228
186 204 228
185 204 228
185 204 228
183 203 228
186 204 228
184 203 228
186 204 228
185 203 228
185 203 228
183 202 228
185 204 228
184 203 228
184 203 228
183 203 228
183 202 228
182 202 228
183 203 228
184 203 228
184 203 228
184 203 228
183 202 228
184 203 228
182 202 228
182 202 228
184 203 228
182 202 228
183 202 228
183 202 228
182 202 228
183 202 228
183 202 228
183 203 228
183 203 228
182 202 228
183 203 228
183 202 228
181 201 228
181 201 228
182 202 228
182 202 228
182 202 228
180 201 228
181 201 228
181 202 228
182 202 228
182 202 228
182 202 228
181 202 228
181 201 228
183 202 228
180 201 228
182 202 228
181 201 228
182 202 228
181 201 228
179 199 226
173 193 221
170 190 217
174 195 225
171 192 221
166 187 217
168 188 216
160 182 212
155 176 207
156 178 209
147 168 205
146 169 203
136 158 194
141 163 198
126 149 187
133 156 193
124 147 187
120 143 182
124 146 184
125 149 191
108 131 172
107 131 176
110 133 176
97 121 166
95 119 166
106 129 174
105 128 177
102 124 170
108 130 175
116 138 179
120 141 182
134 155 195
143 162 197
141 159 192
154 172 202
165 182 206
153 168 184
161 175 191
216 233 255
216 233 255
216 233 255
216 233 255
216 233 255
127 147 187
58 91 153
57 92 149
58 91 147
59 93 149
58 93 149
59 94 157
60 94 147
59 93 144
60 95 153
60 95 154
60 95 159
60 95 145
59 94 146
61 96 158
60 95 144
60 95 141
60 95 145
60 95 153
59 94 143
62 97 154
60 95 143
61 96 153
60 95 143
61 97 155
62 97 154
59 94 144
61 96 147
61 97 149
61 97 150
61 96 149
60 96 148
62 97 154
61 97 147
61 96 144
61 96 149
62 97 148
62 97 157
63 98 161
61 96 150
60 95 150
61 96 149
61 96 147
61 97 148
62 98 158
60 95 139
61 96 140
61 96 145
62 96 151
61 96 151
61 96 153
60 96 139
60 94 140
61 97 148
61 97 155
60 95 151
61 96 151
61 96 148
61 96 152
60 95 140
61 96 150
63 98 161
61 96 153
60 94 142
61 95 147
61 96 149
60 94 145
60 95 145
60 94 143
62 98 155
61 96 144
61 96 156
61 96 152
60 95 146
60 95 141
61 95 146
60 95 147
59 93 143
60 94 145
60 95 147
61 95 148
61 96 152
58 92 137
59 93 145
59 93 149
58 91 141
61 95 151
57 89 132
60 93 146
59 91 142
58 91 146
58 91 139
56 88 135
58 90 147
56 88 131
55 86 136
54 84 134
133 151 182
216 233 255
216 233 255
216 233 255
216 233 255
216 233 255
149 152 140
102 102 68
115 114 78
106 106 74
100 101 71
95 97 69
101 103 72
95 98 71
88 91 65
99 102 74
99 103 74
102 105 76
102 105 73
107 108 74
110 111 79
112 114 80
112 115 80
123 124 86
122 123 84
129 129 85
131 131 89
133 133 90
126 127 84
127 127 84
128 127 82
134 134 88
140 138 85
140 139 90
137 137 88
147 144 91
151 149 96
139 137 88
146 145 95
153 150 95
147 143 91
150 147 95
160 158 102
152 150 96
148 146 90
156 154 98
152 150 91
152 150 93
153 151 98
158 154 95
165 160 97
161 157 97
165 161 98
160 157 94
160 155 96
162 157 97
169 164 99
165 161 98
165 161 100
162 158 99
168 163 98
170 165 104
171 165 103
173 168 103
169 163 99
169 163 101
169 164 98
169 164 98
175 169 102
167 162 100
172 167 101
171 166 99
171 165 97
170 165 99
170 164 94
172 166 92
172 166 98
172 167 101
175 169 100
171 166 99
171 165 97
172 166 100
174 168 100
171 167 99
168 162 95
173 167 101
170 164 96
173 168 103
173 167 98
172 166 97
170 164 97
172 165 100
174 168 100
170 164 95
172 167 100
169 164 99
166 161 90
170 165 95
168 162 93
171 165 99
170 164 99
168 162 95
173 167 99
173 166 97
172 165 97
170 164 97
167 160 94
170 164 94
167 162 95
170 165 97
164 159 91
170 163 97
168 162 89
168 163 95
162 157 90
165 159 95
167 162 95
169 162 95
164 158 93
162 156 84
168 161 93
168 162 94
165 159 93
161 155 91
166 159 93
171 164 95
165 160 89
161 156 90
161 156 95
164 158 91
169 163 94
162 156 93
158 153 92
161 154 90
162 156 87
157 152 84
167 160 95
162 155 87
168 162 93
160 153 90
167 160 99
158 153 90
156 151 85
166 161 92
160 154 87
164 158 93
156 150 83
157 152 83
157 152 87
155 149 83
156 150 87
156 151 88
189 205 225
187 204 221
187 204 224
188 205 226
187 204 225
188 205 224
187 204 225
186 204 224
189 206 227
187 204 224
188 205 223
188 205 227
189 206 226
188 205 227
190 206 227
188 205 226
189 205 228
188 205 228
190 206 228
188 205 228
188 205 228
188 205 228
188 205 228
189 206 228
187 205 228
189 206 228
189 206 228
190 206 228
188 205 228
186 204 228
186 204 228
186 204 228
187 205 228
188 205 228
188 205 228
187 204 228
186 204 228
187 204 228
186 204 228
185 203 228
185 204 228
186 204 228
188 205 228
187 204 228
185 204 228
186 204 228
185 203 228
186 204 228
185 203 228
186 204 228
186 204 228
186 204 228
185 204 228
186 204 228
186 204 228
185 204 228
187 205 228
185 204 228
184 203 228
185 204 228
185 204 228
185 204 228
186 204 228
186 204 228
186 204 228
185 203 228
185 203 228
186 204 228
185 204 228
185 203 228
183 203 228
185 203 228
182 202 228
184 203 228
185 203 228
184 203 228
182 202 228
183 203 228
183 202 228
182 202 228
183 203 228
184 203 228
183 202 228
183 202 228
182 202 228
183 202 228
184 203 228
184 203 228
182 202 228
183 202 228
183 202 228
182 202 228
183 202 228
183 202 228
181 202 228
182 202 228
183 203 228
183 202 228
182 202 228
182 202 228
182 202 228
182 202 228
183 202 228
181 202 228
183 202 228
182 202 228
182 202 228
181 201 226
177 197 225
176 195 223
169 189 217
170 190 217
172 192 220
165 186 216
164 185 215
158 179 210
159 180 212
150 171 205
148 170 205
147 169 201
128 150 186
135 157 194
132 154 191
126 149 188
125 148 187
114 137 179
113 136 176
115 138 182
103 128 174
100 124 167
104 128 174
96 120 164
93 117 164
103 127 174
90 114 162
94 117 165
91 114 163
101 124 168
101 123 167
107 128 171
127 146 181
134 153 190
139 157 188
145 162 189
166 182 201
153 167 180
211 227 248
216 233 255
216 233 255
216 233 255
209 226 250
70 99 156
57 90 152
57 92 154
56 89 144
58 92 149
58 92 140
59 93 149
59 93 148
58 92 146
59 93 145
61 95 149
60 95 152
60 95 144
60 95 140
60 95 146
60 94 145
60 94 143
60 95 143
60 95 142
60 95 148
62 97 154
59 93 134
60 95 139
61 96 143
60 95 148
62 97 150
60 95 142
62 97 155
61 96 148
60 96 149
61 96 148
62 98 150
59 94 140
60 95 142
60 95 138
62 97 157
61 96 151
61 96 152
62 98 157
59 94 134
60 95 139
61 96 151
61 96 145
61 96 153
60 96 145
61 96 145
61 96 153
62 97 155
61 97 147
60 96 142
60 94 143
62 97 155
61 96 154
62 97 149
61 95 141
61 96 145
62 97 153
62 98 156
62 97 148
61 96 149
60 94 139
61 96 148
59 94 142
60 94 133
61 96 152
60 95 141
62 97 152
61 96 151
60 95 151
60 95 142
59 93 143
60 95 142
60 94 149
61 96 154
60 93 142
60 95 146
59 93 144
60 95 146
59 93 135
61 95 148
59 93 139
60 95 144
58 91 136
60 94 148
60 95 141
61 94 143
58 90 141
58 92 140
58 91 133
59 91 130
59 92 146
59 92 139
57 89 138
58 91 141
59 92 146
56 87 136
56 88 141
69 95 137
211 228 251
216 233 255
216 233 255
216 233 255
204 219 237
110 108 68
104 103 68
101 102 71
97 97 66
88 91 66
84 88 63
92 95 67
89 92 66
105 108 77
102 105 76
107 110 76
104 109 80
98 100 70
110 112 79
104 107 74
119 121 84
114 115 80
124 125 84
117 119 81
120 121 82
111 112 76
135 135 91
128 127 86
133 131 87
137 136 89
136 136 87
135 134 88
139 137 84
147 143 94
154 150 95
136 135 85
149 146 94
143 142 91
144 142 91
157 154 98
150 148 97
145 144 93
156 152 95
157 153 96
154 152 98
157 154 96
165 160 99
160 156 94
159 156 98
157 153 89
165 161 99
162 158 95
159 155 93
163 160 101
158 155 94
163 159 100
159 156 92
168 164 103
161 158 100
160 156 94
170 165 104
172 166 102
167 162 100
168 163 98
169 162 99
170 164 102
165 162 93
168 163 97
166 161 92
169 164 100
171 166 98
169 163 95
170 165 100
167 161 95
170 165 98
175 169 103
175 168 98
173 167 100
170 164 97
173 167 98
170 165 97
173 166 95
172 166 99
168 163 97
169 164 97
173 166 98
171 165 98
172 166 98
168 163 95
170 163 95
171 165 94
171 165 96
172 166 99
171 165 97
174 168 101
173 166 103
171 165 99
172 166 99
171 165 98
169 163 94
168 163 95
167 161 95
170 163 93
170 164 99
170 164 96
168 162 92
170 163 96
171 165 96
168 162 96
165 159 91
165 159 93
168 161 91
171 165 94
165 159 93
162 157 90
167 161 93
167 161 89
170 164 97
169 163 97
166 160 93
169 164 96
162 157 85
162 157 92
169 162 94
157 152 86
162 156 89
161 156 90
165 159 94
161 155 89
163 157 93
162 157 89
165 159 90
164 158 91
165 158 93
162 156 85
164 158 87
160 154 93
155 150 86
162 156 91
162 155 85
159 153 85
163 156 93
161 155 92
158 152 88
161 154 88
163 158 91
165 158 93
156 150 85
162 157 90
155 149 84
158 152 85
188 205 224
187 204 218
188 205 221
187 204 219
188 204 219
188 204 221
187 204 223
189 205 225
187 204 221
188 204 223
188 205 225
188 205 225
189 205 226
189 205 225
188 205 225
188 205 226
189 205 226
189 205 225
188 205 225
188 205 228
188 205 227
188 205 228
188 205 228
190 206 228
187 205 227
189 206 228
189 206 228
187 205 228
188 205 228
188 205 228
188 205 228
188 205 228
188 205 228
187 205 228
188 205 228
188 205 228
187 205 228
188 205 228
187 205 228
188 205 228
186 204 228
187 205 228
188 205 228
187 204 228
188 205 228
188 205 228
187 205 228
187 204 228
186 204 228
186 204 228
186 204 228
185 204 228
186 204 228
185 204 228
186 204 228
186 204 228
185 204 228
186 204 228
185 204 228
186 204 228
185 204 228
184 203 228
185 204 228
186 204 228
186 204 228
185 203 228
186 204 228
185 203 228
186 204 228
184 203 228
186 204 228
186 204 228
184 203 228
183 202 228
185 203 228
185 204 228
184 203 228
184 203 228
185 204 228
184 203 228
184 203 228
184 203 228
184 203 228
183 203 228
183 202 228
183 203 228
184 203 228
185 203 228
185 203 228
183 203 228
183 202 228
184 203 228
184 203 228
183 202 228
184 203 228
184 203 228
184 203 228
183 203 228
183 202 228
182 202 228
184 203 228
185 203 228
184 203 228
183 203 228
183 202 228
183 203 228
183 202 227
180 198 223
177 197 223
177 195 221
173 193 221
169 188 216
164 184 212
160 181 209
158 179 209
151 172 203
151 172 202
143 164 198
146 168 200
136 157 191
133 155 190
135 157 195
135 157 191
123 146 187
122 145 184
108 132 175
113 136 176
105 128 171
107 131 174
86 110 157
94 119 167
90 114 158
90 114 161
75 101 155
83 108 161
91 114 162
87 110 156
88 110 158
95 117 164
100 121 166
102 122 163
118 138 176
138 156 189
132 150 180
146 163 192
162 177 194
181 195 212
217 233 255
217 233 255
217 233 255
181 198 225
55 88 149
57 91 157
56 90 143
57 91 146
58 92 149
57 90 135
58 92 146
58 93 150
60 95 152
60 95 150
60 95 145
60 96 153
61 96 153
59 94 140
59 93 144
61 96 149
61 96 152
59 93 143
61 96 147
60 95 145
61 95 146
61 96 149
60 96 143
61 97 160
60 95 139
61 97 153
61 95 144
62 97 153
60 95 141
61 97 155
61 97 147
61 97 151
61 97 151
59 94 141
60 95 143
61 96 150
61 95 138
60 95 140
61 96 145
62 97 149
61 97 148
62 97 155
61 97 152
61 96 143
61 96 141
60 95 143
62 97 155
61 95 145
60 95 144
60 95 144
62 97 148
61 97 150
60 96 144
60 95 139
60 95 137
61 96 145
62 97 155
60 95 137
60 95 139
61 96 149
60 95 143
62 97 151
61 95 139
60 95 146
61 95 139
60 95 148
60 95 144
61 96 151
60 95 147
61 96 140
60 94 143
61 95 141
59 93 137
60 95 143
61 95 154
60 94 143
62 96 148
59 92 138
61 96 156
58 92 137
60 94 135
60 95 144
59 93 141
58 91 133
60 93 140
61 95 154
58 91 137
59 92 148
59 91 137
59 91 135
59 91 139
58 90 141
56 87 128
57 88 129
57 88 133
57 87 134
54 83 119
51 79 120
181 197 219
217 233 255
217 233 255
217 233 255
166 176 180
103 101 66
93 94 60
91 92 64
91 93 66
100 102 71
100 101 70
101 103 72
84 89 65
98 101 72
99 102 71
109 112 80
103 105 75
102 104 72
101 104 74
109 112 77
123 124 84
115 117 82
104 107 76
116 117 79
120 121 81
129 128 86
126 126 83
132 131 86
124 126 84
134 133 90
134 133 87
140 138 90
130 129 82
141 140 90
147 145 94
145 142 93
144 143 91
146 144 92
149 147 91
148 146 95
153 149 90
155 151 92
148 145 91
154 152 92
152 149 92
152 148 89
162 158 97
150 147 90
161 157 97
162 157 96
163 158 97
156 152 91
168 163 95
166 161 97
165 160 97
164 159 99
166 161 98
169 164 100
163 159 97
170 163 98
168 162 95
163 160 95
168 163 98
168 163 100
171 164 96
173 166 99
171 166 100
167 162 94
169 163 91
168 163 93
163 158 89
170 164 97
172 167 97
164 159 92
172 165 99
170 164 95
168 163 97
176 169 103
170 164 95
173 167 100
173 167 97
175 168 102
172 166 98
170 165 96
176 169 101
169 163 93
171 165 96
174 168 102
169 163 97
174 167 99
172 166 98
170 166 95
171 165 99
174 168 97
170 164 96
172 165 96
172 165 94
169 164 92
167 163 93
173 167 94
171 166 90
172 166 99
160 155 88
167 161 90
170 164 91
169 162 95
170 164 95
163 159 90
167 160 90
175 168 101
172 165 95
172 166 95
168 162 95
166 161 93
173 167 97
159 154 86
169 163 98
166 159 87
165 159 93
165 160 90
168 162 91
169 162 91
165 160 88
167 161 92
169 163 89
160 155 87
160 154 87
167 160 93
160 154 86
166 160 89
167 162 93
160 155 89
162 156 89
161 155 86
162 156 87
161 155 92
159 154 87
161 155 89
163 157 88
161 156 86
160 154 87
156 150 87
156 151 86
168 162 92
158 152 90
161 155 85
161 155 87
162 156 90
160 154 87
153 148 77
149 144 84
188 204 220
187 204 220
189 206 227
186 203 219
187 204 219
186 203 219
190 206 224
187 204 220
188 205 225
186 203 217
186 203 217
190 206 221
188 205 224
188 205 225
186 203 221
188 205 223
186 203 219
187 204 219
187 204 224
189 205 223
190 206 228
189 205 225
187 204 223
188 205 226
188 205 223
187 204 225
189 205 227
187 204 225
188 205 227
188 205 228
189 205 227
188 205 227
188 205 228
189 205 228
188 205 228
189 206 228
187 205 228
188 205 228
188 205 228
188 205 228
188 205 228
189 205 228
189 205 228
188 205 228
188 205 228
188 205 228
189 206 228
188 205 228
187 205 228
188 205 228
189 206 228
188 205 228
186 204 228
188 205 228
187 205 228
187 205 228
187 205 228
187 205 228
187 205 228
187 205 228
186 204 228
186 204 228
186 204 228
187 204 228
186 204 228
185 204 228
187 204 228
186 204 228
186 204 228
187 204 228
186 204 228
186 204 228
186 204 228
187 205 228
185 204 228
186 204 228
186 204 228
185 203 228
185 203 228
185 203 228
185 203 228
185 203 228
186 204 228
186 204 228
186 204 228
184 203 228
184 203 228
185 203 228
185 204 228
185 203 228
185 203 228
186 204 228
185 204 228
185 204 228
185 204 228
185 203 228
184 203 228
184 203 228
183 202 228
184 203 228
183 202 228
185 203 228
184 203 228
184 203 228
184 203 228
183 202 228
183 201 226
179 197 220
178 197 222
178 198 225
173 192 220
172 191 217
162 182 212
170 189 216
154 174 204
157 177 207
158 178 207
145 165 195
133 154 188
145 166 198
149 171 205
131 153 189
125 147 182
122 144 181
122 144 179
101 124 166
96 120 164
95 120 168
88 113 160
88 113 163
81 105 148
80 105 155
72 98 150
76 101 149
62 88 141
69 94 144
86 109 160
84 107 155
77 101 152
103 124 167
117 136 177
104 125 169
134 151 184
140 158 189
142 158 186
151 167 180
160 174 184
217 233 254
217 233 255
217 233 255
132 151 187
55 88 147
56 89 145
58 92 148
57 91 151
57 91 144
60 95 155
58 91 144
60 95 154
59 93 143
59 94 150
59 93 140
60 95 145
60 94 141
61 96 152
60 95 148
61 97 159
60 95 138
60 95 144
60 95 149
59 94 149
60 95 146
60 96 149
60 95 140
61 96 149
60 95 145
61 96 149
61 97 151
60 95 147
61 96 143
60 95 143
61 96 155
60 95 136
60 96 148
61 96 151
60 95 141
61 96 143
59 94 144
61 96 151
59 94 135
60 95 142
60 95 141
61 97 149
60 95 144
60 94 142
61 96 152
60 95 140
60 95 144
60 96 142
62 97 151
61 96 143
61 95 146
60 94 136
61 96 146
61 96 144
61 96 148
60 94 140
61 96 151
60 95 143
61 97 154
62 97 153
59 94 139
60 95 143
62 97 151
60 96 145
60 94 140
60 94 142
60 95 144
62 97 148
60 94 143
60 95 149
59 93 134
60 94 145
61 96 156
60 94 143
62 97 159
60 94 145
60 95 147
61 95 141
60 94 142
59 93 142
60 94 140
60 95 145
60 93 131
59 93 145
60 94 143
58 91 136
59 92 141
58 90 132
57 90 132
59 91 141
59 91 140
58 88 127
57 89 135
58 91 139
57 88 132
55 85 127
56 86 136
54 84 129
140 156 179
217 233 255
217 233 255
215 231 253
129 132 115
98 98 64
96 97 67
96 97 67
85 87 62
78 81 61
80 84 61
96 98 71
82 86 62
78 82 61
99 101 70
101 103 75
97 100 72
94 98 69
106 109 76
107 108 73
103 106 73
110 112 76
106 108 72
121 122 79
116 117 78
125 125 85
127 128 85
127 127 85
140 139 90
136 136 88
141 140 93
136 135 87
138 135 87
135 134 85
139 137 87
143 141 90
136 136 86
147 144 92
146 145 90
147 145 91
144 142 88
156 153 94
152 149 93
158 155 97
154 150 91
158 154 99
157 153 90
165 162 97
163 158 98
156 152 91
162 158 93
165 161 96
160 155 93
166 160 94
163 158 94
164 161 93
163 159 98
168 162 98
163 159 94
167 162 99
167 162 98
167 162 99
168 163 94
165 159 91
176 170 101
166 161 91
170 165 99
171 166 97
171 165 98
168 163 95
175 169 100
165 160 93
168 162 91
171 166 96
170 165 96
166 160 93
170 165 98
175 169 101
170 164 94
176 169 99
170 165 95
164 160 91
174 168 95
172 166 100
172 166 97
174 168 96
169 163 94
169 163 97
170 164 92
171 166 98
175 168 100
168 162 90
173 166 97
169 164 94
173 167 97
172 166 99
170 164 97
169 163 87
174 167 99
171 165 94
176 168 97
167 161 89
175 168 99
167 161 91
169 163 91
164 159 91
165 159 92
168 162 90
168 162 91
168 162 97
168 161 92
172 165 95
168 162 92
167 162 93
168 161 87
168 163 93
168 161 94
167 160 91
165 160 90
163 158 90
172 165 93
167 162 93
166 160 94
164 158 90
160 155 87
168 160 92
163 156 87
168 161 93
164 158 91
167 161 91
162 157 88
156 151 84
157 151 85
160 154 85
160 154 92
164 159 91
150 145 78
160 154 85
168 161 89
159 153 84
162 156 90
163 157 93
165 157 91
164 157 92
161 154 90
154 148 86
157 151 84
158 152 85
157 151 84
161 154 87
152 146 82
186 203 217
187 204 216
186 203 219
187 204 220
187 204 217
185 202 214
188 205 223
185 202 213
189 205 221
187 204 220
187 204 219
187 203 216
188 205 224
187 204 218
188 205 223
185 203 221
187 204 218
187 204 218
188 204 221
188 205 223
187 204 219
188 205 220
187 204 220
188 205 224
188 205 225
187 204 220
189 205 223
188 205 223
188 205 226
189 205 227
187 205 225
187 204 224
188 205 227
188 205 224
188 205 227
188 205 225
190 206 227
189 206 226
188 205 227
187 204 224
188 205 226
188 205 228
189 206 228
190 206 228
189 206 225
188 205 228
189 206 228
189 206 228
188 205 228
188 205 228
188 205 228
187 205 228
188 205 228
187 205 228
187 205 228
187 205 228
186 204 228
187 205 228
189 206 228
188 205 228
188 205 228
186 204 228
186 204 228
187 204 228
186 204 228
186 204 228
187 205 228
187 205 228
186 204 228
187 205 228
188 205 228
187 205 228
187 205 228
187 205 228
187 205 228
186 204 228
185 204 228
187 204 228
186 204 228
186 204 228
186 204 228
187 204 228
187 204 228
187 205 228
185 204 228
186 204 228
184 203 228
187 205 228
185 203 228
187 205 228
185 203 228
185 203 228
186 204 228
186 204 228
186 204 228
185 203 228
185 203 228
185 204 228
184 203 228
184 203 228
185 204 228
186 204 228
186 204 228
184 203 228
184 203 228
182 200 225
183 201 225
180 198 224
176 195 218
170 189 215
173 192 219
171 190 214
162 182 209
158 177 206
153 174 205
156 176 203
143 164 195
141 161 195
144 164 196
141 162 193
131 152 187
137 158 189
116 138 177
124 146 184
104 126 170
94 118 162
101 124 166
99 122 163
75 101 149
89 114 162
52 82 138
67 94 143
57 85 144
54 82 138
54 82 136
61 87 143
66 92 149
70 93 141
77 100 149
78 100 147
96 116 161
105 125 166
116 135 174
134 151 181
136 153 180
143 160 180
148 163 174
198 213 233
217 233 255
217 233 255
88 112 164
57 90 152
56 89 147
58 91 151
57 90 143
57 91 143
59 93 150
60 95 156
59 93 146
59 93 153
60 95 142
60 95 151
60 95 151
60 95 138
60 95 152
59 93 141
60 94 142
60 94 146
59 94 142
60 95 148
61 96 149
60 95 148
61 96 154
59 93 138
61 96 149
61 96 144
60 95 141
59 94 141
60 95 139
60 95 142
61 95 145
61 96 148
60 95 143
61 96 143
61 96 149
61 97 151
61 95 140
61 96 146
61 96 141
61 95 140
61 96 142
61 96 147
61 96 145
61 96 149
61 95 145
62 97 157
61 96 147
62 97 151
61 96 145
59 94 134
62 97 151
61 96 146
61 96 147
60 95 145
62 97 148
60 95 142
60 94 133
62 98 156
60 94 145
61 95 143
60 95 142
61 95 135
62 96 149
60 96 148
62 96 148
60 94 138
62 97 154
61 96 145
60 95 139
60 95 135
60 95 148
62 96 152
60 95 142
61 96 150
60 94 138
60 95 142
61 95 146
60 94 137
60 94 134
61 95 145
60 94 145
59 93 141
59 93 144
59 93 136
61 96 145
57 90 132
60 92 149
57 90 129
59 93 136
58 91 132
58 91 138
58 90 139
57 89 133
56 88 132
58 90 145
58 89 143
55 86 126
56 87 134
54 84 125
94 114 148
217 233 255
217 233 255
205 218 233
114 112 69
88 88 56
81 83 58
83 85 59
86 89 63
89 92 67
87 90 65
88 91 63
88 91 65
95 97 68
85 87 60
95 98 71
113 116 81
100 102 71
100 102 69
112 114 79
107 111 78
108 110 74
120 119 78
129 130 88
100 102 70
122 122 80
127 127 82
131 131 85
133 132 83
131 130 85
129 128 84
136 135 88
138 138 87
138 137 88
143 141 89
141 140 87
146 144 88
146 145 91
141 139 89
157 153 94
143 141 87
158 154 95
142 140 83
153 150 92
155 152 93
156 152 92
156 152 93
156 152 93
158 155 92
163 159 97
161 157 93
158 154 93
160 157 94
166 162 98
158 154 90
160 156 93
167 161 95
165 160 94
165 161 97
164 159 91
163 158 95
162 157 92
171 165 100
170 164 89
164 160 92
165 160 98
171 165 99
170 166 96
166 161 92
169 164 94
168 162 93
169 163 93
167 162 88
172 166 100
172 166 96
174 168 95
172 166 95
171 165 95
172 166 95
171 165 92
176 169 100
168 164 92
172 166 97
170 165 94
171 166 95
171 166 95
174 167 99
170 164 89
175 169 96
171 165 97
170 164 93
167 161 87
168 163 92
171 165 91
167 161 86
169 163 94
171 165 95
171 164 97
170 165 92
167 161 94
167 162 89
167 160 93
167 161 91
171 164 92
171 164 94
165 160 94
167 162 97
169 163 90
167 161 84
169 164 93
164 158 89
168 161 92
166 160 91
168 162 93
171 164 92
170 164 95
164 159 90
166 160 92
158 152 88
170 163 93
164 159 90
161 155 82
162 156 88
161 156 87
166 161 91
165 160 88
163 156 87
164 157 90
165 158 87
165 159 87
163 157 86
160 154 85
169 162 91
169 163 91
163 157 87
162 156 84
162 156 82
166 160 87
163 157 90
161 155 86
161 154 87
167 161 91
157 151 80
164 158 88
165 159 90
154 149 83
152 146 81
158 152 84
156 150 82
159 154 87
162 155 87
186 203 216
186 203 218
189 205 220
186 203 221
186 203 214
185 202 207
187 203 216
187 203 213
187 204 220
187 204 218
185 202 211
187 204 217
187 204 218
186 203 217
188 204 219
187 204 219
187 204 221
186 203 220
188 205 223
187 204 223
186 203 218
188 204 220
188 205 224
188 205 221
190 206 225
187 204 221
187 205 225
186 203 214
188 205 221
188 205 223
187 203 217
187 204 223
188 205 226
188 205 223
187 204 223
188 205 225
187 204 223
186 204 223
186 204 221
187 204 221
187 204 221
186 203 224
187 204 223
188 205 226
188 205 227
186 204 225
187 204 226
186 203 223
187 204 225
188 204 224
187 204 224
188 205 227
188 205 227
188 205 227
187 205 228
188 205 227
189 205 228
188 205 228
188 205 227
188 205 228
189 206 227
188 205 227
188 205 228
187 205 228
188 205 228
187 205 228
189 206 228
188 205 228
189 206 228
188 205 228
187 204 228
188 205 228
187 205 228
187 205 228
187 204 228
187 205 228
187 205 228
187 205 228
186 204 228
186 204 228
187 205 228
187 205 228
188 205 228
186 204 228
187 205 228
186 204 228
187 204 228
187 205 228
187 204 228
186 204 228
187 205 228
186 204 228
187 204 228
186 204 228
187 205 228
187 205 228
185 204 228
187 205 228
186 204 228
186 204 228
187 205 228
186 204 228
186 204 228
185 203 228
186 204 228
185 202 225
183 201 224
183 200 224
176 193 215
168 186 211
170 188 213
162 180 207
162 180 206
157 176 205
154 173 202
155 174 202
142 162 195
137 158 195
130 151 185
142 162 196
135 155 188
130 151 184
120 142 181
109 131 168
109 132 175
108 130 174
96 120 157
84 109 156
63 91 144
70 96 151
50 80 138
54 84 144
50 80 137
50 80 139
50 80 137
46 74 133
45 73 125
52 79 137
51 76 127
55 82 140
81 102 150
88 109 152
109 127 165
132 149 181
116 133 162
125 140 163
149 163 169
177 191 207
218 234 255
192 209 233
52 84 137
53 85 141
56 89 140
57 91 145
58 92 149
57 91 141
57 91 144
59 93 147
59 94 148
58 92 143
60 95 145
60 95 144
60 95 151
59 94 143
59 94 137
61 96 149
60 94 137
58 93 142
60 94 144
60 95 143
61 95 149
61 96 151
61 96 148
58 93 129
59 94 140
60 95 137
61 96 142
60 95 141
61 96 146
61 96 151
60 95 145
61 96 146
61 96 149
61 96 151
61 96 145
60 95 139
60 95 136
60 95 142
62 97 148
60 95 144
61 95 141
61 95 144
60 95 140
61 96 157
60 95 141
60 95 139
60 95 140
60 94 139
62 98 152
61 96 151
61 96 147
62 96 145
61 96 145
62 97 147
62 97 150
62 97 149
60 95 140
60 95 143
60 95 142
60 95 143
61 96 148
61 95 146
60 95 146
60 95 145
60 94 141
61 97 148
60 94 143
60 95 139
60 94 138
60 95 137
61 96 141
60 95 144
62 97 156
61 95 144
60 94 139
58 91 129
59 92 137
60 94 144
60 94 146
60 94 138
60 94 140
59 93 141
60 94 143
59 92 141
58 91 129
59 93 140
58 91 137
59 91 135
58 90 131
58 90 129
58 90 138
60 92 146
57 89 130
57 88 127
58 89 138
57 90 135
53 82 120
57 88 140
57 88 137
50 76 108
202 218 239
218 234 255
167 174 172
105 102 63
97 96 63
71 74 53
92 92 63
74 77 57
81 83 58
73 77 56
97 99 69
80 84 62
76 80 57
95 97 68
91 96 68
111 114 79
102 104 73
104 107 76
93 97 69
113 115 80
105 106 74
113 113 73
123 123 79
118 120 76
122 123 82
133 132 88
122 123 82
126 126 83
138 136 85
129 129 84
136 135 88
133 132 83
142 141 87
134 134 83
143 141 89
150 146 88
131 132 84
149 147 90
143 142 92
151 148 92
148 145 91
154 150 92
145 143 84
160 155 94
161 158 99
159 154 92
157 153 93
161 156 95
158 154 93
161 156 91
152 149 92
164 159 95
167 162 94
165 161 98
162 157 91
168 163 98
165 160 95
163 160 97
168 162 96
169 164 98
164 159 90
166 161 98
163 159 92
168 163 97
167 161 94
168 163 96
168 162 95
169 164 94
169 162 98
170 165 99
169 164 95
166 161 91
172 166 99
169 164 96
171 165 92
170 165 97
172 166 99
170 164 90
170 165 95
173 167 96
165 159 88
170 164 94
174 166 97
168 163 92
173 167 95
173 166 95
175 168 96
172 165 97
167 161 89
172 165 96
171 164 97
170 165 93
168 163 91
173 166 95
167 161 95
175 168 95
165 160 87
168 162 93
174 167 91
167 161 91
170 163 93
170 164 92
170 163 93
175 169 99
164 158 89
170 164 97
173 166 94
168 160 91
163 157 91
168 162 90
169 164 94
167 160 91
169 162 93
170 163 92
171 164 97
169 162 88
174 167 100
161 156 83
166 160 89
164 158 83
162 157 88
164 158 90
167 160 91
163 158 87
165 160 95
169 163 92
164 158 90
166 160 95
165 159 87
167 161 93
156 151 80
161 156 90
160 154 87
160 154 84
163 157 87
160 155 85
159 152 85
166 160 84
158 152 84
159 154 90
155 149 87
153 148 79
156 150 84
161 155 87
161 155 87
159 154 86
164 158 88
160 153 86
164 157 86
157 151 80
187 203 216
184 201 208
186 203 217
184 201 207
185 202 208
184 201 208
185 202 213
186 203 218
189 205 220
187 204 218
186 203 213
187 204 217
186 203 216
186 202 216
187 203 216
185 201 206
188 204 217
188 205 224
186 203 217
187 203 217
185 202 214
187 204 218
187 204 218
185 202 213
187 204 220
186 203 216
187 204 216
187 203 218
188 205 224
188 205 225
187 204 219
187 204 221
189 205 225
187 204 218
187 204 218
186 203 217
188 205 224
186 203 218
186 203 216
188 204 219
187 204 221
189 206 225
188 205 223
188 205 225
188 205 224
187 204 224
186 203 218
188 205 224
187 204 221
187 204 221
187 204 223
188 205 221
188 205 223
188 205 225
188 205 226
189 206 225
189 205 224
187 204 225
190 206 227
187 204 225
188 205 226
187 204 225
187 204 227
188 205 226
187 204 226
188 205 224
189 206 228
189 205 226
188 205 226
188 205 228
188 205 227
188 205 226
189 206 228
189 206 228
188 205 228
188 205 228
187 205 228
188 205 228
187 205 228
187 205 228
188 205 228
188 205 228
187 205 228
188 205 228
189 206 228
187 204 228
188 205 228
187 205 228
188 205 228
188 205 228
187 205 228
188 205 228
189 206 228
188 205 228
188 205 228
187 205 228
187 205 228
186 204 228
187 205 228
188 205 228
187 205 228
187 204 228
187 205 228
187 205 228
186 203 225
184 201 223
184 201 225
177 193 215
176 193 217
172 190 215
165 183 207
166 184 209
167 184 207
154 172 199
154 174 207
150 170 199
145 164 194
142 162 192
141 160 194
134 155 190
131 151 185
126 147 181
109 131 170
104 126 166
95 118 160
99 122 164
74 100 146
85 110 152
62 89 135
59 87 140
50 80 137
50 79 137
50 79 141
50 79 138
47 77 130
48 77 132
45 73 129
45 72 127
43 70 122
50 75 128
53 77 132
73 94 141
90 109 152
106 123 160
121 137 166
124 140 165
140 154 169
169 183 198
218 234 255
177 193 221
53 85 142
55 88 144
55 87 134
57 90 136
58 92 148
58 91 138
59 93 146
59 94 148
59 93 143
59 94 144
58 92 129
59 94 142
59 93 144
59 94 139
58 92 143
59 93 142
61 96 156
61 96 146
60 95 151
61 96 148
61 95 146
60 95 142
60 95 145
61 96 144
60 95 141
61 96 149
60 94 140
59 94 143
60 95 141
61 97 152
59 93 135
60 95 146
61 96 149
60 95 142
60 95 141
59 94 147
62 97 146
60 95 144
62 97 151
60 94 148
61 96 146
60 95 137
61 96 144
60 94 136
61 96 139
61 96 146
60 95 135
61 96 144
61 96 144
60 96 143
62 97 150
60 94 147
62 97 152
61 96 152
61 95 140
59 94 141
61 95 147
61 96 140
61 96 145
60 95 140
60 94 141
59 93 137
59 93 136
61 96 150
60 95 139
60 95 143
60 94 140
60 94 134
60 95 145
60 95 147
62 97 153
60 95 137
60 94 145
60 94 134
60 95 150
60 94 145
61 95 138
60 93 144
60 94 137
59 93 137
58 92 133
59 93 139
61 96 153
59 93 142
59 93 137
60 93 137
58 91 138
58 91 137
58 91 139
58 91 138
58 90 137
60 93 138
58 90 136
58 89 129
57 89 131
56 87 134
56 88 128
56 86 122
56 86 130
53 82 127
174 190 211
218 234 255
135 140 129
107 104 67
72 73 50
74 76 53
86 87 61
75 78 57
77 81 59
69 75 58
76 81 58
78 83 61
80 86 64
88 93 69
101 104 73
95 98 70
104 106 72
98 101 71
102 104 69
105 108 73
113 114 75
97 101 66
114 116 77
119 119 77
114 115 78
127 127 84
121 121 77
125 125 77
126 126 83
141 139 87
140 138 88
132 132 82
137 135 86
148 144 87
143 141 88
142 140 87
146 144 90
149 146 89
146 143 91
149 146 91
145 143 88
149 147 93
153 150 93
156 152 90
155 152 96
156 151 88
159 154 88
161 156 94
166 161 97
152 149 93
161 158 97
167 162 101
160 156 92
158 154 87
162 157 93
166 161 95
165 160 97
161 157 92
167 162 96
163 158 99
169 163 96
161 157 89
164 159 91
167 161 93
171 165 98
168 163 97
169 163 97
171 165 94
164 159 89
170 165 96
170 164 92
169 163 94
166 161 89
169 164 91
173 167 99
169 164 92
169 163 90
172 166 99
167 161 88
172 165 95
173 167 96
170 166 98
168 164 90
171 166 93
164 160 89
167 161 89
172 165 97
174 168 98
176 169 99
168 162 92
173 167 100
170 163 90
169 163 93
168 162 94
174 167 93
171 165 90
169 163 93
168 162 89
165 160 87
171 165 95
172 165 93
171 165 98
169 163 90
169 163 86
168 162 91
167 161 87
170 164 100
166 161 90
162 157 84
171 164 95
167 161 90
164 159 90
169 162 90
166 160 90
167 161 94
165 159 86
164 158 82
171 164 93
168 161 94
163 157 85
167 161 88
167 161 87
165 159 90
169 163 94
161 154 88
167 160 89
165 158 87
164 158 86
165 159 90
163 157 87
159 153 86
156 151 79
163 157 82
161 156 83
160 154 87
158 153 84
166 159 87
163 157 86
155 150 86
159 154 81
160 154 88
159 152 85
154 148 78
165 158 90
160 153 83
158 151 83
152 147 82
167 160 90
159 153 82
151 146 82
185 202 208
187 204 216
185 202 208
187 203 214
186 203 212
186 202 211
185 202 208
184 201 209
185 201 207
186 202 211
185 201 208
187 203 216
184 201 211
185 202 212
185 202 209
186 203 212
187 204 216
185 202 213
187 204 216
187 203 213
186 203 216
188 204 220
186 203 216
185 202 213
184 201 211
186 203 216
187 204 217
187 203 212
186 203 217
187 203 216
187 203 216
187 203 213
187 204 218
187 203 217
188 205 223
188 204 220
188 204 219
188 205 224
187 203 217
185 203 217
187 204 219
187 203 218
186 204 221
187 204 220
188 205 223
187 204 217
186 203 219
184 202 211
189 205 223
186 204 223
187 204 218
187 204 223
187 204 220
186 203 214
185 202 216
186 203 218
186 203 214
188 204 220
188 205 224
187 204 223
187 204 219
188 205 223
188 205 224
188 205 224
188 205 226
188 205 224
189 205 224
188 205 226
186 204 221
186 203 220
187 204 224
186 204 225
187 204 218
189 205 226
188 205 226
186 204 224
188 205 224
188 205 224
187 204 225
187 204 225
187 204 225
188 205 227
188 205 225
187 205 225
188 205 224
187 204 224
187 204 225
188 205 227
189 206 227
187 205 227
188 205 227
189 205 227
187 205 228
187 204 227
188 205 228
189 206 228
190 206 228
187 205 228
189 206 228
187 205 227
187 205 227
188 205 227
187 204 225
185 202 224
185 202 224
182 198 219
186 202 225
180 197 221
171 189 215
177 194 218
175 192 214
164 181 204
163 181 207
160 177 200
152 170 197
155 174 200
142 161 189
134 153 184
132 152 185
140 159 188
120 141 178
113 135 175
112 133 168
110 131 164
96 119 161
91 115 155
80 105 151
66 93 136
54 84 134
51 81 133
50 79 133
49 78 132
50 80 139
47 76 131
48 77 130
46 74 124
49 79 138
46 74 128
45 73 127
43 69 123
54 80 136
67 86 132
86 105 149
104 121 158
120 136 170
121 136 164
130 146 155
151 165 173
216 231 253
132 150 186
53 85 144
55 87 137
58 92 147
56 89 135
57 91 140
58 92 145
59 93 147
59 94 148
58 92 134
59 93 144
59 93 138
60 94 144
59 94 142
60 95 150
59 93 139
58 92 139
60 94 145
61 95 150
59 94 137
60 95 146
60 95 146
58 93 138
60 95 139
59 94 136
61 96 154
58 93 130
61 96 146
61 96 153
60 95 143
61 96 145
61 95 143
59 94 141
62 97 147
59 93 133
61 96 136
62 97 152
59 94 132
60 94 144
59 93 136
59 94 130
60 95 144
61 96 152
61 96 147
61 96 151
61 95 142
62 98 155
61 95 142
59 94 143
60 95 146
60 95 139
61 96 147
60 95 145
61 96 139
60 95 139
59 93 135
61 96 151
62 97 148
61 96 144
60 95 141
60 94 141
60 95 134
60 94 141
61 96 147
60 95 140
61 96 147
61 96 147
60 95 136
61 97 152
60 95 145
60 94 135
62 97 152
61 95 139
61 96 153
60 95 145
58 91 132
60 95 148
59 94 143
61 95 147
60 94 143
60 93 136
60 94 140
59 92 128
59 92 138
58 92 141
59 92 136
58 91 135
58 91 132
59 92 137
59 92 133
59 92 138
57 89 128
57 89 130
58 91 134
56 87 133
57 89 125
54 84 123
57 88 136
55 85 125
55 82 121
52 80 120
135 151 170
215 231 252
94 93 60
101 99 65
78 80 54
82 83 59
79 82 55
91 93 65
76 79 56
71 75 56
78 82 61
79 84 61
85 89 63
92 96 68
92 94 64
84 87 59
95 98 69
104 106 71
102 105 73
102 104 71
119 120 80
115 116 78
112 113 76
118 119 78
115 116 78
125 125 81
122 123 82
130 129 82
128 127 82
130 129 83
137 136 88
138 135 83
141 140 89
136 135 86
143 141 87
142 140 84
143 141 85
153 149 92
148 144 87
147 144 86
153 150 89
152 148 90
144 142 80
150 147 90
161 156 96
150 148 88
152 149 93
157 152 90
154 150 90
161 156 93
159 155 94
158 154 89
165 160 95
163 159 94
163 159 88
163 158 92
166 160 91
166 161 96
165 160 94
170 164 95
164 160 92
167 162 94
166 161 94
172 166 96
170 164 99
165 161 91
171 165 96
168 163 93
163 159 93
167 162 91
174 167 97
171 165 95
173 167 96
171 165 95
170 163 93
171 164 93
165 160 93
175 168 99
169 164 95
169 163 93
172 166 96
164 159 93
173 166 93
170 164 90
171 165 94
177 169 98
172 165 96
172 167 95
171 165 93
173 166 93
169 165 90
171 164 96
166 161 85
169 163 93
172 165 92
170 163 95
169 162 93
163 158 82
171 165 92
172 165 94
169 163 92
173 166 95
171 164 93
170 164 96
171 165 93
171 163 93
171 164 95
175 168 95
170 164 92
162 157 80
167 161 87
172 166 97
166 160 86
171 164 94
159 154 83
165 159 91
169 161 93
162 157 87
168 161 90
161 155 87
168 161 90
167 160 93
162 155 80
168 160 93
167 160 93
164 158 89
160 154 86
168 160 90
166 160 90
158 152 84
164 159 89
163 158 85
160 154 87
164 158 86
163 156 88
163 155 87
161 155 87
160 154 85
159 152 86
158 153 81
165 158 91
162 155 83
159 153 84
160 154 82
161 155 88
157 151 84
162 156 91
158 153 84
157 151 81
153 147 81
187 204 218
185 202 206
185 201 207
186 203 211
185 202 209
185 202 208
185 201 204
187 203 211
184 201 208
185 201 204
187 204 217
185 202 208
185 202 208
186 203 212
186 202 208
185 201 206
184 201 207
183 200 199
187 203 213
187 203 212
186 203 212
186 203 216
185 202 211
185 202 211
188 204 218
188 204 214
187 204 216
186 203 217
186 203 216
186 203 214
187 204 217
186 203 212
186 203 214
186 202 211
183 201 204
185 202 209
186 203 213
186 203 214
187 203 216
185 202 209
187 204 221
187 204 220
188 204 219
184 202 213
189 205 221
185 202 214
187 204 219
186 203 217
187 204 218
186 203 216
187 203 218
188 204 221
187 203 217
187 204 218
187 204 219
186 203 214
188 204 217
187 204 217
186 203 218
187 204 217
185 203 217
187 204 219
187 204 219
187 203 214
186 203 219
186 203 216
186 204 220
186 203 221
186 203 218
189 205 224
186 203 216
188 205 225
186 204 223
188 205 224
186 203 218
188 205 223
186 203 219
188 205 224
188 204 221
188 205 225
187 203 217
188 205 225
188 205 224
188 205 224
187 204 220
188 205 225
186 203 219
187 204 221
188 205 225
188 205 226
187 204 219
188 205 226
187 204 223
188 205 221
188 204 223
188 205 225
188 205 226
187 204 223
187 204 220
186 204 221
188 204 223
187 204 223
185 202 221
184 200 217
183 199 217
184 200 217
177 194 215
177 193 214
177 193 208
179 195 214
165 182 202
165 183 204
156 174 197
159 177 200
147 165 187
159 177 202
151 168 194
137 155 182
133 153 184
132 151 182
114 135 166
116 137 174
113 134 169
109 131 171
89 113 158
76 101 149
68 94 133
61 89 140
51 81 135
49 78 125
49 78 126
50 79 130
47 75 123
47 74 125
48 77 133
45 73 124
43 69 119
42 68 120
41 67 121
44 71 123
41 66 120
46 71 126
64 83 127
88 104 144
110 125 158
112 126 153
129 143 161
143 158 161
204 219 238
111 131 166
53 85 142
56 89 142
56 89 136
55 88 136
59 93 147
58 91 141
58 92 131
58 91 137
58 91 140
59 94 146
60 95 150
59 92 133
58 93 137
58 92 130
60 94 143
60 94 144
59 94 145
60 94 134
60 94 136
60 95 145
61 96 152
60 95 139
61 96 148
60 95 143
60 95 143
60 95 140
60 94 132
59 94 137
60 95 142
59 94 141
61 95 141
61 96 148
61 96 147
61 96 147
61 96 149
60 95 147
61 96 148
61 96 148
59 93 135
60 95 143
61 96 149
60 94 135
60 96 146
58 92 130
59 94 132
59 94 141
62 97 150
60 94 142
61 95 135
61 96 154
61 96 140
62 97 150
60 94 130
60 95 136
61 96 141
61 96 150
60 94 140
60 94 130
60 95 136
62 97 155
62 97 153
61 97 150
61 96 141
58 91 129
60 95 147
60 95 142
61 95 150
61 96 148
60 95 143
61 95 141
61 95 148
59 93 144
59 93 132
60 94 132
60 94 139
58 91 124
62 97 148
59 93 135
61 96 149
58 92 133
59 93 136
60 95 142
57 91 140
60 94 131
59 93 144
59 93 137
59 93 141
58 92 144
58 91 138
58 92 144
57 90 136
58 89 134
57 88 123
58 89 135
57 89 134
54 84 122
57 88 131
54 84 128
54 84 125
51 78 110
117 134 159
185 196 206
106 105 65
91 91 60
77 79 56
82 83 58
73 76 53
72 77 57
68 72 52
84 87 62
75 81 58
73 78 57
78 83 60
90 93 65
83 87 62
101 104 72
92 96 67
86 89 60
94 98 67
105 107 70
108 110 71
116 117 76
112 113 75
121 121 78
122 122 78
121 121 76
119 119 76
128 128 79
123 124 81
130 129 79
131 131 82
125 124 75
142 140 84
139 138 84
138 135 85
146 144 86
144 142 82
136 135 84
141 139 82
149 147 87
149 147 88
153 149 91
149 146 85
148 145 84
161 157 96
156 151 88
163 158 95
158 154 89
160 155 92
155 152 90
159 155 92
158 154 90
166 160 91
158 154 89
166 161 93
164 159 94
162 157 93
165 160 94
157 154 87
162 158 92
166 161 89
164 160 93
167 162 88
166 160 88
164 159 89
166 161 92
168 163 95
167 162 85
169 164 92
161 155 85
170 164 91
168 162 95
163 158 87
169 163 91
173 166 94
171 165 91
171 164 88
168 163 93
168 163 96
172 166 95
172 167 93
172 165 92
171 165 93
167 161 91
166 161 87
172 166 90
170 164 87
169 163 87
170 164 94
174 168 95
175 168 97
167 161 89
172 166 91
165 159 85
163 158 86
168 162 88
172 166 99
171 165 93
167 162 91
172 165 93
169 163 87
164 158 90
169 163 89
170 165 95
171 165 93
165 160 88
168 163 97
174 167 95
169 162 88
171 165 92
169 163 93
160 154 84
170 163 92
166 160 87
167 161 91
170 163 90
163 156 87
163 157 83
169 163 92
168 162 92
162 156 88
165 159 88
167 161 84
166 159 87
161 156 83
164 158 84
163 157 85
164 158 89
166 160 93
166 159 90
169 162 93
164 157 87
162 157 85
162 157 84
159 153 83
158 153 86
166 160 91
158 152 87
163 156 85
152 147 84
162 155 84
158 152 83
159 153 84
158 152 86
157 151 85
164 158 83
158 151 81
165 159 90
158 153 86
151 145 83
186 203 211
182 199 196
186 202 209
186 203 213
185 201 202
183 200 196
185 201 206
187 203 214
186 202 209
185 202 209
185 202 208
186 202 208
184 201 203
186 203 214
188 204 216
187 203 209
184 201 203
184 201 202
184 201 207
185 202 209
183 200 198
185 202 211
183 201 209
187 203 209
188 204 218
186 203 211
184 201 204
186 202 207
186 203 214
185 202 208
186 202 209
188 204 218
184 201 207
187 203 217
184 201 207
186 202 209
185 202 211
187 203 213
186 203 214
188 204 218
185 202 209
185 202 212
185 202 214
188 204 220
184 201 211
185 202 209
186 203 212
187 203 216
188 204 218
187 204 217
186 203 214
185 202 214
185 202 209
187 204 221
186 203 213
186 203 219
187 203 218
186 203 219
183 200 200
187 203 216
186 203 214
186 203 213
187 204 218
186 203 217
187 203 217
186 203 214
187 203 217
186 203 216
186 202 212
186 203 220
188 204 218
187 204 217
186 203 216
188 204 216
186 203 216
187 204 218
186 203 217
188 205 221
186 203 218
186 203 220
189 206 224
187 204 221
186 203 216
187 204 218
186 203 213
187 203 216
187 204 220
186 203 218
187 204 221
188 204 218
186 203 220
186 203 217
184 202 211
187 204 220
188 205 224
188 204 221
187 204 218
187 203 217
186 203 220
187 204 223
188 205 226
186 203 218
183 200 217
184 201 214
186 204 223
179 194 206
179 195 209
179 195 208
167 184 196
171 187 202
172 189 203
164 182 197
168 184 201
160 178 195
151 168 189
152 169 191
154 171 194
142 161 188
133 153 186
131 150 181
118 138 173
107 128 161
108 128 162
95 117 156
75 100 141
67 93 140
58 87 137
50 79 122
51 81 126
47 75 128
49 78 128
50 79 127
47 75 122
46 74 122
47 75 129
46 74 127
45 72 122
43 70 120
44 71 122
41 66 121
38 62 112
35 58 105
55 74 121
76 93 132
95 109 144
111 126 146
114 129 146
152 168 171
183 197 209
70 96 138
51 83 133
56 89 132
56 88 137
56 88 143
56 90 131
58 91 139
59 94 146
59 93 136
58 91 142
58 93 133
59 94 141
60 94 147
59 94 141
59 93 134
59 93 141
59 93 138
60 95 142
59 94 141
59 94 140
58 93 130
59 93 135
59 93 135
60 95 146
61 96 142
60 94 140
60 95 141
59 94 132
60 94 139
62 97 152
59 93 135
60 95 140
60 95 139
60 95 136
61 96 145
61 96 148
61 96 150
60 94 137
60 95 136
60 95 146
61 95 145
60 94 137
61 95 145
60 95 135
61 96 141
60 94 139
60 95 143
61 96 142
61 96 141
59 94 147
60 95 142
60 95 135
61 96 144
62 97 150
60 95 135
60 94 140
61 96 145
61 95 145
62 97 152
59 93 134
62 97 142
60 95 141
60 94 133
59 93 134
59 93 140
58 93 134
60 95 139
60 94 135
59 94 134
60 94 134
61 95 147
60 93 137
59 93 133
59 93 133
61 95 140
61 95 142
60 92 130
60 95 142
61 95 143
60 93 143
61 95 144
59 93 137
60 94 146
58 91 129
59 93 141
59 93 135
60 94 146
58 90 129
58 91 138
59 92 138
58 90 132
59 92 136
58 89 127
58 90 134
56 86 121
58 90 137
56 87 134
57 89 139
54 82 109
52 80 107
52 80 113
65 87 115
179 188 194
92 91 56
80 78 50
76 76 52
59 63 46
69 72 49
62 66 48
63 68 50
67 72 52
72 77 56
75 80 57
67 72 52
89 93 65
83 88 58
93 96 65
94 98 71
93 96 65
90 94 66
102 105 72
116 117 79
114 115 77
108 110 72
122 123 81
118 119 74
119 119 77
114 117 77
129 129 78
125 126 78
129 129 81
132 131 77
124 125 76
140 139 85
142 141 86
140 138 85
137 136 83
144 142 90
138 137 85
143 141 88
155 151 90
151 147 90
147 143 86
157 153 91
161 156 94
150 146 85
161 156 92
149 146 80
154 150 93
152 148 92
153 150 88
162 158 93
159 155 87
160 156 88
161 158 92
161 156 95
162 157 89
168 162 98
162 157 92
164 159 86
166 161 94
165 159 92
167 163 97
168 163 98
169 163 95
165 160 90
172 166 99
169 163 89
168 163 94
164 159 88
172 165 92
170 164 92
168 163 92
168 162 87
169 164 94
163 158 79
170 164 93
175 168 98
170 164 91
175 168 97
169 164 91
171 165 94
174 169 101
172 165 92
169 164 90
171 165 91
172 166 96
172 165 96
171 164 92
175 168 94
171 165 94
173 166 93
171 166 90
174 166 91
168 161 90
169 163 91
168 163 88
169 163 90
170 163 93
173 167 95
168 162 87
169 161 89
169 163 87
173 165 93
164 160 85
170 164 92
171 164 95
173 166 95
170 164 91
165 159 87
163 158 87
163 157 83
172 165 94
176 168 99
165 159 84
165 160 86
160 155 84
163 157 84
168 162 87
164 157 87
172 166 94
162 156 84
169 162 89
168 161 90
165 159 88
162 156 85
160 155 84
165 159 90
163 157 80
163 155 85
159 153 81
163 157 87
166 160 84
165 159 83
165 160 88
161 155 86
160 153 82
169 163 85
163 156 87
167 160 90
153 148 77
162 155 81
159 154 76
164 158 86
153 148 77
159 154 84
151 146 77
160 153 81
159 153 83
154 149 80
154 147 82
183 200 199
184 201 204
184 201 202
186 203 211
184 201 202
185 202 206
184 200 202
184 201 202
187 203 212
181 198 192
184 201 203
184 201 202
185 201 200
186 203 209
186 202 211
186 202 207
183 200 196
187 203 212
186 202 209
184 201 202
187 203 213
186 203 211
185 201 206
188 204 214
185 201 203
186 202 208
182 199 196
183 200 200
185 202 208
186 202 211
182 199 195
184 200 202
184 201 207
183 200 199
184 200 198
185 202 208
183 200 202
186 203 212
184 200 202
185 202 211
186 203 213
185 202 209
184 201 200
183 200 199
185 201 208
186 202 209
182 200 199
185 202 208
184 201 209
185 202 209
186 203 209
188 204 219
184 201 207
185 203 214
183 200 200
186 203 213
185 202 208
186 203 214
184 201 208
187 203 216
184 201 207
185 201 202
185 202 209
184 201 207
184 201 206
186 203 216
186 203 214
187 204 217
187 203 217
185 202 212
185 202 208
186 203 216
184 201 208
185 202 212
187 203 213
185 202 209
187 204 217
185 202 211
185 202 212
185 201 208
187 203 214
186 203 214
185 202 216
187 204 217
185 202 213
184 201 207
185 203 214
186 203 213
186 203 213
185 202 209
188 204 219
185 202 209
183 201 207
186 203 217
186 203 214
186 203 216
187 203 218
186 203 214
187 203 216
188 205 220
184 201 204
186 203 216
186 202 214
186 202 215
183 200 214
181 196 206
182 199 216
175 191 204
169 186 200
165 182 193
161 179 193
164 181 200
157 175 195
154 172 194
155 173 196
152 169 190
132 150 172
136 155 178
127 147 176
117 137 166
122 141 169
116 136 169
98 119 153
91 114 152
87 110 147
64 90 131
51 81 123
51 82 128
51 81 130
49 79 120
49 78 124
48 76 118
45 73 123
48 76 130
46 74 120
43 70 113
45 72 125
41 66 113
43 69 122
40 64 111
38 61 109
37 61 110
33 55 99
54 71 110
96 110 140
91 105 131
113 128 151
130 143 152
158 171 180
53 86 133
53 86 136
55 88 133
56 89 134
55 88 131
56 89 141
57 90 131
57 91 139
58 93 143
59 93 144
58 92 139
59 93 142
58 92 136
59 94 138
59 94 139
59 93 142
60 94 150
60 95 145
59 93 131
60 95 134
61 96 147
59 93 141
60 95 142
59 93 134
59 93 137
60 95 144
58 93 130
60 95 143
59 93 135
60 95 137
61 96 147
59 93 138
60 95 135
60 95 138
59 93 133
58 92 127
60 95 137
61 95 146
60 95 145
59 94 134
60 95 140
61 96 149
61 96 143
61 97 144
61 96 143
62 97 149
60 94 136
60 95 141
61 96 145
59 94 139
60 95 140
61 95 138
60 94 135
60 94 139
60 95 143
61 96 156
60 95 140
60 94 144
61 96 147
60 94 134
61 95 146
60 94 137
60 94 139
60 94 136
59 93 130
60 95 138
59 93 136
59 93 133
60 94 134
61 96 149
60 94 140
60 95 143
61 95 138
59 92 138
60 95 145
59 93 136
60 94 133
58 91 114
60 95 141
59 94 140
59 93 136
58 91 135
60 95 142
59 93 143
59 92 128
59 93 146
60 93 134
57 89 122
59 92 140
58 92 132
57 89 127
58 91 137
60 93 143
55 86 114
58 91 144
57 89 130
57 88 136
58 90 132
55 85 118
53 82 103
52 79 117
51 79 119
148 152 140
94 92 56
66 66 40
74 76 54
59 62 44
75 78 55
62 65 45
58 62 45
73 77 56
64 70 53
78 82 56
62 69 50
75 81 60
83 88 60
88 92 62
88 91 61
88 92 64
95 98 66
99 102 65
103 105 69
112 114 73
102 103 65
107 109 71
116 118 76
121 119 69
125 125 81
123 123 80
132 131 81
132 132 82
133 132 81
129 129 78
129 128 82
128 127 79
131 130 77
141 138 85
141 139 86
147 143 77
146 143 82
150 147 86
148 145 84
144 140 81
156 153 88
147 144 84
151 148 89
152 149 87
161 156 92
149 145 84
160 156 93
157 152 83
155 151 87
166 160 94
159 155 85
154 150 84
166 160 94
154 151 86
160 156 91
160 155 92
167 162 93
165 161 89
167 162 91
167 162 93
167 161 87
162 157 88
163 159 90
167 162 94
164 158 82
173 165 95
164 158 86
167 161 90
168 163 90
167 161 92
168 163 88
172 165 94
170 165 90
174 168 95
173 166 93
170 164 93
169 163 89
173 167 92
174 167 95
171 165 87
166 161 87
171 165 93
174 167 96
171 165 85
171 165 90
169 162 89
168 162 93
176 169 92
165 159 80
172 166 90
168 163 83
170 164 91
170 164 86
172 165 93
171 165 89
168 161 91
172 165 90
169 162 90
171 166 91
169 163 86
169 161 90
168 161 88
171 163 92
167 161 84
165 160 87
171 163 90
167 161 90
164 158 90
167 162 83
170 164 85
167 161 89
162 157 85
164 159 89
170 163 94
165 159 88
169 163 90
164 158 89
165 158 87
167 161 85
161 155 80
164 157 87
169 163 87
163 157 87
166 160 80
165 159 89
167 160 90
169 163 90
167 161 85
161 155 83
166 159 89
162 155 82
167 161 87
160 154 86
159 153 80
160 154 78
164 157 90
162 155 82
160 154 83
163 155 84
163 156 84
159 154 81
161 155 87
160 154 85
158 151 80
157 151 77
160 154 86
160 153 85
162 156 84
184 201 200
185 201 204
186 202 207
184 201 202
184 201 203
182 199 196
183 200 199
182 199 198
182 198 190
182 199 196
183 200 199
181 198 187
184 201 200
185 201 200
182 200 199
187 203 209
184 201 204
185 202 207
182 199 196
184 201 203
184 201 200
185 201 207
185 202 207
184 201 202
185 201 203
185 201 204
184 201 203
185 201 202
184 200 202
186 202 207
183 200 203
181 199 200
182 199 194
184 201 206
188 204 211
184 200 202
185 202 208
185 202 208
185 201 204
186 202 208
183 200 200
185 201 204
186 202 209
182 199 203
185 202 206
186 202 207
186 202 208
185 202 208
187 204 218
184 201 204
183 200 200
183 200 198
184 201 202
185 202 211
184 201 206
186 202 211
183 200 198
189 204 211
185 202 206
186 202 209
184 201 209
184 201 203
184 201 203
185 202 207
184 201 202
185 201 203
184 201 204
187 204 217
184 202 213
185 202 208
185 202 212
184 201 209
182 200 204
185 202 209
183 200 199
188 205 219
185 202 209
184 200 204
185 202 209
184 201 204
185 202 206
186 203 214
185 202 212
189 205 219
187 203 216
186 203 216
187 203 216
186 202 212
184 201 204
184 201 206
185 201 207
185 202 209
182 200 202
186 203 213
186 203 212
184 201 209
186 203 214
185 202 212
186 202 209
186 203 216
184 201 211
185 201 211
184 200 210
184 201 210
182 198 205
180 196 203
175 191 197
168 184 196
168 185 193
169 186 200
158 176 185
159 176 194
159 176 186
156 173 193
152 169 187
142 161 177
134 153 173
132 151 173
136 156 180
126 145 170
113 133 165
117 136 164
102 124 156
89 111 146
77 101 146
61 89 134
50 80 127
51 81 131
48 76 120
48 77 124
49 77 121
48 77 125
47 75 122
46 74 120
44 71 112
44 72 122
44 71 116
42 68 119
41 66 113
41 66 116
36 59 105
36 60 106
36 59 105
53 71 114
71 84 113
93 107 124
108 122 137
127 143 161
135 149 148
51 82 135
54 86 128
56 88 140
56 88 133
57 91 140
58 91 147
57 90 145
58 91 135
58 92 134
56 89 135
59 94 145
59 93 141
59 93 139
58 92 136
58 91 131
59 93 140
58 92 133
60 95 143
60 94 138
58 93 135
59 94 141
59 93 125
59 94 136
60 95 141
59 94 139
61 96 150
59 93 130
59 94 134
60 95 142
60 95 137
61 96 143
61 96 149
61 96 146
60 95 145
61 96 141
60 95 141
61 96 140
61 95 139
60 96 143
59 94 137
61 96 142
60 94 137
61 96 144
61 97 151
61 96 147
61 96 139
61 96 139
60 94 140
58 92 126
62 97 154
57 91 122
59 94 135
60 95 137
62 97 143
60 94 148
60 95 139
61 96 143
60 94 137
59 94 135
60 95 140
60 95 139
60 95 139
60 94 142
59 93 134
59 94 130
60 95 142
61 95 146
59 93 130
59 93 124
59 93 133
60 95 139
60 95 138
60 94 138
60 94 139
60 95 141
59 94 141
60 94 141
59 93 133
58 91 131
59 93 144
59 92 134
59 92 131
59 93 139
60 94 141
58 91 130
58 91 129
59 93 128
58 91 131
59 92 131
60 93 142
58 90 123
57 89 117
57 90 129
57 90 134
56 87 121
56 87 132
54 85 120
57 88 128
54 84 118
53 82 111
54 82 122
47 73 103
99 101 78
93 92 57
69 70 47
63 65 44
66 69 48
67 71 50
64 68 47
63 68 47
65 70 51
73 77 56
73 78 55
66 72 52
71 76 50
76 80 57
79 85 59
83 87 59
89 92 60
101 105 70
98 100 59
97 99 63
102 105 68
104 107 70
110 112 68
115 116 74
113 115 72
122 122 74
107 109 70
113 114 77
132 130 74
129 129 78
131 130 79
133 132 83
149 145 87
137 136 85
124 123 72
142 139 85
138 136 82
149 145 86
139 137 78
141 139 76
156 153 90
150 146 87
153 149 86
159 154 92
155 150 91
151 148 90
157 152 90
156 151 83
158 154 93
156 152 86
155 151 86
159 155 91
154 149 82
157 152 84
165 159 91
168 162 93
165 160 87
159 154 86
163 158 90
166 160 93
169 164 96
168 162 93
167 161 95
168 161 86
165 160 92
166 161 86
165 159 82
166 161 90
170 164 91
167 161 90
169 163 91
171 165 93
169 162 90
176 168 97
169 164 87
168 162 88
171 166 91
173 166 95
172 165 91
170 164 95
168 163 85
168 162 86
171 164 94
170 164 91
168 162 88
167 162 87
174 167 93
170 164 90
172 164 92
169 163 88
171 165 90
165 158 84
170 164 93
171 164 89
167 161 83
167 161 85
171 165 93
167 160 89
169 163 91
168 161 88
163 157 81
168 161 85
170 163 88
169 161 87
168 162 92
164 157 84
162 156 83
163 158 90
167 160 91
169 162 84
168 162 89
168 161 88
163 158 80
172 165 95
166 160 90
166 160 85
165 159 89
161 155 85
167 161 87
167 160 92
162 156 84
168 161 85
165 158 88
167 161 92
168 161 89
165 158 87
163 156 85
159 153 82
164 158 86
164 157 88
162 156 90
161 156 84
155 148 77
164 157 87
161 155 80
163 156 88
160 154 84
160 154 83
164 157 87
150 144 74
164 158 88
161 154 85
155 149 79
164 157 84
164 158 86
154 149 77
157 152 86
162 155 86
156 150 84
185 202 206
183 199 192
181 198 187
185 201 199
183 200 199
185 202 208
182 199 195
182 199 192
183 200 196
184 200 194
182 199 191
184 200 192
184 200 202
185 202 211
183 199 194
183 199 195
183 200 200
186 202 208
183 199 195
186 203 209
181 198 188
183 200 200
183 200 203
186 202 206
184 200 199
183 200 196
180 198 188
183 200 199
184 201 203
185 201 199
187 203 212
183 200 196
186 203 209
180 198 188
184 201 200
186 202 208
184 200 200
180 198 188
183 200 199
180 197 192
186 202 208
184 201 204
185 202 207
184 200 202
181 198 191
181 199 198
184 201 202
183 199 195
187 203 214
184 200 202
184 201 202
187 204 214
182 199 191
181 198 195
184 201 204
184 200 200
186 202 206
184 201 203
183 200 203
184 201 207
183 200 200
184 201 200
184 200 200
185 202 208
185 202 206
187 203 213
184 201 203
185 201 206
184 200 202
184 201 203
185 202 208
187 203 214
186 202 208
185 202 209
185 202 211
182 199 198
184 201 202
183 200 203
186 202 209
183 200 195
184 201 206
186 202 209
185 201 204
184 200 200
183 200 200
183 200 200
186 202 207
186 202 209
184 201 204
184 201 207
184 200 202
187 203 212
186 202 212
185 201 206
183 200 195
186 202 209
181 198 196
182 199 200
184 201 209
182 199 203
183 200 201
186 202 213
183 199 202
183 199 200
181 197 205
179 195 196
174 190 191
171 186 191
171 187 193
168 185 194
161 178 183
156 174 186
155 172 184
159 176 192
143 160 174
128 146 164
138 156 171
139 158 181
123 141 164
117 136 162
114 133 160
95 116 151
100 121 151
76 100 137
77 101 137
54 83 125
50 79 124
51 81 131
48 76 119
47 74 114
49 78 123
49 78 124
46 74 122
44 71 110
45 71 115
43 70 115
45 72 114
44 70 114
40 65 112
41 67 118
34 55 99
38 62 103
38 62 109
34 52 92
73 87 122
81 96 129
88 102 125
114 128 130
114 130 137
52 83 134
52 83 130
55 88 129
56 89 140
57 90 135
55 88 127
58 92 135
58 92 145
57 91 140
58 93 144
58 92 134
58 92 133
58 92 132
58 92 135
58 91 129
60 94 144
58 92 136
59 94 140
59 93 138
58 92 135
60 94 146
60 94 133
61 97 149
60 94 133
59 94 137
60 95 138
61 96 140
60 95 145
60 94 139
59 94 133
59 93 132
61 97 149
60 94 138
61 96 141
57 91 130
60 94 142
59 93 129
59 94 137
60 95 140
60 94 140
60 95 147
59 93 134
60 95 136
61 96 143
60 95 143
61 96 147
60 94 140
59 94 137
60 94 136
61 96 145
60 95 142
59 93 136
61 97 145
58 92 126
61 96 143
61 96 149
60 95 140
60 94 136
60 95 144
60 94 141
61 95 140
61 95 140
60 94 135
59 92 136
60 94 147
61 96 149
60 94 131
60 95 140
60 94 139
59 93 139
60 94 137
60 94 137
58 92 130
59 93 129
58 91 131
59 93 134
60 95 143
60 94 133
60 94 143
59 92 127
59 92 130
59 93 130
59 94 139
60 94 136
60 94 140
60 94 136
58 90 123
59 92 134
58 91 132
58 90 136
58 90 128
57 89 122
58 90 130
58 90 123
55 85 121
56 87 131
55 85 121
57 87 124
53 81 112
55 84 120
52 79 99
46 70 91
84 86 63
72 71 47
60 63 42
62 65 42
60 64 44
49 53 38
44 52 39
56 62 45
60 67 52
66 70 47
73 77 54
76 80 54
65 72 55
80 85 58
91 95 66
84 87 59
94 98 68
97 100 65
97 100 62
106 108 69
96 99 66
111 112 70
109 110 71
119 119 75
121 121 75
125 123 73
122 122 75
126 125 76
127 127 78
127 125 75
132 131 76
141 139 84
134 132 75
135 133 79
142 138 81
128 127 74
138 135 76
146 143 82
140 138 81
150 146 83
144 141 81
145 142 82
151 147 79
156 152 82
150 147 84
148 144 81
156 152 84
154 151 82
154 150 82
154 151 82
161 157 86
158 154 81
163 158 91
157 153 84
163 157 85
161 156 86
169 163 96
163 158 86
167 161 90
164 159 84
161 156 83
168 162 95
164 159 85
165 159 84
164 159 89
164 159 87
168 162 95
167 161 87
166 160 88
168 162 86
168 163 89
167 161 86
164 159 84
169 163 92
164 159 87
166 162 91
174 168 98
168 162 86
167 161 84
168 162 84
168 163 86
167 161 86
169 163 89
170 163 88
169 164 87
169 163 88
173 167 94
172 165 90
166 161 87
167 162 82
169 162 90
171 164 87
167 161 86
168 162 90
169 164 90
170 164 89
171 165 93
170 162 89
170 162 87
168 162 88
171 163 90
170 164 87
165 160 86
168 163 90
170 163 88
169 161 88
172 166 91
168 161 84
166 160 87
164 159 85
155 150 76
169 162 88
168 162 87
167 160 84
169 162 88
168 162 84
163 158 85
169 162 85
163 157 87
167 159 81
163 158 91
170 163 89
162 155 84
167 160 87
170 163 90
163 157 85
165 158 89
152 147 78
164 158 81
162 156 77
159 152 81
163 157 84
155 149 78
167 161 87
159 152 82
160 155 82
156 151 76
161 156 84
167 160 84
165 158 84
166 159 91
159 153 80
160 154 86
144 139 72
153 148 77
157 151 83
158 152 76
159 153 84
157 150 83
183 199 195
186 202 206
183 200 198
184 200 199
183 199 194
183 199 191
182 199 198
182 199 194
183 199 192
179 197 184
182 199 188
187 202 203
183 200 196
179 197 187
185 201 200
185 201 196
186 202 206
184 201 200
180 197 184
184 201 199
181 198 187
182 199 194
183 200 199
183 200 196
184 201 199
183 200 199
185 201 202
184 200 199
184 200 200
186 202 209
182 199 194
182 199 198
183 200 195
183 199 198
183 199 196
182 199 195
181 198 188
183 200 198
182 199 192
179 197 187
186 202 206
187 202 206
185 201 200
182 199 191
181 198 188
182 199 191
182 199 194
183 199 195
183 199 194
184 201 202
183 199 192
186 202 204
185 201 203
182 199 194
184 200 198
184 200 198
183 200 195
181 198 188
184 200 198
182 199 198
184 200 199
182 199 192
184 201 203
184 201 203
182 199 198
185 202 206
184 201 199
184 201 204
183 200 196
183 200 199
182 200 200
183 200 199
185 201 203
182 199 195
184 200 200
185 201 202
186 203 213
182 198 192
185 201 207
180 197 188
184 201 203
184 200 199
180 197 192
185 201 204
183 200 200
184 200 200
184 200 204
183 200 200
184 201 202
184 200 199
184 201 208
184 201 200
184 201 202
179 196 186
182 199 199
186 202 208
184 201 203
183 200 198
185 202 207
184 201 207
181 198 195
182 199 200
180 197 195
175 190 180
179 194 193
169 184 182
172 187 190
173 190 196
162 179 180
163 180 187
162 179 178
156 172 177
162 178 192
151 168 184
137 155 170
152 169 186
140 158 176
129 148 167
127 145 164
108 128 148
120 138 159
102 122 154
92 113 145
79 103 139
72 97 134
55 82 123
50 79 120
48 77 118
49 77 127
48 77 115
47 76 122
46 74 121
45 72 112
46 73 119
45 72 115
43 70 110
43 69 115
42 68 111
38 62 106
39 63 106
36 58 100
35 57 97
32 53 88
32 52 92
61 76 105
71 84 107
97 111 133
115 129 133
104 119 132
51 82 126
54 87 133
56 89 139
56 88 133
56 89 136
54 87 126
58 91 139
57 91 138
58 91 139
58 92 134
58 92 135
58 91 131
60 94 147
59 93 140
58 92 131
59 93 131
58 92 128
58 92 126
61 96 143
57 91 126
60 95 138
60 94 146
60 95 140
59 94 137
60 95 145
59 93 137
60 94 138
60 95 142
58 92 124
59 93 135
58 92 133
61 96 146
60 94 136
60 94 129
60 95 144
61 96 143
58 93 129
61 95 146
61 97 152
59 92 137
60 94 131
61 96 139
59 94 131
60 94 139
59 93 138
61 95 142
59 93 125
61 96 149
60 94 134
60 95 136
60 95 137
61 95 135
59 93 124
60 95 135
60 95 140
61 96 145
59 94 133
59 93 134
60 94 135
60 94 132
60 94 141
60 94 133
58 92 135
59 93 135
59 93 129
59 93 142
60 94 141
61 96 148
61 95 139
60 94 142
60 94 139
60 95 137
59 92 134
61 95 138
59 93 131
59 93 139
59 93 127
58 92 130
58 90 129
58 91 134
59 93 132
58 91 128
59 92 138
58 92 136
60 94 141
59 93 135
57 90 124
59 93 129
58 91 129
58 91 129
56 88 115
56 87 125
56 87 125
56 88 131
57 88 127
57 90 131
53 82 117
57 88 126
55 85 127
54 82 121
53 80 112
49 76 101
76 80 63
69 69 43
58 58 36
50 53 35
58 60 39
55 60 41
49 54 40
66 72 52
58 63 46
59 64 43
64 69 49
79 83 55
73 79 56
71 75 48
74 80 51
90 92 59
87 88 61
91 94 62
107 110 71
120 120 73
96 98 63
103 105 71
110 111 68
119 120 75
119 121 76
132 130 77
120 118 74
124 123 72
115 116 67
127 127 72
121 121 73
129 127 73
133 133 83
142 140 81
132 130 80
136 135 78
133 131 74
139 136 80
131 129 75
149 146 85
141 139 82
153 148 85
153 149 86
155 151 84
151 147 87
151 147 81
144 142 75
158 154 86
158 154 80
151 148 78
159 154 89
156 151 86
161 156 87
166 160 93
168 162 87
163 158 89
163 158 86
164 159 88
164 159 82
165 159 87
163 159 87
167 161 89
166 161 90
165 159 87
163 158 87
163 158 86
167 161 86
167 161 88
170 163 89
165 160 87
172 166 94
172 165 91
168 163 88
166 160 86
169 163 92
171 165 89
174 167 92
172 166 90
170 164 89
168 162 84
172 165 94
167 161 83
171 165 91
171 164 90
170 163 91
170 164 89
173 165 93
171 165 87
169 163 87
169 163 90
167 160 85
168 163 92
166 161 83
168 163 86
169 162 85
168 162 88
165 159 88
170 162 90
173 167 99
170 163 87
166 161 84
168 162 87
166 160 87
170 162 84
166 160 80
166 160 78
169 162 90
163 157 87
163 157 83
168 161 90
170 164 89
168 162 88
168 162 85
166 159 84
166 159 82
165 158 86
168 161 88
168 161 89
166 159 83
165 158 84
164 158 85
158 153 83
167 160 87
167 161 87
170 162 86
158 151 80
164 159 84
163 157 83
160 155 81
153 148 74
165 158 87
169 162 90
162 156 85
166 159 87
154 148 75
163 157 84
164 158 85
155 150 74
168 161 90
160 154 83
158 152 84
157 150 78
163 157 85
156 151 79
157 151 74
153 148 79
159 153 79
158 152 89
145 140 66
180 198 188
184 201 199
182 198 190
182 199 191
179 196 184
180 197 183
182 199 192
183 199 199
180 197 181
183 200 194
181 197 186
180 198 187
184 201 200
184 200 198
181 198 187
183 199 191
181 198 191
181 198 184
184 201 202
183 199 194
184 200 198
183 200 198
185 201 200
182 199 192
182 199 192
184 200 202
183 199 195
182 198 191
184 200 198
185 201 203
181 197 184
185 201 203
181 198 191
182 199 188
182 199 192
183 200 199
182 199 192
182 199 198
181 198 188
184 200 198
184 200 200
183 199 198
182 199 191
184 201 203
177 195 174
184 200 198
180 197 183
183 200 198
181 198 187
181 198 188
184 200 199
182 199 191
183 200 196
184 200 199
184 200 198
182 199 194
186 202 204
186 202 208
184 200 198
185 201 207
182 199 194
184 200 196
183 200 198
184 200 195
184 200 200
184 200 198
180 197 191
182 199 195
183 199 196
182 199 196
182 199 192
181 198 190
181 198 190
181 198 190
181 198 192
181 199 194
182 199 191
181 199 194
178 195 178
183 200 198
183 200 196
181 198 191
183 200 198
181 198 188
180 197 181
180 197 188
183 199 198
184 200 199
183 200 199
181 198 190
184 200 198
182 199 195
182 199 196
184 201 207
180 197 191
183 199 194
181 198 191
182 199 196
182 199 198
182 198 195
182 199 199
178 194 188
176 192 184
177 192 184
178 192 184
174 190 183
174 190 185
172 188 185
168 184 188
167 184 177
161 177 179
163 179 193
151 167 177
153 170 168
136 154 172
140 159 169
139 156 168
126 144 164
121 140 167
125 144 163
112 131 152
109 129 157
101 121 153
84 105 142
61 88 135
54 83 126
49 78 110
50 80 119
49 78 122
47 76 113
47 75 112
48 77 118
48 76 120
44 71 108
42 68 104
40 65 99
43 69 109
40 65 103
41 67 113
38 62 103
38 62 100
36 57 100
33 54 89
27 45 84
59 73 109
72 84 105
92 105 115
96 109 121
92 109 129
52 83 123
54 86 129
56 89 131
56 89 132
56 88 131
56 89 129
57 91 133
57 90 125
58 92 133
58 91 130
58 92 137
57 91 133
59 94 142
58 92 125
60 94 142
60 95 139
59 93 138
59 92 133
58 92 135
57 91 124
60 94 135
59 93 135
58 92 125
60 95 139
59 93 139
61 95 141
60 94 138
60 94 127
59 94 137
61 96 150
58 91 137
59 93 131
60 95 137
59 93 133
59 94 128
60 94 134
61 96 145
60 95 142
59 94 136
60 95 136
59 94 140
60 94 137
59 94 129
60 95 141
61 96 149
61 95 139
57 91 123
60 94 135
61 96 144
61 96 136
62 97 145
60 95 144
61 96 145
59 94 136
59 93 126
60 94 140
60 95 141
60 95 136
59 93 134
62 96 141
57 91 120
59 93 133
60 94 136
58 92 123
59 94 139
60 94 135
61 96 139
60 95 139
59 94 140
59 93 129
60 95 139
60 94 132
60 94 142
59 93 133
60 94 139
59 94 140
60 94 140
59 93 136
59 93 134
58 90 123
60 93 133
58 91 123
57 90 125
58 90 132
59 93 136
59 92 131
59 92 131
58 91 124
60 93 134
57 88 125
59 92 137
57 88 126
57 88 123
56 87 122
56 87 119
56 86 126
57 88 126
55 85 123
53 80 108
52 79 107
52 80 116
49 75 102
66 74 64
68 67 42
56 58 36
42 47 34
42 47 34
33 39 29
51 57 38
55 60 39
51 56 37
57 63 45
57 63 47
60 65 44
75 79 54
74 78 52
86 90 55
83 88 58
94 96 61
94 97 63
85 88 52
105 107 64
101 104 63
101 103 61
118 120 72
118 118 75
112 113 64
126 126 73
124 123 75
124 123 71
124 123 73
129 128 75
127 126 70
127 126 72
129 127 70
136 134 75
136 134 79
139 137 75
137 135 77
140 138 83
136 134 77
152 148 85
152 147 79
144 140 79
148 145 82
157 153 87
151 147 79
151 147 86
155 151 92
157 153 82
157 152 91
150 147 83
153 150 84
165 159 86
160 155 87
154 151 83
162 157 91
161 156 85
165 160 90
161 156 85
163 157 85
163 158 83
166 159 89
162 158 84
164 159 89
163 157 85
171 164 91
168 162 84
162 157 84
164 158 85
169 163 89
169 163 90
164 159 81
167 161 86
169 163 90
167 161 80
166 160 84
168 161 84
170 163 84
166 160 83
167 160 82
172 165 89
175 168 94
167 162 85
166 160 83
171 163 92
171 164 92
169 163 91
169 162 86
170 164 84
168 162 90
168 162 91
169 162 91
170 163 86
173 166 92
169 163 83
171 164 90
166 160 88
171 164 92
173 165 88
167 161 85
171 164 89
171 165 90
166 160 87
168 161 83
167 161 88
165 159 85
172 165 92
168 162 90
160 155 79
168 161 89
168 162 84
166 160 87
168 162 87
162 157 80
167 160 85
166 160 86
163 156 84
167 161 84
160 154 78
165 159 85
162 156 81
160 154 80
164 157 83
167 160 88
159 153 82
165 160 86
164 157 87
160 154 81
161 155 81
162 155 80
169 162 84
155 149 75
152 147 81
161 155 83
157 151 75
155 150 75
152 147 75
159 153 79
153 147 79
160 154 78
155 149 76
157 151 75
155 151 75
152 147 75
161 155 84
156 150 83
154 148 78
162 154 84
150 144 75
151 146 80
181 198 191
184 200 195
183 199 194
185 200 196
180 197 180
186 202 202
179 196 181
184 200 195
182 199 190
180 197 187
184 200 196
181 198 187
182 199 190
182 199 190
181 198 188
183 200 198
182 199 192
184 200 196
182 198 188
180 197 186
179 196 177
184 200 199
181 198 187
179 197 183
182 199 194
180 197 184
182 198 190
180 197 184
183 199 194
184 200 194
182 199 191
182 199 190
180 197 186
183 199 192
181 198 187
184 200 198
183 199 192
182 198 190
181 198 187
183 200 195
182 198 187
183 199 199
181 198 190
180 197 181
181 198 184
182 199 191
180 198 187
183 199 191
177 195 174
183 199 195
179 196 188
180 197 183
183 200 198
180 197 184
179 196 181
181 197 181
179 196 183
180 196 180
180 198 188
182 199 191
182 198 188
181 198 187
183 199 195
183 200 194
182 199 195
184 200 198
180 197 180
179 196 181
183 199 194
182 198 191
183 199 191
181 198 192
181 198 186
179 196 187
184 201 202
185 201 200
181 199 194
185 201 199
184 200 198
181 198 186
183 199 194
183 199 196
179 196 184
184 200 195
182 199 191
183 200 199
184 200 196
180 197 184
182 199 196
184 200 196
184 201 203
181 198 195
182 199 194
180 197 184
180 197 187
181 198 190
182 198 191
181 198 191
181 198 191
181 199 194
181 198 190
180 196 191
177 193 183
178 194 183
180 196 199
172 188 182
170 185 174
171 188 187
168 185 169
162 178 175
163 179 167
154 172 176
156 174 175
144 161 165
142 159 156
132 149 154
134 151 163
131 150 164
113 132 144
113 131 140
110 130 146
110 129 155
95 116 137
75 99 134
54 82 124
48 76 114
50 79 111
50 79 127
46 74 110
48 76 114
48 77 122
46 74 106
45 72 119
45 72 110
44 71 113
43 69 109
41 66 111
40 65 103
43 69 107
38 62 99
37 60 107
34 56 89
33 54 97
31 51 90
44 57 82
78 90 111
83 97 112
113 126 134
89 107 134
50 80 130
53 85 124
53 85 118
55 88 130
56 88 132
56 89 125
55 88 128
58 92 134
58 91 129
58 92 141
58 91 131
60 94 142
58 92 134
57 91 139
61 95 141
58 92 137
58 92 136
60 95 142
58 93 129
60 95 138
59 93 128
59 93 134
59 93 142
62 97 149
59 94 132
60 94 137
59 93 135
59 94 129
60 95 145
60 94 136
59 94 139
61 95 143
60 94 141
60 95 139
59 93 134
60 94 144
61 95 147
61 95 140
58 92 130
58 93 134
60 95 143
60 95 140
61 95 148
59 94 142
61 95 143
60 95 134
60 95 143
60 95 143
61 96 143
59 94 126
60 95 145
58 92 126
59 93 131
61 96 143
60 95 142
60 95 134
61 95 145
60 94 140
61 96 142
61 96 144
60 94 137
61 95 141
60 95 140
60 95 135
61 96 141
60 95 130
59 93 131
57 90 120
59 92 131
58 91 128
60 94 139
61 95 150
61 95 142
59 92 128
59 93 139
58 92 136
58 92 124
58 91 120
58 92 126
60 94 134
58 91 129
60 94 137
59 93 134
59 93 140
59 91 134
60 94 133
59 93 134
57 89 126
59 92 134
57 89 130
59 92 136
58 90 132
56 87 119
56 87 132
57 88 118
56 87 125
56 87 123
54 83 112
53 82 114
54 83 109
51 80 118
46 70 92
60 73 75
75 75 44
66 66 42
51 54 36
51 53 32
43 48 33
46 50 33
53 58 38
46 53 39
60 65 47
63 69 51
64 72 48
65 71 50
82 86 58
71 77 50
79 83 52
88 92 52
96 99 60
99 100 59
93 96 63
108 109 67
105 107 64
110 112 69
106 106 58
108 110 68
121 121 70
117 116 65
126 125 67
125 123 70
123 123 72
127 125 73
141 137 79
136 134 77
130 130 80
134 132 73
132 130 75
141 138 75
139 138 77
140 139 77
150 147 87
145 142 80
152 148 82
143 140 82
145 142 82
145 142 79
152 149 84
153 148 81
153 149 81
153 150 85
160 155 90
162 156 82
159 154 85
154 150 85
160 155 85
158 152 83
160 155 83
164 157 87
160 155 85
167 161 85
164 159 81
165 160 89
161 156 82
164 159 84
164 157 84
165 160 85
168 162 85
170 163 85
170 163 90
167 162 83
167 161 83
169 162 91
166 160 81
168 162 85
168 162 86
171 164 89
168 162 83
167 161 81
168 163 81
169 163 85
166 161 86
171 164 86
168 163 86
174 166 90
168 162 83
171 165 90
172 165 87
169 162 86
171 164 91
167 162 80
171 164 87
171 165 90
167 160 84
170 163 88
169 162 76
163 158 80
166 161 80
169 163 84
166 160 83
166 160 85
167 162 84
163 158 79
171 163 89
168 162 84
166 160 82
167 160 86
166 159 80
156 151 77
170 164 90
166 160 81
169 162 87
172 165 89
166 159 82
164 158 85
164 159 80
165 160 81
163 156 84
166 158 87
161 154 79
164 157 84
170 163 88
165 159 84
160 154 80
164 158 89
164 157 86
165 159 84
165 158 88
157 151 72
157 152 77
166 160 82
158 152 80
161 154 80
161 156 81
153 148 74
164 158 80
159 153 80
166 159 87
159 153 79
154 149 76
151 145 78
160 153 79
150 144 75
157 151 79
159 153 79
152 146 72
149 145 69
159 153 77
152 145 78
155 148 78
153 148 74
176 194 172
183 200 195
178 195 171
180 197 184
182 199 190
179 197 186
179 196 181
178 195 175
184 201 199
180 197 180
181 197 181
182 198 188
182 198 186
181 198 187
179 196 181
181 197 184
180 197 184
179 196 178
183 199 192
182 198 191
181 197 181
184 200 192
180 197 184
178 196 181
180 197 186
182 199 188
181 197 183
185 201 199
181 197 183
182 198 187
181 198 184
182 199 187
183 199 194
182 198 188
182 198 187
179 196 180
181 198 183
179 196 177
183 199 192
180 197 181
184 200 196
183 199 196
180 197 184
178 195 175
182 198 192
187 203 208
178 195 177
181 197 183
179 196 180
179 196 177
177 194 168
185 201 199
180 197 180
183 199 190
180 197 186
179 196 178
182 199 191
183 199 191
181 198 190
182 199 188
180 197 180
177 195 172
186 202 202
181 198 191
182 199 192
182 199 188
180 197 184
180 197 184
181 197 188
182 199 196
181 197 187
179 196 178
181 198 186
180 197 183
184 200 198
184 200 196
180 197 187
184 200 195
181 198 192
181 198 186
183 199 186
182 198 187
180 196 180
180 196 181
178 195 169
179 196 177
179 196 184
180 197 183
180 197 188
180 196 178
181 198 191
179 196 178
183 199 195
181 198 190
180 197 187
178 195 177
181 198 186
181 197 187
185 201 202
178 194 186
181 198 191
178 193 182
172 188 165
176 191 176
174 190 171
177 193 185
166 181 164
166 182 164
154 169 159
167 183 185
159 176 180
160 177 171
148 163 173
156 171 174
139 156 159
138 156 160
119 137 154
139 156 152
120 139 150
123 141 152
98 118 135
89 109 124
88 110 142
80 102 129
62 88 123
50 79 105
50 80 118
47 75 111
48 77 111
47 75 110
46 73 110
46 73 109
45 72 107
47 75 112
45 73 108
42 67 103
42 68 104
38 62 101
36 59 95
39 63 95
37 60 95
30 50 75
30 50 85
31 51 86
38 53 82
66 78 98
63 73 87
95 107 107
85 102 116
49 78 113
54 85 127
56 89 130
55 87 128
55 88 121
55 87 130
57 91 134
55 88 129
56 89 130
57 91 127
58 91 130
57 90 122
57 90 129
59 93 135
57 91 130
58 92 131
58 93 129
59 93 125
58 92 130
60 95 139
59 94 132
59 93 136
59 93 128
60 94 134
60 95 142
61 95 145
61 95 143
60 95 137
60 94 136
58 92 134
59 93 132
60 95 139
61 96 144
59 94 129
58 92 129
59 94 131
61 95 144
60 95 144
60 94 136
59 93 136
61 96 141
58 92 128
61 95 141
59 93 126
59 94 133
60 94 139
60 95 135
59 94 135
59 93 135
59 94 131
59 94 133
58 92 133
60 94 131
60 95 141
59 93 131
58 93 125
60 93 130
59 93 136
59 93 130
59 93 125
62 97 151
59 94 130
58 91 128
60 94 137
60 94 135
59 94 130
59 93 139
59 93 131
60 94 141
58 92 123
59 93 129
60 93 133
58 91 133
59 93 128
60 94 136
59 92 129
59 92 144
59 92 138
57 90 117
59 93 131
59 93 134
60 93 133
60 94 139
58 90 124
59 92 132
54 86 118
58 91 128
58 90 119
59 93 128
57 89 129
58 90 126
58 90 128
56 87 116
55 86 122
56 88 126
57 87 123
55 86 114
54 83 113
55 84 122
55 86 129
51 79 111
46 71 89
59 73 82
77 74 45
52 53 34
50 50 29
46 48 31
50 54 33
46 52 37
45 49 33
46 53 40
42 48 34
61 67 46
63 69 41
72 77 52
73 76 47
83 87 57
85 88 55
74 80 48
90 94 61
101 103 63
95 96 56
114 114 66
107 108 60
100 102 59
116 117 74
114 115 64
121 120 73
111 113 65
115 115 65
132 130 76
141 138 80
132 131 74
135 132 71
128 127 67
136 134 73
131 130 70
137 135 77
143 140 83
140 137 79
149 145 77
138 136 74
149 144 82
144 140 78
143 140 77
146 143 79
153 150 86
153 149 82
158 153 82
150 146 83
153 148 78
151 147 80
152 148 80
151 147 77
154 150 78
162 156 87
159 154 89
162 157 87
157 153 77
161 156 81
158 153 83
159 154 84
163 157 87
165 159 90
162 157 85
164 159 85
163 157 83
163 158 85
167 160 86
160 155 83
167 161 88
170 164 92
167 161 85
168 162 85
167 161 83
164 159 80
166 160 86
165 160 82
166 160 85
170 163 86
167 161 82
167 161 87
169 162 79
166 161 84
173 166 91
168 162 89
172 165 89
169 163 84
168 162 79
165 159 80
161 156 81
165 159 83
170 164 90
165 159 83
172 165 88
166 160 81
166 159 78
168 162 81
169 163 87
166 161 75
164 159 80
167 160 88
162 156 80
167 160 85
169 161 90
170 164 90
168 161 87
165 159 83
168 162 82
170 162 89
165 158 81
161 155 76
168 162 87
166 161 77
166 160 84
155 150 76
165 159 80
164 157 87
168 161 90
163 157 83
161 154 81
159 154 81
161 155 83
168 162 82
166 160 88
166 159 83
160 154 75
163 157 84
161 154 84
166 160 93
161 155 80
164 160 76
159 154 75
158 152 78
165 158 86
161 155 85
166 160 84
162 156 84
166 159 86
164 158 75
161 155 80
160 153 78
159 152 72
159 153 86
158 151 75
156 150 76
151 145 69
155 149 80
158 152 79
153 147 76
159 153 82
180 197 184
182 199 190
180 197 181
181 198 183
182 199 186
182 199 190
185 201 202
183 199 190
178 195 174
181 198 184
181 198 183
181 198 186
181 197 184
178 195 172
178 195 174
181 197 187
179 196 178
183 199 192
181 197 181
175 192 163
181 198 186
177 195 169
181 198 187
179 196 180
178 195 175
175 193 163
182 198 190
180 197 183
184 200 192
183 199 190
179 196 177
180 197 183
176 194 166
181 197 184
178 195 172
181 198 184
176 194 166
179 196 175
182 199 190
182 198 186
179 196 183
178 195 175
178 195 178
180 197 181
182 199 190
184 200 194
179 196 175
175 193 165
180 197 178
181 197 186
179 196 183
179 196 181
180 197 186
178 196 175
179 196 181
181 198 186
180 196 178
182 199 191
181 198 188
174 192 165
181 198 186
179 196 178
179 196 178
180 197 180
178 195 178
178 195 171
181 198 187
181 198 183
178 195 175
178 195 178
177 195 171
183 199 191
179 196 183
177 195 172
177 194 178
178 195 181
178 195 174
181 198 187
181 197 184
180 197 183
180 197 187
181 198 187
177 194 172
176 193 171
180 197 187
180 197 180
178 195 177
182 199 190
180 197 186
179 196 180
177 194 178
176 193 166
181 197 183
181 197 183
180 197 181
179 196 178
179 196 180
178 196 184
176 194 168
180 195 188
175 192 170
177 193 183
176 192 179
177 193 168
170 184 163
169 185 172
162 178 157
163 180 166
162 177 174
161 177 162
156 171 166
152 168 159
148 163 165
150 165 163
142 159 157
135 153 145
123 141 135
123 142 155
114 132 140
105 125 143
107 125 134
97 117 136
86 107 132
84 106 130
56 83 116
51 80 127
50 79 118
46 75 107
48 75 106
47 74 106
45 73 111
47 75 114
45 71 99
43 69 97
45 72 100
40 65 101
42 67 98
44 70 107
36 59 94
35 57 85
37 60 92
33 55 88
33 53 86
24 41 72
44 59 78
53 65 84
87 99 101
115 128 133
81 100 115
51 81 122
54 87 130
52 83 122
57 90 136
57 90 139
55 88 122
58 91 129
58 91 135
58 92 129
56 89 128
59 93 132
59 93 137
57 90 142
58 92 139
58 92 134
58 92 134
58 91 129
58 91 131
59 93 136
59 94 140
59 94 139
59 94 136
59 93 133
59 94 136
58 92 128
59 93 134
60 94 137
60 93 140
59 93 131
59 94 139
59 93 135
61 95 142
60 94 139
60 95 144
58 92 132
60 94 136
61 95 129
60 95 142
59 93 127
58 92 119
61 96 140
60 95 136
61 96 138
59 93 129
59 93 129
59 94 132
59 93 130
60 94 137
61 96 139
60 94 136
59 93 134
59 93 129
59 94 128
60 94 133
58 91 129
59 92 136
59 93 130
59 93 131
59 93 130
59 93 129
59 94 134
61 96 143
60 95 139
60 94 137
59 93 126
59 92 128
58 92 124
60 95 144
58 92 126
61 95 137
59 92 131
59 93 138
58 91 121
59 92 130
60 94 141
60 94 135
59 92 127
59 92 128
58 91 128
60 94 132
60 94 138
56 89 124
59 92 134
55 87 121
60 93 131
59 93 140
60 93 138
59 92 131
58 90 132
57 89 123
55 86 121
57 89 123
59 92 140
59 90 127
55 85 123
55 86 128
58 89 123
55 85 111
54 82 105
53 82 111
51 77 98
48 74 89
70 81 81
51 53 25
55 56 37
45 47 27
44 48 25
25 32 21
37 42 26
53 57 33
53 57 32
50 55 37
64 69 44
61 67 45
64 71 52
71 76 48
82 85 55
89 91 55
77 80 48
88 92 56
100 100 60
96 98 59
104 105 61
93 95 56
110 110 66
114 114 67
117 116 63
112 111 64
122 121 69
130 130 70
114 114 63
124 124 68
122 121 67
130 129 75
139 137 77
131 130 72
139 136 74
133 132 76
140 138 78
138 136 73
139 136 73
139 137 72
150 146 79
151 147 78
143 140 76
142 139 75
153 148 76
158 152 84
153 149 80
156 152 85
147 144 77
155 151 84
148 145 78
151 148 77
157 153 84
161 156 83
158 154 78
156 151 82
163 158 87
159 154 87
163 157 86
165 160 80
163 157 85
163 157 78
163 157 83
159 155 73
163 159 85
163 158 83
166 161 84
164 159 82
166 160 89
170 164 88
166 161 81
166 160 81
166 160 87
169 163 86
165 159 79
169 163 85
165 159 80
164 159 81
169 164 84
167 161 86
167 161 80
169 163 85
168 162 89
169 163 90
167 161 89
169 163 80
172 165 87
167 162 83
166 160 86
168 162 84
173 166 88
170 163 87
167 161 83
162 157 72
173 166 90
167 161 84
168 161 86
167 161 86
168 161 82
170 164 88
165 159 84
166 160 83
168 161 82
165 160 76
170 163 87
168 162 83
165 157 80
161 155 72
159 153 74
163 156 80
163 156 85
165 159 83
162 156 79
164 158 84
169 162 88
169 162 87
163 157 89
166 160 80
170 163 87
162 156 77
161 155 82
159 152 76
161 156 78
158 152 74
165 158 85
167 160 85
165 159 81
160 154 75
162 156 84
159 152 80
161 155 85
160 154 75
158 153 79
156 150 71
160 154 80
160 153 78
162 155 80
154 149 75
157 151 75
157 150 78
168 160 82
154 147 76
163 157 89
159 152 82
165 159 84
165 158 84
158 151 80
162 154 84
159 153 84
181 198 186
180 197 178
183 199 186
178 195 172
181 197 181
184 200 190
177 194 169
180 197 181
177 194 169
178 195 174
181 197 183
179 196 175
177 194 168
181 198 184
182 199 190
178 195 175
179 196 177
183 199 188
180 196 181
183 200 195
180 197 178
178 195 172
178 195 169
176 193 165
175 192 155
178 195 174
181 198 187
176 193 165
177 194 171
182 198 186
184 200 192
180 197 180
180 197 188
178 195 175
185 201 196
179 196 175
177 195 174
182 198 186
178 195 174
177 194 171
181 198 183
181 198 186
180 197 181
181 197 180
178 195 169
179 195 175
180 197 186
179 196 177
179 196 178
178 195 171
179 196 177
178 195 175
180 197 183
178 195 171
180 196 174
181 197 184
178 195 174
180 196 178
174 192 161
179 195 180
179 195 186
181 197 180
178 195 172
182 198 188
179 196 177
177 194 165
181 197 181
179 197 183
178 195 178
178 195 172
183 199 192
183 199 190
179 196 178
179 195 177
178 194 168
181 197 186
179 195 172
178 195 178
179 195 178
177 194 168
178 196 174
182 198 188
181 197 183
178 195 174
177 194 172
177 194 174
177 194 168
178 195 171
178 195 172
179 196 180
175 193 161
176 194 166
174 192 161
177 194 168
172 189 165
184 200 198
179 196 178
181 197 187
176 193 171
172 190 161
174 189 167
177 192 174
168 185 158
171 186 161
166 180 149
165 181 160
161 175 155
165 181 167
157 173 152
162 177 157
155 171 163
148 165 159
155 172 161
154 170 168
139 156 147
138 154 154
139 157 151
117 135 138
108 127 127
114 132 131
108 127 135
96 117 131
91 111 121
79 101 123
54 81 117
49 77 111
48 77 111
50 79 121
48 76 110
50 79 125
47 75 109
45 72 109
45 71 107
45 71 108
42 67 98
40 65 94
41 66 78
36 59 89
38 61 95
37 60 93
32 53 79
29 48 76
31 50 76
27 46 64
44 56 74
59 72 69
83 95 103
83 93 97
96 114 115
52 83 125
53 84 123
54 85 130
55 87 127
56 89 133
57 90 126
57 90 128
55 87 121
57 90 131
59 93 137
56 89 134
56 89 118
59 93 129
59 92 136
58 91 124
57 90 124
59 93 135
58 93 136
59 94 133
58 92 124
59 93 136
59 94 139
57 91 130
59 93 139
60 95 141
58 92 128
60 95 141
60 95 140
60 95 140
61 96 149
60 94 143
59 93 135
61 95 143
61 95 141
60 94 138
61 95 143
60 94 136
58 92 123
59 93 136
59 93 128
60 94 135
60 94 129
59 94 131
60 94 137
59 94 141
58 92 126
60 94 131
59 93 137
60 95 136
59 93 131
59 93 134
60 94 135
61 96 140
57 90 117
60 95 137
60 94 134
60 94 136
61 96 148
61 95 141
58 93 130
58 92 128
60 94 143
58 92 129
58 92 129
61 95 139
60 95 138
59 93 128
60 94 140
59 93 129
60 94 139
58 91 123
59 93 126
58 92 120
59 91 127
60 94 141
60 94 132
58 92 133
59 92 127
60 94 135
57 90 117
59 92 121
59 92 138
60 93 137
59 92 129
59 91 130
57 89 130
57 90 123
57 89 121
58 91 136
59 92 133
59 91 135
57 88 130
58 90 133
58 90 129
55 85 118
55 85 115
56 87 126
52 80 108
54 84 114
51 79 104
51 78 95
47 72 88
62 73 72
65 64 34
61 63 35
42 43 27
47 51 35
44 49 29
38 43 25
48 54 34
54 60 36
39 46 28
64 68 42
57 62 33
53 60 41
72 76 45
74 78 47
87 88 49
83 86 56
92 94 52
84 87 54
91 93 55
95 98 59
104 105 61
103 104 56
107 109 63
116 116 71
118 117 66
117 115 65
118 118 74
130 128 70
127 126 69
129 128 74
121 121 70
127 125 75
131 129 70
140 136 72
131 129 68
139 136 72
140 138 73
140 137 75
139 137 80
152 148 79
144 141 80
145 142 75
149 145 83
153 148 81
158 153 77
152 148 79
150 146 76
159 154 86
150 146 82
161 156 87
149 145 77
159 154 79
156 152 83
159 154 84
162 157 83
163 157 82
150 146 72
163 157 90
160 154 80
159 154 77
158 153 77
166 160 83
160 154 81
167 161 85
163 157 85
164 159 80
167 160 89
166 160 84
168 162 90
166 159 82
167 161 86
167 161 75
167 161 82
167 161 85
166 160 85
166 160 83
164 159 75
171 164 90
171 164 87
166 161 79
169 162 82
166 160 77
171 165 85
170 164 82
167 161 87
164 159 75
168 162 86
164 158 78
170 163 85
174 166 91
168 163 85
169 162 87
170 163 84
170 164 79
170 163 87
162 156 74
171 164 85
162 157 77
168 162 82
167 160 85
165 158 82
165 159 80
162 155 82
170 163 88
160 155 77
164 158 81
158 153 71
157 151 74
170 163 83
171 164 86
162 156 78
165 157 84
164 157 79
166 159 87
167 160 86
164 157 81
159 152 74
169 162 83
168 161 83
163 156 80
164 158 83
165 158 84
166 159 87
166 159 80
162 156 76
160 153 80
165 159 84
159 153 79
165 157 80
161 154 72
162 156 78
160 154 78
163 157 84
152 146 72
160 154 82
158 152 77
163 157 84
157 150 75
159 153 80
161 154 79
163 156 84
161 155 79
162 155 81
158 152 77
162 156 82
149 144 73
165 158 88
160 154 79
179 196 178
178 195 171
180 196 175
180 197 180
181 198 184
178 196 175
178 195 177
181 198 181
176 194 165
179 196 171
181 198 183
179 195 172
178 195 175
177 194 169
178 195 165
180 196 178
178 195 174
179 196 175
179 196 177
179 195 178
177 194 169
180 196 177
181 198 186
174 192 153
180 197 184
178 195 177
179 196 177
181 197 186
177 194 165
179 196 180
181 198 186
177 194 165
178 195 169
180 196 177
181 198 184
180 196 178
178 195 174
179 196 177
176 194 166
179 196 180
180 197 184
182 199 188
175 193 165
177 194 168
180 197 186
180 197 180
179 196 177
180 197 177
178 195 171
181 198 184
179 196 178
178 195 168
174 191 161
171 189 148
179 196 180
180 197 181
179 196 175
178 194 166
176 194 169
177 194 172
179 196 180
179 196 172
178 195 174
178 195 171
178 195 169
179 195 177
178 194 168
176 193 160
178 194 171
177 194 171
174 191 155
176 193 171
177 194 169
182 198 183
175 192 160
179 196 174
178 195 184
180 196 183
179 195 174
181 197 186
178 195 172
178 195 177
175 192 160
178 195 180
175 193 166
177 194 168
179 196 177
178 195 172
175 192 158
179 195 177
175 192 166
176 192 172
177 194 174
176 192 172
179 196 180
179 195 171
175 192 166
177 194 169
174 191 161
176 193 171
177 194 176
178 193 182
170 185 163
171 185 167
173 189 168
159 174 132
164 179 160
159 172 151
155 172 153
151 167 146
151 168 134
148 164 143
141 157 134
146 163 143
137 154 132
127 144 147
133 150 134
124 141 140
103 122 126
112 130 138
109 128 126
89 108 116
90 111 124
76 98 118
60 84 108
50 79 114
50 79 116
49 78 115
47 75 109
46 74 102
47 74 99
45 72 101
43 69 97
46 73 108
44 70 102
42 66 93
41 65 92
41 65 98
36 59 82
37 60 94
36 58 94
31 51 79
34 54 82
27 45 59
26 44 65
61 73 73
84 96 78
113 127 110
97 116 123
51 81 115
51 82 113
54 86 126
54 86 123
55 87 124
56 89 127
56 89 125
58 91 136
57 90 136
57 90 127
57 90 125
57 91 132
60 94 142
58 92 122
57 91 123
60 95 144
58 92 129
58 92 123
60 94 143
59 93 131
58 92 118
58 92 126
58 92 123
60 95 139
59 93 136
59 92 130
59 93 126
60 94 133
60 94 130
60 95 137
58 92 126
59 93 131
61 96 142
59 93 136
60 94 142
60 95 132
59 93 129
59 94 132
59 93 132
60 95 138
59 93 126
60 95 137
60 94 133
59 93 127
60 95 136
60 95 144
59 94 130
60 94 133
60 93 130
58 92 119
59 94 132
59 93 131
61 96 139
60 94 138
59 93 130
61 96 137
59 93 131
59 93 128
61 96 144
58 91 126
60 95 140
61 95 133
61 96 145
60 95 133
60 94 139
59 93 131
60 94 136
60 95 138
60 94 134
58 92 123
58 91 125
59 93 137
59 93 126
58 91 128
61 95 146
59 93 137
60 93 140
58 92 129
57 90 125
59 92 132
58 91 132
58 91 125
57 90 126
59 93 124
58 90 124
58 91 131
57 88 116
56 88 108
56 88 115
59 91 128
58 90 134
54 86 115
56 88 126
57 89 128
56 88 124
55 86 122
55 85 112
53 82 104
50 78 97
52 80 101
50 76 106
49 75 96
60 69 62
77 75 38
63 64 26
53 54 25
54 54 26
43 49 31
39 45 29
43 49 30
44 50 29
54 61 39
58 64 41
57 64 37
60 66 40
50 58 37
60 66 41
81 84 50
78 81 50
87 91 49
83 87 56
94 95 55
79 84 47
99 101 60
107 107 62
111 111 63
108 109 58
113 114 67
123 122 71
122 122 69
125 124 72
124 122 65
124 123 65
127 127 71
132 130 75
137 134 75
136 134 72
131 130 64
141 138 70
136 134 62
145 142 77
144 140 71
140 138 74
139 136 72
143 140 77
149 145 77
147 143 77
141 138 74
146 143 70
154 149 78
147 144 81
157 151 84
147 144 71
155 150 75
148 144 73
158 153 82
151 147 77
153 149 70
159 153 82
161 155 85
162 156 84
162 156 81
156 151 76
164 158 87
159 154 80
154 151 75
164 159 77
166 160 83
163 157 76
166 160 86
162 157 82
167 160 83
165 159 87
165 159 82
164 159 83
161 156 80
163 157 78
167 162 83
165 159 80
160 156 73
169 162 83
167 161 79
168 162 81
163 158 81
168 161 78
168 162 82
168 161 84
167 161 80
171 165 86
169 162 82
169 163 84
172 165 84
164 159 79
168 163 84
168 162 82
166 159 85
169 162 84
165 159 80
167 161 81
169 163 87
169 162 84
163 157 80
165 159 72
165 158 80
162 156 77
168 161 81
161 156 74
162 155 75
163 157 78
164 159 80
165 159 82
169 162 84
169 162 87
160 154 80
160 154 75
166 159 83
159 152 80
160 154 76
164 158 80
158 153 73
159 153 75
163 157 80
164 157 88
154 148 70
159 154 84
163 158 81
164 157 83
170 162 84
165 159 80
162 156 81
161 155 80
160 154 80
159 152 71
159 154 74
162 157 75
168 161 84
167 160 84
163 157 77
162 157 78
158 152 74
152 145 71
156 148 77
165 158 88
158 151 78
155 149 78
161 154 77
157 150 78
161 155 80
159 152 80
149 143 74
160 152 75
177 194 165
176 194 168
176 193 168
178 195 172
179 196 177
179 196 175
178 194 166
182 198 187
177 195 171
182 198 188
179 196 177
175 193 158
177 194 165
179 196 178
177 194 168
181 197 184
180 197 178
175 192 158
181 198 184
179 196 178
176 194 166
178 195 171
178 195 168
174 192 155
175 192 161
178 195 171
178 195 171
177 194 163
179 195 174
179 195 175
177 193 165
181 197 183
176 193 158
177 194 168
180 196 175
180 196 175
180 196 175
176 194 161
179 195 175
176 193 161
175 193 160
180 196 177
176 193 160
182 198 184
183 199 190
177 194 174
175 192 156
181 197 181
174 192 155
178 195 172
177 194 168
179 196 174
180 196 174
178 195 171
176 193 165
180 197 178
176 194 169
178 195 172
178 196 180
178 195 171
174 191 158
178 194 169
174 191 160
174 192 156
175 193 166
179 196 175
177 194 166
174 192 155
179 196 177
177 194 166
174 192 156
173 191 155
181 197 181
174 192 156
179 195 174
178 195 171
179 195 180
176 193 156
174 191 153
175 192 166
175 192 165
177 194 169
175 192 158
175 192 161
177 194 171
172 189 160
175 192 158
179 195 180
177 193 169
174 191 160
175 192 161
176 193 169
173 191 156
174 191 161
178 193 177
175 192 166
176 192 169
176 193 168
174 190 165
177 193 168
177 193 171
175 191 170
169 185 155
171 185 149
167 182 156
165 180 151
165 179 154
159 174 141
154 169 152
150 167 135
151 167 141
147 163 144
138 154 137
132 149 140
141 159 145
127 142 137
115 133 139
123 140 123
124 141 123
106 124 127
95 115 122
94 115 120
83 103 114
77 99 115
57 83 98
49 77 102
50 79 113
49 78 122
46 74 102
46 74 106
46 74 102
44 71 96
45 72 111
42 67 100
41 66 93
40 64 93
41 66 92
39 62 91
36 58 78
35 57 84
35 57 79
33 54 71
32 51 69
28 47 68
45 59 73
68 78 83
79 91 85
105 118 115
105 121 128
51 82 119
51 82 117
54 86 121
53 85 116
56 89 119
55 87 125
57 90 125
57 91 131
55 88 118
57 90 120
55 88 123
59 93 140
57 90 125
56 89 124
58 92 129
58 92 131
58 92 126
59 93 132
58 92 134
60 94 128
59 94 139
59 93 133
58 92 128
60 95 139
59 93 139
59 93 135
59 92 129
58 92 128
60 94 134
60 94 132
59 93 130
59 93 132
60 94 137
60 94 132
60 94 135
59 93 141
59 93 134
59 93 131
59 93 121
59 93 127
60 95 134
61 96 141
60 95 132
59 94 133
59 93 128
59 93 126
60 94 135
59 93 130
57 91 122
60 95 141
59 94 136
59 93 129
59 93 133
62 97 149
60 95 138
59 93 140
60 94 129
60 94 135
58 91 133
59 92 127
58 92 124
59 93 131
59 93 132
59 93 135
59 93 129
59 93 129
60 94 134
59 93 123
59 93 128
60 94 136
57 89 123
58 91 129
60 94 133
59 93 125
59 92 124
58 92 128
59 92 140
58 91 119
60 94 133
59 92 130
57 91 128
59 92 126
57 89 126
56 89 125
59 92 138
55 86 120
57 89 125
59 92 139
57 89 119
54 85 122
58 91 126
56 87 124
58 90 130
54 83 103
54 83 109
55 85 119
56 87 125
54 84 116
55 85 117
53 82 116
52 80 106
49 74 99
66 74 60
75 74 35
49 50 25
38 40 16
48 51 28
38 45 28
33 39 21
37 42 25
44 50 26
55 60 31
52 57 31
49 56 33
73 75 46
61 65 36
69 74 46
73 78 48
73 78 46
81 84 53
90 92 46
99 100 54
99 99 54
103 102 51
112 111 63
115 114 61
113 113 63
108 110 57
112 112 63
108 109 62
119 118 66
129 127 70
133 130 76
125 123 59
142 138 71
131 129 66
142 139 80
140 136 73
141 137 71
138 135 71
134 132 65
138 135 70
148 145 73
146 143 71
152 147 77
141 138 68
150 146 74
148 144 73
149 145 75
144 140 71
148 144 79
148 144 71
163 157 86
157 152 81
152 149 72
161 154 80
156 152 78
152 148 73
155 150 78
157 151 78
161 156 76
157 152 77
159 155 78
165 159 84
159 154 81
166 160 81
165 159 76
159 154 79
165 159 81
161 156 82
164 159 77
171 164 86
161 157 81
163 157 79
167 160 84
171 164 87
164 159 80
167 161 80
167 162 81
165 158 81
168 161 76
165 159 79
171 164 87
173 166 89
166 160 76
164 158 73
169 162 89
169 162 84
166 160 87
168 162 81
167 160 76
164 158 79
169 163 87
170 163 87
169 162 78
165 159 83
163 157 78
165 159 79
165 159 81
167 160 80
166 160 81
167 160 84
165 159 75
167 161 84
169 163 84
164 158 75
165 159 84
167 161 78
159 155 75
167 161 81
165 159 83
168 161 82
160 154 75
161 155 78
167 159 84
167 162 85
163 157 85
167 160 84
160 155 73
164 158 82
165 158 83
160 154 77
166 159 81
163 158 80
166 160 81
162 155 82
165 158 84
163 158 80
163 157 79
164 158 80
161 154 80
162 155 77
164 158 82
156 150 75
156 150 75
165 158 86
160 153 75
161 155 82
153 148 76
164 157 82
162 156 80
161 155 81
154 148 70
158 152 78
161 155 81
150 145 69
156 149 77
156 150 77
164 157 87
150 144 71
158 152 75
175 193 160
177 194 169
179 196 172
178 195 169
176 193 161
180 197 177
180 196 177
177 194 166
179 195 172
178 195 172
179 195 174
179 196 177
176 193 165
175 192 160
175 192 160
177 194 161
177 194 165
183 199 188
178 195 174
179 196 177
179 195 178
176 193 161
177 194 165
181 197 178
175 193 165
177 194 168
175 193 165
177 194 161
176 193 160
176 194 166
175 193 163
174 192 156
176 193 158
174 192 158
176 192 168
177 194 160
175 192 155
177 194 163
177 193 168
176 193 163
174 191 158
177 194 166
173 191 151
175 192 160
174 191 155
175 192 160
181 197 183
177 194 168
176 193 168
174 192 161
176 193 169
175 192 160
177 194 166
174 191 153
178 195 174
176 193 166
178 194 168
179 195 177
177 194 166
178 195 174
176 193 166
173 190 158
176 193 163
173 191 150
173 190 153
177 194 172
177 194 166
180 196 180
176 193 161
172 189 144
179 196 178
179 195 169
177 194 168
173 191 150
173 190 153
174 191 155
177 194 163
174 191 153
174 191 153
172 189 151
175 192 163
174 191 153
174 191 163
174 192 156
173 191 156
174 191 160
176 193 169
176 192 163
175 192 160
171 189 150
176 193 163
177 193 169
174 191 158
173 189 160
172 190 155
171 189 150
175 192 161
170 187 148
168 186 148
169 186 150
169 185 155
166 182 137
168 184 146
166 182 142
164 179 141
164 179 143
167 183 155
161 178 142
151 169 136
160 176 158
139 156 137
140 156 130
138 154 132
142 158 140
142 157 139
124 143 133
121 138 129
116 135 130
123 141 133
102 121 118
106 125 130
84 106 104
88 110 114
78 100 113
66 90 107
49 78 115
49 77 108
46 73 101
45 72 101
48 76 113
46 72 108
45 72 99
43 69 103
45 72 99
41 65 88
39 63 94
39 62 88
38 61 76
36 58 80
35 56 76
32 53 84
32 51 66
29 47 69
26 44 58
58 71 73
75 89 74
94 105 89
97 110 84
100 116 103
48 77 105
51 81 119
53 83 123
54 85 111
55 87 129
54 86 116
57 91 127
57 90 127
55 88 117
57 90 129
59 93 132
57 91 120
58 92 123
58 92 137
58 91 129
58 92 128
58 92 115
57 91 128
59 93 129
57 91 119
58 92 134
58 92 127
60 94 136
60 95 132
60 94 133
59 93 136
58 92 123
60 94 132
60 94 132
59 93 133
59 94 137
60 94 132
58 92 127
59 94 127
58 92 126
59 93 126
59 94 131
59 93 130
59 93 118
59 93 125
59 93 137
58 92 135
60 95 137
59 93 132
60 94 131
61 95 140
60 95 136
59 93 131
59 93 124
60 94 134
61 96 144
60 95 141
59 93 133
59 93 128
60 95 131
60 94 130
60 95 142
59 92 134
59 93 137
59 93 129
61 95 145
59 93 134
59 94 139
57 91 129
60 94 140
60 94 133
57 90 114
58 91 122
59 94 133
60 94 142
60 94 141
60 95 139
60 93 133
59 92 134
57 90 121
58 91 130
57 89 125
58 91 128
57 90 126
59 92 138
58 90 130
60 94 130
59 92 123
58 91 123
58 91 131
57 89 118
57 89 120
57 90 118
58 91 132
56 87 121
58 91 126
56 88 120
56 88 118
57 89 121
56 86 112
55 85 116
54 84 119
51 78 104
50 77 103
52 79 106
51 77 112
47 72 89
75 79 69
72 71 33
65 65 25
50 52 24
48 49 26
47 50 22
38 44 27
43 48 27
52 59 36
43 52 32
61 66 43
60 64 28
67 73 49
71 77 49
73 74 43
75 77 41
86 90 55
85 88 43
108 107 60
107 107 63
91 93 49
110 110 64
102 103 56
101 104 59
105 106 49
105 105 57
114 114 60
113 113 55
118 117 65
138 135 70
129 127 67
126 125 59
137 134 74
132 129 66
136 134 69
131 128 67
138 136 72
144 140 73
153 148 80
138 135 70
137 134 67
146 142 71
141 137 69
141 138 74
154 149 83
150 145 76
150 146 83
152 147 76
153 150 73
156 151 76
146 142 67
158 153 79
157 152 76
164 158 87
153 148 70
156 150 80
157 152 84
164 157 87
157 152 74
160 155 85
160 154 81
166 160 74
165 159 82
161 155 78
165 159 84
164 158 81
162 157 81
163 157 80
170 163 89
163 158 84
159 154 76
168 162 86
165 158 74
162 157 72
165 159 82
167 161 83
162 157 77
169 161 88
162 157 75
169 163 83
168 162 79
163 157 75
167 161 84
163 157 80
167 161 75
166 159 80
166 159 79
167 161 81
164 158 81
160 154 82
168 161 84
167 161 81
164 158 76
164 158 76
169 162 84
166 160 74
166 159 83
167 161 80
169 162 82
169 161 79
167 160 84
168 161 84
160 154 76
162 155 80
164 158 78
163 158 74
166 159 78
169 162 81
167 160 84
166 159 85
167 160 83
164 157 79
164 158 83
161 156 74
163 156 80
165 159 80
164 158 77
162 156 77
157 152 71
154 148 74
162 155 77
157 150 76
161 155 82
163 156 80
164 157 82
161 155 75
165 158 80
160 153 75
163 157 79
153 149 67
157 152 80
164 157 80
162 157 80
167 161 84
162 155 80
159 151 78
159 153 77
159 152 78
161 155 80
159 153 75
155 150 79
159 152 75
156 150 75
151 145 73
151 146 75
153 148 71
154 149 75
153 147 75
157 151 76
180 197 177
175 193 160
176 193 168
174 191 151
179 196 174
176 193 165
179 196 172
176 193 161
177 194 160
179 196 172
177 194 168
172 190 148
177 194 165
176 194 168
175 193 158
180 197 180
180 197 181
179 195 171
176 193 160
176 193 158
175 192 160
178 195 168
176 193 158
179 195 171
174 192 155
180 196 175
177 194 165
176 193 161
176 193 161
179 196 172
175 193 160
180 196 177
174 192 158
176 193 160
177 194 168
175 192 158
181 197 175
176 193 161
174 192 155
176 193 158
171 189 144
175 192 153
174 190 146
173 191 153
178 194 172
169 188 139
175 191 158
179 195 169
174 191 156
178 194 172
173 190 151
178 194 171
176 193 160
174 191 153
179 196 172
175 192 156
172 189 144
172 190 146
172 190 142
178 195 168
175 192 156
172 189 146
174 191 153
177 194 166
175 192 158
168 186 141
174 191 150
171 189 144
170 188 141
175 192 155
177 194 166
173 190 156
173 190 146
173 191 146
176 192 161
174 191 163
173 190 153
176 193 165
173 189 148
175 192 160
173 190 153
170 188 141
168 186 127
171 188 153
169 186 146
172 190 141
171 188 153
172 189 148
170 188 142
175 192 158
175 192 158
172 190 156
170 187 142
171 188 148
168 186 137
171 188 151
173 189 165
175 191 160
169 187 148
168 185 144
169 185 144
170 187 153
167 183 145
162 177 135
156 171 134
154 169 137
163 177 139
152 168 136
153 168 138
147 163 125
149 165 127
144 161 123
142 158 132
134 151 129
127 145 122
131 148 132
118 136 124
109 128 111
112 131 117
102 121 110
98 119 113
93 112 100
82 104 105
77 101 104
59 86 112
52 78 96
47 74 102
48 77 102
47 75 102
49 77 101
46 73 90
42 68 86
43 69 95
43 69 98
40 64 88
39 63 83
40 63 80
38 61 77
37 61 81
35 56 81
33 54 74
29 47 62
29 47 57
42 58 65
49 62 67
81 94 82
96 110 75
109 123 98
117 132 127
47 76 109
51 81 115
50 81 116
54 85 118
54 86 117
57 90 131
56 88 121
57 89 132
55 88 123
57 90 129
57 91 126
58 92 134
58 91 125
58 92 130
60 94 136
59 93 132
56 89 115
59 93 135
58 92 120
57 91 128
60 95 141
59 93 131
59 92 128
59 92 128
60 95 141
59 94 140
58 92 125
58 92 127
58 92 134
59 93 126
59 93 134
59 93 135
59 92 125
57 91 123
60 94 130
59 93 121
60 95 140
59 93 132
60 93 135
58 93 132
59 92 127
59 93 134
59 93 131
59 93 130
59 93 131
60 94 138
59 93 125
60 94 126
58 92 118
57 91 118
59 94 136
58 92 129
58 92 128
60 94 126
60 94 136
59 93 125
59 94 131
60 95 131
59 93 133
59 94 131
58 91 120
58 91 113
60 94 130
59 93 129
58 91 128
59 93 135
60 94 132
60 94 128
58 91 129
58 92 126
58 91 125
58 91 127
58 92 133
59 92 127
59 92 127
59 93 132
59 92 127
60 94 136
59 92 135
58 92 118
58 91 131
57 90 127
58 91 131
56 88 117
58 91 121
57 90 130
58 92 132
55 87 113
57 89 119
58 91 134
57 88 123
56 86 111
54 84 103
53 82 99
56 85 125
55 86 116
54 84 107
51 79 112
52 80 110
52 81 119
48 74 97
45 68 81
78 81 53
86 83 43
71 70 38
51 53 25
47 49 17
34 39 18
50 52 17
39 47 27
42 49 28
55 59 30
54 61 38
56 61 34
56 62 35
68 72 32
71 75 43
76 79 44
89 89 43
71 76 46
81 84 44
90 92 53
98 99 53
98 99 52
91 94 50
113 112 57
118 117 66
121 119 63
104 105 59
118 117 59
117 115 55
126 124 61
130 128 68
118 118 60
124 123 65
125 122 68
141 139 71
134 131 66
134 132 63
136 134 64
137 134 67
140 136 73
138 135 71
146 142 71
145 141 69
148 144 71
146 142 69
144 141 72
153 148 75
155 149 77
139 136 67
153 148 78
155 150 76
155 150 73
148 144 70
158 153 77
155 150 73
158 152 76
156 152 73
154 149 73
157 152 72
165 158 80
152 148 75
161 156 79
157 152 79
158 152 77
158 153 71
159 154 78
167 161 85
162 157 80
166 160 88
166 160 79
163 157 75
167 160 82
166 160 79
166 159 78
169 162 84
164 159 78
164 158 72
168 161 84
165 159 70
164 158 81
169 162 88
165 158 75
165 158 76
163 157 77
163 155 76
172 165 83
167 160 83
160 153 73
167 160 79
162 156 74
168 161 80
162 155 77
168 162 80
165 158 80
168 161 80
166 160 79
157 151 74
165 159 78
169 162 83
168 160 80
167 159 77
165 159 85
167 161 86
167 161 85
162 155 78
166 159 79
166 159 84
166 160 80
168 161 81
160 155 72
164 158 78
166 159 78
161 155 74
163 157 79
162 157 75
166 159 77
169 162 86
162 157 77
164 157 79
162 156 78
164 157 72
162 156 77
163 155 80
160 154 80
161 154 80
168 160 86
157 151 69
164 157 80
163 157 81
150 143 67
158 152 78
156 150 72
162 156 77
158 152 79
157 152 77
158 152 75
158 153 78
153 146 75
150 144 71
155 150 69
158 152 77
155 149 72
156 149 78
157 151 74
167 160 85
145 140 70
149 144 67
156 150 72
159 153 78
177 194 166
179 196 171
176 193 166
177 195 168
175 192 158
172 190 146
175 192 155
172 190 144
176 193 160
174 191 156
178 195 169
173 191 155
175 192 153
176 193 165
172 190 148
175 192 158
176 193 156
178 195 168
177 194 163
177 194 165
174 191 150
180 197 178
178 195 171
174 191 150
175 192 160
175 192 156
176 193 158
173 190 142
170 188 144
178 194 168
179 195 169
174 192 155
173 191 148
176 193 158
176 193 160
174 192 153
173 190 144
171 190 144
174 191 150
169 187 135
175 192 153
172 190 144
175 193 156
176 193 156
173 191 146
176 193 161
175 192 158
178 195 169
173 190 148
176 193 161
172 190 148
173 191 148
171 189 144
171 188 141
176 193 163
175 192 155
178 195 166
172 190 150
173 191 151
175 193 161
170 189 141
171 188 144
170 188 142
176 193 160
171 189 141
178 195 169
173 190 153
176 193 165
171 188 148
173 191 155
172 189 144
174 191 150
171 189 144
175 192 160
174 191 150
171 189 144
173 190 155
170 188 142
174 191 155
169 187 133
173 190 146
175 192 161
169 187 141
173 190 148
170 188 150
171 189 144
170 187 150
178 194 174
172 189 151
170 187 142
170 187 146
165 182 131
170 188 141
163 181 118
173 189 166
176 192 161
170 188 144
167 184 135
167 184 139
169 185 142
168 185 142
166 183 139
168 184 141
162 178 123
167 182 144
158 172 129
159 175 115
154 169 140
153 168 140
150 166 132
150 166 130
138 154 119
141 157 136
125 142 125
130 147 124
115 133 110
116 134 116
110 128 117
112 130 102
101 119 110
93 112 94
92 114 114
66 89 96
70 93 100
71 94 93
57 83 109
47 75 101
48 76 99
46 74 91
48 77 101
46 73 93
44 71 95
42 68 93
44 70 97
42 68 89
39 63 74
37 61 82
38 61 69
37 60 72
35 57 72
34 56 70
30 50 80
31 51 64
44 60 68
67 80 50
68 80 64
101 114 92
121 133 118
121 135 119
48 78 98
51 81 107
52 83 108
55 87 122
52 83 107
55 88 113
53 85 113
57 90 130
57 91 125
58 92 123
57 90 133
57 91 129
57 89 124
57 91 112
59 93 131
60 94 140
58 92 123
59 93 125
58 91 127
59 93 132
57 91 120
57 90 123
58 91 129
59 93 136
58 93 123
58 91 128
60 94 134
57 91 118
59 94 137
59 94 137
58 92 124
59 93 132
59 93 135
59 92 128
59 94 134
59 93 126
58 92 125
60 95 140
59 93 125
60 95 130
59 93 122
60 94 130
60 94 128
59 93 131
59 93 133
58 91 131
59 93 134
59 93 128
57 91 119
59 93 133
60 94 133
60 94 133
59 93 133
58 92 120
60 95 143
59 93 125
60 94 135
59 93 124
60 94 130
61 95 140
58 91 123
60 94 126
57 89 114
60 94 131
60 94 139
61 95 144
60 94 131
59 94 134
60 94 134
58 92 126
58 91 129
59 93 124
60 93 130
60 94 129
60 93 133
57 90 126
59 92 123
58 92 125
59 92 135
60 93 132
58 92 127
58 92 123
59 92 134
59 92 128
57 88 120
57 89 129
56 88 125
59 92 131
57 90 118
55 86 116
58 91 126
55 87 123
55 86 124
58 90 120
53 81 100
52 81 94
55 85 116
53 82 109
51 79 107
51 78 99
49 74 88
48 73 93
90 91 65
74 74 32
55 54 24
56 58 16
30 31 17
44 47 17
45 49 22
49 52 24
41 45 21
43 48 23
53 59 34
53 58 34
62 66 31
68 73 35
62 68 33
67 71 39
69 74 35
81 85 46
82 85 46
95 97 54
84 88 52
101 102 50
112 111 57
103 104 54
103 104 56
103 104 59
120 119 60
124 122 65
113 113 63
135 132 67
124 123 67
138 135 76
130 128 65
128 126 60
124 122 66
137 133 70
134 131 69
124 123 65
138 136 68
138 135 66
137 134 67
141 138 68
146 142 68
147 143 70
145 141 73
146 142 68
136 132 61
139 136 63
151 145 70
153 148 73
156 151 75
159 154 80
155 149 80
158 153 77
158 153 78
156 151 76
159 155 79
165 159 81
155 151 77
161 156 79
159 153 81
163 158 76
157 152 77
165 159 83
152 147 70
162 157 76
167 160 78
162 156 80
165 160 75
163 156 78
168 161 81
163 157 78
163 157 78
159 153 74
163 157 79
163 157 79
166 159 77
167 161 78
166 160 74
167 160 81
163 157 74
166 158 80
171 163 84
165 159 76
163 158 73
166 159 73
172 164 89
167 160 83
164 158 75
159 153 75
164 158 74
168 161 82
167 160 79
167 159 81
166 161 74
162 157 75
164 159 80
169 163 80
167 160 84
160 154 73
169 163 80
163 157 76
164 157 77
165 159 70
164 158 71
166 159 73
162 157 67
159 154 74
162 156 79
167 161 76
163 157 77
162 157 81
164 158 73
168 161 81
159 153 75
162 155 82
159 153 76
160 153 75
159 152 70
163 156 78
158 152 72
162 155 72
157 152 68
159 153 72
163 156 82
159 153 74
157 151 74
158 151 74
164 156 82
164 158 80
160 153 80
159 152 75
158 151 75
165 158 82
159 152 75
161 154 72
157 151 75
155 149 68
155 149 71
164 157 82
155 150 74
154 148 70
146 140 67
158 151 80
155 148 80
155 149 75
153 147 75
160 153 80
154 149 67
176 193 163
173 190 150
180 196 177
176 193 163
172 190 141
176 192 160
180 196 172
179 195 175
173 191 151
177 194 163
178 195 168
177 194 166
175 192 158
174 192 151
173 190 148
169 187 133
175 192 158
172 190 146
168 187 127
173 191 151
180 196 174
176 193 161
176 193 158
175 192 153
176 193 161
180 196 172
175 193 158
175 192 155
173 191 148
180 196 175
175 192 153
174 191 156
177 194 161
175 192 156
173 190 146
173 190 148
170 188 141
173 190 151
172 190 148
174 191 155
172 190 146
174 191 150
174 191 153
173 190 144
169 187 135
172 189 150
176 193 161
174 192 155
173 190 146
173 191 146
176 193 153
171 188 142
177 194 161
172 190 141
172 190 146
169 187 133
177 193 165
173 190 146
168 186 133
172 190 144
171 189 142
175 193 156
173 191 146
168 186 131
173 191 153
172 189 139
171 189 144
171 189 142
171 188 144
170 188 129
169 187 131
173 190 146
171 188 142
169 187 137
170 187 144
172 189 144
171 189 142
169 186 131
172 189 153
171 189 141
173 190 153
168 186 135
169 186 139
170 188 141
176 192 163
170 187 153
166 185 125
163 180 129
168 186 131
166 185 118
169 186 129
168 185 139
168 186 135
166 184 135
171 188 146
168 186 135
162 180 123
165 182 133
166 184 129
168 186 137
171 188 142
163 180 127
166 182 150
164 179 124
165 181 141
158 174 132
156 172 127
152 167 120
150 166 120
149 165 114
149 165 125
142 160 117
130 147 109
131 145 115
128 145 127
129 146 115
121 138 110
121 138 103
97 116 97
98 116 105
97 117 95
92 112 97
80 99 94
68 89 82
69 91 88
63 86 84
49 76 95
44 70 91
46 73 95
44 70 88
44 69 83
41 65 79
43 69 89
42 67 87
42 67 87
38 62 79
40 64 79
36 58 76
36 58 76
34 56 60
35 57 71
32 52 60
28 46 60
40 56 42
73 86 77
85 98 87
101 114 102
112 126 97
166 179 173
48 76 93
50 80 107
53 84 110
53 84 118
57 90 129
54 85 112
55 87 118
55 87 123
55 88 120
56 89 117
56 89 124
55 88 119
58 92 131
56 89 112
58 91 125
58 92 127
58 92 132
57 90 123
59 92 137
59 93 129
57 90 117
58 92 127
58 91 117
57 91 124
60 94 128
58 92 123
57 91 115
60 94 133
59 93 133
57 91 117
59 93 130
59 93 119
58 92 132
60 94 138
60 94 143
58 92 122
60 95 142
60 94 136
59 93 124
57 91 115
59 92 135
59 93 131
60 95 133
59 93 122
61 96 140
58 91 128
59 93 131
59 93 118
59 94 129
60 94 131
58 92 125
59 93 126
58 91 117
59 94 130
59 92 124
58 93 122
60 94 137
59 93 131
60 95 138
57 91 122
60 94 134
60 95 140
58 92 129
59 92 128
59 93 139
58 92 125
59 92 136
59 92 128
59 93 123
61 95 139
60 93 135
59 92 126
58 91 123
58 91 123
59 92 130
59 93 135
58 92 128
59 92 119
58 90 118
58 91 129
59 93 129
55 87 111
57 89 118
56 89 117
57 89 124
60 94 134
58 91 131
57 89 123
56 89 106
56 88 115
55 85 116
55 86 109
55 86 114
56 87 114
56 86 124
53 82 101
55 84 119
54 84 108
53 81 105
50 77 100
48 74 92
44 67 78
145 151 152
84 83 29
56 56 24
52 53 22
44 46 18
38 41 19
34 39 17
50 52 17
47 52 20
51 55 31
55 59 27
66 70 29
70 75 45
64 68 34
70 75 37
71 76 37
71 76 34
79 82 44
82 85 40
90 92 51
91 92 40
103 103 53
111 111 64
91 92 52
103 103 54
113 113 54
109 108 54
114 115 52
116 116 60
124 121 55
114 113 54
126 124 65
123 120 62
120 118 63
133 131 65
127 125 67
132 129 63
121 120 64
144 141 74
139 136 69
148 144 79
136 133 52
142 139 69
143 139 67
148 144 69
144 140 71
139 136 65
145 140 75
157 152 75
151 147 78
151 147 75
154 148 69
153 149 75
157 153 77
159 154 75
154 149 71
158 154 73
154 149 71
166 159 82
156 151 74
160 154 76
165 158 78
156 151 74
160 154 83
162 157 75
159 154 73
162 157 77
163 156 72
159 154 71
164 157 77
161 155 72
166 159 83
162 156 74
165 158 78
161 156 78
162 157 71
168 162 85
164 157 75
167 162 82
169 162 85
168 161 81
161 154 69
158 153 69
166 160 78
165 159 77
165 159 77
167 160 80
162 156 75
162 156 74
161 155 71
166 159 80
165 159 78
163 156 75
167 160 83
158 153 76
165 159 78
164 158 79
162 157 74
166 159 80
167 160 80
168 161 79
164 157 75
162 155 75
160 153 72
165 157 74
167 159 77
164 158 79
165 158 80
165 158 80
169 161 85
162 155 81
164 157 80
161 156 75
161 155 69
159 153 74
165 158 74
161 156 75
159 153 72
161 154 73
164 158 80
160 154 74
156 150 74
160 154 80
164 158 80
163 157 78
161 154 76
163 156 80
159 153 80
159 154 83
161 155 75
155 149 72
154 148 64
168 160 84
163 156 73
159 153 72
152 146 65
157 151 65
156 151 68
158 152 76
151 145 69
150 144 69
156 149 71
160 154 75
154 148 75
162 155 80
151 145 65
146 140 71
155 148 78
159 150 78
177 194 163
174 191 150
174 191 153
169 187 139
175 192 156
171 189 146
173 190 142
175 192 155
175 192 158
178 195 168
177 194 161
177 194 163
174 192 153
174 191 150
174 191 151
171 189 142
174 191 156
173 190 155
171 189 148
172 190 144
178 195 165
170 188 139
177 194 166
174 191 153
175 192 153
176 193 153
175 192 158
172 190 146
170 189 137
170 188 139
171 188 137
174 192 153
173 191 146
170 188 139
173 190 148
173 191 153
171 189 139
176 193 160
171 188 142
168 186 125
173 190 146
174 191 150
172 190 146
174 191 150
173 190 146
175 192 156
176 193 155
171 188 141
172 190 146
168 185 129
169 187 131
166 185 118
175 191 153
171 189 151
168 186 139
170 188 131
169 187 131
168 186 133
171 188 133
172 190 139
170 188 135
167 185 129
170 188 139
170 187 141
171 188 142
168 186 129
165 183 125
167 185 123
170 188 139
172 189 146
170 188 137
169 187 127
170 188 133
169 187 129
166 183 135
168 185 129
170 188 142
171 189 137
167 185 135
170 187 133
165 183 123
166 184 133
175 192 160
166 185 125
165 183 121
164 182 133
165 183 129
167 184 135
167 185 135
162 180 121
170 187 142
167 185 129
166 184 133
164 182 129
166 184 127
164 181 127
164 182 123
166 184 123
164 182 129
167 184 129
166 183 127
165 181 125
164 180 123
165 180 141
159 175 124
152 168 113
151 166 119
148 165 104
149 163 126
143 160 104
140 157 121
129 146 107
132 148 116
112 131 102
139 154 122
112 130 78
109 128 89
122 138 102
109 126 93
106 124 77
89 109 83
90 111 92
79 100 74
72 94 92
60 84 95
57 81 91
59 83 84
45 72 84
45 71 92
43 69 90
46 72 92
43 69 94
41 65 87
40 65 84
42 68 85
38 62 68
40 64 77
39 62 78
34 55 66
33 54 65
35 57 61
36 55 54
34 53 45
65 78 61
70 82 61
83 96 66
106 120 93
133 147 120
196 210 214
61 82 89
52 83 108
52 82 107
53 84 108
53 84 116
55 87 124
55 87 120
53 84 116
55 88 116
55 88 121
57 90 123
56 89 117
57 90 125
56 88 124
57 91 129
58 91 127
57 90 134
56 89 113
57 91 123
59 93 133
57 91 123
59 92 130
60 95 141
59 94 133
57 90 117
59 93 133
57 90 118
58 92 128
59 92 134
57 91 123
60 94 134
57 91 124
59 94 130
59 93 126
58 91 123
58 92 130
58 92 124
58 92 126
59 92 121
59 93 128
58 91 118
58 92 120
58 91 125
58 92 131
59 93 128
59 93 132
58 92 125
58 92 127
59 94 130
60 94 132
59 92 126
59 93 130
59 93 125
59 94 128
58 92 131
59 93 135
59 93 135
56 89 108
58 92 125
59 92 134
60 94 130
58 91 128
58 92 120
59 92 122
60 94 139
58 92 122
59 92 128
57 89 123
59 93 129
58 92 125
58 92 118
60 94 135
59 92 124
57 90 121
59 93 128
60 94 133
59 92 120
58 92 122
57 89 116
58 92 133
56 88 115
57 90 131
59 92 126
56 88 110
57 89 116
56 88 119
57 90 122
56 87 113
59 92 135
56 87 120
55 86 119
55 87 117
55 87 116
53 83 112
54 83 106
54 85 112
53 81 106
51 79 104
51 79 102
54 82 108
48 73 88
66 85 95
183 191 195
90 87 42
65 65 20
57 59 23
56 58 17
43 46 15
57 58 11
43 45 11
46 49 17
61 64 27
62 67 30
52 54 25
58 65 39
68 70 32
65 70 40
76 78 40
75 77 38
71 75 43
78 80 38
88 88 48
83 87 46
94 97 52
96 97 53
98 99 52
97 99 48
114 114 60
108 108 58
101 102 37
105 105 49
108 108 58
118 116 62
122 121 61
132 130 67
131 128 67
122 120 56
130 126 68
135 132 61
136 134 71
142 138 59
141 137 73
147 142 68
140 136 66
147 142 69
143 139 69
130 128 61
143 139 67
151 146 70
140 137 69
148 144 72
146 142 66
143 140 65
149 145 72
151 146 72
143 140 67
154 149 68
154 149 69
157 151 78
155 150 71
155 150 73
160 153 70
156 151 73
164 158 76
158 152 77
161 155 75
155 150 69
163 157 74
163 157 77
162 156 72
161 155 73
164 158 78
169 162 83
160 154 72
162 156 74
160 155 65
160 155 77
166 160 79
166 160 75
163 157 77
166 159 81
163 157 68
161 156 70
166 160 75
165 159 80
164 158 74
164 158 75
168 161 81
165 160 74
166 159 76
159 153 66
163 156 75
165 159 79
166 159 76
166 159 79
160 155 71
164 157 71
164 158 79
166 159 76
163 157 78
161 154 73
165 158 75
165 157 80
161 155 75
158 153 69
168 161 79
164 156 81
163 157 76
163 157 74
160 154 74
158 152 74
168 160 83
162 156 75
163 156 79
160 153 73
159 153 69
161 155 75
161 154 74
167 160 80
159 152 76
159 154 69
158 151 77
160 153 74
157 151 72
155 150 69
158 151 75
156 150 73
161 155 76
161 154 80
165 159 77
158 152 75
159 153 75
158 153 75
165 158 75
161 154 79
160 153 74
158 151 75
153 148 71
159 151 74
160 153 78
156 151 77
158 151 75
146 141 63
154 149 70
154 148 73
153 148 73
152 146 67
154 147 77
162 155 80
153 147 75
162 155 77
176 193 158
175 192 160
174 191 146
174 192 153
175 192 155
175 192 150
174 191 156
173 191 146
176 193 161
172 190 141
175 192 151
172 190 139
172 190 142
174 191 146
173 190 144
172 190 144
174 191 151
173 191 148
172 190 144
173 191 148
173 191 148
175 192 155
171 189 139
174 191 150
173 190 148
174 192 155
174 192 153
168 187 131
169 187 139
172 189 150
172 189 144
173 191 148
175 192 153
172 189 137
171 189 142
173 190 144
171 189 142
170 188 135
170 189 133
171 188 135
172 189 146
175 191 156
173 190 148
168 186 127
167 185 135
170 188 135
169 186 129
166 184 116
173 190 150
171 189 137
170 188 133
175 191 151
173 190 144
172 190 144
170 187 133
173 190 146
172 189 151
169 186 123
170 188 135
168 186 121
167 185 125
165 183 121
167 186 127
174 191 155
167 185 125
169 186 137
164 183 121
168 185 142
163 182 99
167 186 127
169 187 135
168 186 131
172 189 144
171 189 139
172 189 142
170 188 137
163 182 114
168 186 127
166 184 125
164 183 112
167 184 133
164 182 125
165 183 121
166 185 116
167 185 129
163 181 116
161 179 112
166 184 123
162 180 107
169 185 144
170 187 141
164 181 127
168 185 137
160 178 107
161 179 102
157 175 107
161 179 118
159 177 114
165 181 129
161 178 116
161 178 118
160 178 109
160 177 116
160 177 118
164 179 139
154 170 114
142 158 89
142 158 93
149 165 99
148 164 117
132 149 91
142 159 99
128 146 79
120 135 88
125 143 88
116 133 89
123 141 93
106 123 79
103 121 77
102 117 93
96 116 89
76 97 91
81 101 79
79 100 86
74 95 81
59 83 92
55 80 84
51 77 99
44 70 81
43 69 87
43 70 87
43 69 87
43 68 87
41 66 75
39 63 78
41 65 77
38 61 69
37 59 76
34 55 63
33 53 59
29 48 51
37 56 48
49 65 39
59 74 44
92 106 79
102 116 84
109 124 84
140 155 130
201 214 223
113 129 141
52 83 110
49 78 104
52 82 111
56 89 124
57 89 121
55 87 121
55 88 115
57 90 123
57 90 132
57 89 121
58 91 138
58 92 131
56 89 114
57 90 130
57 90 115
57 91 125
59 93 131
58 91 121
56 89 119
57 90 128
59 92 136
58 92 129
56 89 117
59 94 134
58 92 123
59 93 128
58 92 123
59 93 127
58 92 118
57 91 119
59 93 129
58 92 127
58 91 127
58 92 120
58 92 123
61 95 136
61 96 141
57 91 122
57 90 118
59 93 131
59 93 125
59 93 120
58 91 126
59 93 130
59 93 130
59 93 131
57 90 122
59 93 139
59 93 134
61 96 139
59 93 135
59 93 126
58 92 121
60 94 134
60 94 130
59 93 131
58 91 124
61 96 140
59 93 135
58 92 126
59 92 121
59 93 131
60 94 130
57 91 121
58 92 124
57 90 123
57 90 122
57 91 105
57 90 130
58 91 130
59 93 130
59 93 129
57 90 113
57 90 113
59 93 130
57 90 116
57 90 119
58 91 125
56 88 114
56 88 117
57 89 113
55 87 110
58 91 123
58 90 121
57 89 122
56 87 117
56 87 117
57 89 111
56 88 123
56 87 110
56 87 102
56 87 113
57 89 127
54 83 114
55 85 110
53 83 104
51 80 109
50 76 93
51 77 96
46 70 84
108 122 133
201 213 224
84 82 35
64 63 25
45 47 20
50 52 21
59 60 25
56 58 21
41 46 17
40 45 18
51 54 19
60 65 28
58 63 32
62 68 33
70 74 31
86 86 36
72 76 36
70 74 34
76 79 34
72 77 40
94 95 51
93 94 50
84 85 39
96 98 46
96 97 48
102 101 45
97 97 47
100 102 49
124 123 66
116 114 62
113 112 59
111 110 49
114 113 58
134 131 61
124 122 53
118 118 57
124 123 59
129 127 63
134 131 65
137 134 58
140 135 69
125 124 52
136 133 55
132 131 67
133 131 60
135 131 59
147 143 68
143 138 67
151 146 65
150 146 68
147 143 64
145 141 63
146 142 70
158 152 78
151 146 73
153 149 71
150 145 73
155 150 73
151 147 71
157 151 72
159 154 79
164 158 80
162 157 70
158 153 70
157 152 67
156 151 67
162 156 75
158 151 70
161 156 68
155 150 71
162 155 74
167 159 80
159 154 78
168 161 78
167 160 80
162 157 69
169 162 79
166 159 76
160 155 70
156 150 73
167 160 80
162 155 81
162 156 74
167 160 73
164 158 72
165 159 76
161 154 71
164 158 73
163 156 78
168 162 84
166 158 75
167 160 75
163 157 73
166 160 80
171 164 84
165 159 78
164 157 75
159 153 70
160 153 73
159 154 74
166 158 80
161 155 75
161 156 75
160 153 70
163 157 74
164 157 75
167 159 83
166 160 81
160 154 66
164 156 80
166 159 77
164 157 82
158 152 72
167 159 84
158 153 72
157 151 69
165 158 77
157 152 68
162 155 75
164 157 75
153 148 62
160 155 74
158 151 69
160 153 74
169 161 82
157 151 73
164 157 75
161 154 79
162 156 70
163 156 74
154 148 72
155 148 68
158 152 74
162 156 82
160 153 75
165 158 75
160 152 80
149 143 71
154 147 70
159 151 77
155 150 68
159 152 73
151 146 64
157 151 72
151 146 63
154 148 70
155 150 76
156 149 78
152 146 74
154 149 70
171 189 139
176 193 156
174 192 151
174 191 155
175 192 156
175 192 151
172 190 146
172 189 141
174 191 151
174 191 148
173 191 144
173 190 146
176 192 156
174 191 148
171 188 135
168 186 131
170 187 139
172 189 142
172 189 142
172 190 139
172 190 144
174 191 151
165 183 118
172 189 142
171 189 137
171 189 139
168 186 125
167 185 125
170 188 139
172 189 141
173 190 146
173 191 146
170 188 137
171 189 141
172 190 139
170 188 131
169 188 135
171 189 137
166 185 118
174 191 153
171 188 142
170 188 135
170 188 133
172 190 146
165 183 118
171 189 133
167 185 118
167 185 129
164 183 112
166 183 125
165 184 114
170 186 137
172 189 144
168 186 125
167 185 123
168 186 127
162 181 99
167 185 121
163 181 102
168 186 121
163 182 109
165 184 107
167 185 129
166 184 114
168 186 133
168 186 125
164 183 118
171 189 144
166 184 127
170 188 137
165 183 123
163 181 99
163 182 121
166 183 125
165 184 116
166 184 116
169 186 133
170 187 141
159 178 97
164 183 112
164 182 123
165 182 123
160 179 99
167 184 116
160 179 99
165 183 123
164 182 118
165 183 125
162 180 114
161 180 102
163 180 109
160 178 109
161 179 104
159 178 97
161 179 112
162 179 123
159 176 107
160 178 102
164 182 107
161 178 114
154 172 94
159 176 107
158 176 102
157 174 118
150 167 89
152 170 86
151 168 92
150 166 114
148 165 105
150 165 124
145 162 104
138 155 100
125 142 71
133 150 93
121 138 81
113 129 80
118 134 98
110 127 78
105 123 91
98 116 95
96 114 76
80 102 100
82 102 81
71 92 79
69 89 82
61 82 75
63 85 85
47 73 88
44 71 88
42 68 86
42 68 78
41 66 82
40 65 68
40 64 67
41 66 81
40 64 79
37 59 65
37 59 62
36 58 64
31 51 48
34 56 59
48 68 53
61 76 51
78 93 62
100 114 75
110 125 91
104 118 88
132 147 100
223 236 254
146 160 172
51 81 105
52 82 111
52 83 103
53 84 113
54 85 116
55 86 116
52 83 108
55 87 115
55 87 109
56 88 116
56 88 119
57 90 123
57 90 123
58 91 125
59 93 139
57 90 121
58 91 120
58 91 129
56 89 111
58 92 126
60 94 135
58 91 130
57 90 122
57 90 122
58 91 128
59 93 129
58 92 132
59 93 131
58 92 124
57 91 124
58 92 123
59 93 132
59 94 126
58 92 126
60 94 132
60 95 131
61 95 132
59 92 136
58 93 122
60 94 124
58 92 121
58 91 121
60 94 131
59 93 132
59 93 124
58 91 121
61 95 140
58 92 126
59 93 130
57 91 124
59 93 122
58 92 125
60 93 133
58 92 130
58 91 121
57 90 121
58 92 124
58 92 126
58 92 124
58 91 110
60 94 131
58 92 134
59 93 122
58 92 129
58 92 120
57 90 121
59 93 134
57 90 126
59 93 124
59 93 129
58 91 126
59 93 133
60 94 141
59 92 128
57 90 121
56 89 131
58 92 129
58 91 121
56 87 116
57 90 126
59 91 125
56 88 113
58 90 116
57 89 132
58 92 130
57 90 122
56 88 119
57 90 123
56 87 117
56 86 114
54 84 108
56 86 125
55 86 119
55 85 116
54 83 105
53 82 110
53 81 104
52 80 101
50 77 95
47 70 83
138 150 160
217 230 246
94 94 61
81 79 37
72 70 29
49 51 11
52 55 24
44 47 19
51 54 17
46 50 21
43 47 23
65 68 26
54 56 21
59 62 16
64 67 29
70 75 28
68 73 34
65 70 30
76 79 37
89 91 37
73 76 35
100 101 49
92 93 46
92 94 45
92 94 41
103 102 52
104 104 53
111 111 56
123 121 54
117 116 53
112 111 52
117 116 61
122 120 48
116 114 57
114 113 55
130 127 66
124 123 57
124 122 57
131 126 61
136 132 67
132 129 57
141 138 65
147 142 69
131 128 55
139 135 57
142 139 69
147 142 73
147 142 71
142 138 67
148 144 63
154 149 67
151 146 77
150 145 68
151 146 65
151 146 69
154 147 76
151 147 63
149 145 68
152 146 67
160 153 78
151 146 68
151 146 71
156 152 71
157 152 71
159 154 75
157 152 70
154 149 73
148 144 61
162 157 74
163 157 76
155 150 60
162 157 77
161 155 76
160 154 70
168 161 79
159 154 65
164 158 75
163 157 76
163 157 72
160 156 73
161 155 70
160 154 64
163 157 70
161 155 68
165 159 72
159 153 73
162 155 72
165 158 76
166 159 74
162 156 72
164 157 71
166 160 75
165 158 76
165 159 78
156 152 63
160 154 70
159 153 66
161 155 70
160 155 69
159 152 65
160 154 71
162 155 76
164 158 79
161 155 70
165 158 80
168 160 81
166 158 81
162 156 72
161 154 83
165 159 72
167 159 80
159 153 71
166 159 83
165 158 83
159 152 72
158 151 69
169 162 80
159 153 73
157 151 66
159 152 70
156 151 60
159 152 68
157 150 67
165 158 86
162 155 73
160 153 75
160 155 74
164 157 78
160 153 79
158 152 75
157 151 72
156 150 66
159 153 63
157 151 65
161 154 81
154 148 75
159 153 75
152 146 72
151 146 62
158 151 73
159 152 75
147 142 53
159 152 75
160 152 75
152 145 63
161 154 77
151 145 75
153 147 64
155 149 70
154 148 65
177 193 161
173 190 146
175 192 155
170 188 133
173 191 146
172 189 148
175 192 160
175 191 155
168 186 133
173 190 146
174 190 155
173 191 146
171 189 142
168 186 125
169 187 129
171 188 139
169 187 137
173 190 146
170 188 129
174 191 148
172 189 142
171 189 139
170 188 137
168 186 123
167 185 129
173 190 148
174 191 148
174 191 150
170 188 133
172 190 150
168 186 123
167 185 127
169 187 123
166 184 118
171 189 135
169 186 139
171 189 141
171 189 139
171 188 141
165 184 121
171 188 142
168 186 125
170 188 129
166 184 114
165 183 116
168 186 129
173 190 141
167 186 116
171 189 131
168 187 129
171 188 139
163 182 104
169 186 125
169 186 131
164 182 118
168 185 125
168 186 116
163 182 104
161 180 99
169 187 121
168 186 129
163 182 104
164 183 104
164 183 109
165 183 114
169 187 127
165 184 109
168 186 114
163 182 97
164 182 118
167 186 118
162 181 99
162 181 107
160 180 91
161 179 112
163 181 107
164 182 104
162 180 109
161 179 99
163 181 121
162 181 102
159 177 102
162 180 112
166 184 123
162 181 109
161 180 85
166 183 123
162 181 112
160 179 104
161 179 109
168 185 133
157 175 94
158 177 97
159 178 99
158 176 109
159 178 107
158 176 107
157 175 94
154 173 94
153 170 99
160 177 104
154 172 91
158 174 109
157 174 107
147 164 68
153 170 94
151 167 100
145 160 96
144 162 91
143 158 85
128 145 79
139 157 92
116 134 80
128 145 70
123 140 82
116 134 65
111 129 78
104 123 70
99 116 78
94 114 86
93 112 81
87 107 78
84 105 79
63 86 82
70 93 76
63 86 88
68 90 79
52 75 84
46 69 74
43 69 74
40 64 80
40 64 81
43 68 77
40 64 70
40 64 72
38 61 70
39 62 67
41 65 82
38 59 62
48 66 49
47 64 53
59 75 51
74 91 48
81 96 58
91 106 61
110 124 84
125 140 103
158 173 142
216 231 231
166 182 182
48 77 97
52 82 117
52 83 113
54 85 111
54 85 113
56 88 113
55 87 121
55 86 113
56 88 113
56 89 116
55 87 122
56 89 125
57 90 112
57 90 126
56 89 114
57 91 116
58 92 120
57 90 126
59 93 132
58 91 127
56 89 109
57 89 118
58 92 125
58 91 118
59 92 131
58 92 120
59 94 132
58 92 126
57 91 117
59 93 131
58 91 126
60 94 133
59 93 130
58 92 126
59 93 124
56 90 114
56 89 123
59 94 129
57 90 122
59 93 131
58 92 126
59 93 131
57 91 123
61 95 131
57 90 118
58 92 124
58 91 121
58 92 122
58 92 126
60 94 128
59 92 128
56 89 114
58 91 119
59 93 133
58 91 120
58 91 118
60 94 136
58 92 118
58 92 130
58 92 133
58 92 126
59 93 129
60 93 128
58 91 129
60 94 133
58 91 128
59 93 128
59 93 132
57 90 118
58 92 124
56 89 113
58 91 128
57 89 117
58 90 121
57 90 124
58 90 121
59 92 127
57 89 114
60 93 126
56 89 115
57 88 121
56 87 125
57 88 118
56 88 118
56 88 117
58 91 132
58 90 123
56 87 112
56 87 118
55 85 116
56 88 126
53 83 103
57 88 123
55 86 123
55 85 121
51 80 109
52 81 106
50 77 93
45 69 79
46 71 72
178 192 187
220 233 241
138 143 121
77 75 35
71 69 28
56 57 13
67 65 17
48 52 12
55 57 22
51 54 21
57 59 19
47 53 26
49 54 23
56 61 32
60 65 29
71 72 28
77 79 34
81 84 37
68 71 35
85 86 33
84 86 38
83 85 31
92 93 46
91 92 39
97 98 47
96 97 41
111 111 50
108 106 48
96 98 44
115 115 49
112 111 46
111 112 54
120 118 59
116 115 59
126 124 55
123 122 55
130 127 55
130 127 65
138 135 68
138 135 58
133 129 56
136 133 60
129 127 59
136 132 51
147 142 64
139 135 64
137 134 65
144 141 67
142 137 63
147 142 73
144 140 63
149 144 70
148 144 72
145 140 64
147 144 62
158 152 73
153 148 72
152 147 73
148 144 64
163 156 79
160 154 71
158 152 70
158 153 73
153 149 69
157 151 70
156 151 70
160 154 74
160 155 73
164 157 77
152 147 67
164 158 75
162 155 75
159 153 68
160 154 75
156 151 71
156 149 62
165 158 71
160 154 70
162 156 69
163 156 77
164 158 75
161 155 68
162 156 74
163 156 74
158 152 65
164 158 72
165 159 70
161 155 72
164 158 71
167 160 77
161 155 72
162 156 65
159 153 69
160 155 73
168 161 76
164 157 75
165 158 76
160 153 72
160 154 70
161 155 73
164 157 77
166 158 75
165 158 76
166 160 82
162 156 74
154 149 59
155 149 62
166 159 72
162 156 69
161 155 75
163 157 78
157 150 72
160 153 69
156 150 69
162 154 73
165 159 78
160 154 68
158 152 73
159 152 78
159 153 66
161 154 69
161 154 75
167 159 82
163 155 77
156 150 69
157 151 72
158 152 75
154 149 58
155 150 68
157 150 74
149 144 65
162 154 72
153 146 71
157 152 75
156 149 73
163 156 72
160 153 77
162 154 77
157 151 68
152 146 69
156 150 72
158 151 75
156 149 72
157 151 74
152 144 68
158 151 77
149 143 65
159 152 78
153 147 73
154 148 63
174 191 151
168 186 127
169 187 133
172 190 144
171 189 141
172 189 139
170 188 137
170 187 133
174 191 146
168 187 129
169 187 129
173 191 146
170 188 133
169 187 127
171 189 142
174 191 150
168 187 129
167 185 133
170 188 137
166 185 123
168 186 127
174 190 146
169 187 137
168 186 125
168 186 116
174 191 150
164 182 114
163 181 104
166 185 121
166 185 127
166 185 118
169 187 125
168 187 127
168 186 123
169 186 135
170 188 131
167 185 116
167 185 125
165 183 116
166 185 121
169 187 127
170 187 133
167 185 118
166 185 121
166 185 107
168 186 123
162 181 104
168 186 118
164 182 107
166 184 116
165 184 112
164 182 109
169 187 123
165 184 114
167 186 118
167 185 118
163 181 102
168 187 129
169 187 133
165 183 104
163 181 104
163 182 97
165 183 121
162 181 94
161 180 104
164 182 116
167 184 125
165 183 118
163 181 102
163 181 99
166 183 123
161 179 97
165 183 121
163 182 104
164 182 112
164 183 107
163 182 97
160 179 91
161 179 109
156 175 99
161 180 88
156 175 85
153 172 91
161 179 107
160 178 102
156 175 97
162 180 107
164 181 109
164 182 118
159 176 102
155 174 75
153 173 85
159 176 104
162 180 104
155 174 72
163 181 112
160 178 91
157 175 94
158 176 102
155 174 94
150 168 91
149 166 82
154 172 94
155 173 97
151 167 89
141 158 72
145 163 73
143 159 84
142 158 85
132 149 77
134 152 77
119 136 67
128 145 88
118 134 46
111 128 69
118 136 55
107 124 72
97 115 69
105 122 83
103 122 74
92 111 64
89 108 51
77 97 67
71 92 79
74 94 71
65 85 76
53 75 71
60 83 76
53 74 70
50 75 83
45 70 78
41 65 60
38 62 77
41 66 74
39 63 62
38 61 64
38 60 65
40 61 67
47 68 63
51 71 65
55 74 55
67 84 39
79 95 62
102 116 88
98 113 75
117 133 92
146 162 114
155 174 94
175 198 0
167 189 13
45 73 84
50 80 106
52 82 112
50 80 97
53 84 106
56 88 118
55 87 113
56 88 110
56 89 112
55 87 126
56 88 119
55 87 105
57 90 120
56 88 110
57 91 115
58 91 113
58 92 121
57 89 111
59 92 134
56 89 108
57 90 115
58 92 121
57 90 117
57 90 121
60 94 135
59 93 132
57 90 120
60 95 134
57 90 124
57 90 115
58 92 124
58 92 124
60 94 130
60 94 136
59 93 124
59 94 128
58 91 120
57 91 118
59 92 133
58 92 122
60 94 130
61 96 135
59 93 121
58 91 120
60 95 133
58 92 125
58 92 128
61 95 134
60 94 129
59 92 125
57 91 115
60 93 129
57 90 123
57 91 111
58 90 117
58 91 120
57 90 122
59 93 128
58 91 124
59 93 130
59 93 128
58 91 121
58 92 136
58 90 126
58 92 126
58 92 128
60 94 139
59 92 129
58 91 129
57 90 112
58 91 122
58 92 129
57 90 110
59 92 129
57 89 116
57 90 123
55 87 107
57 90 115
58 91 119
56 89 123
59 92 130
59 92 126
55 86 111
57 89 127
56 87 114
58 90 123
56 88 118
56 86 109
56 87 117
56 87 123
56 88 115
55 86 114
53 82 108
52 80 107
53 83 104
51 79 105
53 82 105
50 77 93
51 78 93
47 71 81
166 189 0
173 197 0
143 159 22
66 65 27
76 74 24
63 62 24
70 69 14
47 49 11
48 52 14
53 57 17
52 57 14
52 55 17
53 57 14
67 70 26
50 56 27
71 74 29
68 72 31
61 65 25
90 91 36
84 85 31
89 90 34
93 92 42
98 99 42
93 95 39
92 92 36
94 97 46
110 108 52
106 105 48
117 116 53
115 114 53
109 108 56
115 114 48
123 122 55
113 111 52
130 126 64
114 113 52
126 124 58
125 123 50
126 124 45
132 129 52
136 134 63
138 134 63
132 129 56
138 134 56
140 137 60
143 140 60
136 133 59
145 141 65
147 143 63
139 136 65
133 131 53
148 144 67
146 142 66
151 146 63
151 145 69
155 149 61
153 148 65
151 146 71
150 144 63
154 149 66
156 150 69
149 145 63
159 153 72
161 154 68
156 152 76
151 146 60
152 148 60
156 151 69
153 149 68
162 155 74
153 149 61
159 153 70
163 156 74
163 157 74
158 152 69
158 152 71
162 156 70
164 157 71
160 155 71
157 151 67
165 158 77
161 155 73
163 157 78
164 157 75
161 155 70
158 152 68
161 155 71
158 153 62
165 158 82
165 158 75
159 153 75
155 150 67
156 150 65
164 156 74
161 154 69
161 153 69
157 151 69
160 153 70
157 151 67
163 157 69
163 156 70
164 158 75
166 159 74
159 155 75
161 154 71
163 157 75
160 155 65
163 157 73
158 151 64
162 155 72
167 160 76
162 155 75
167 159 80
170 162 83
163 156 75
162 154 74
159 152 70
159 153 73
159 152 71
156 150 72
163 156 78
161 155 79
167 160 82
159 153 70
154 148 70
147 141 63
153 148 67
160 153 74
151 145 65
153 148 67
150 143 63
159 152 73
153 148 60
153 147 65
154 148 65
159 153 71
160 153 75
153 148 67
160 153 75
154 148 72
160 153 80
157 151 75
156 150 68
148 143 59
156 150 73
154 148 69
160 153 76
159 153 74
158 152 74
153 147 70
174 191 150
170 187 137
170 188 135
172 189 144
169 187 135
172 189 141
169 187 131
168 186 135
171 189 139
171 189 135
169 188 127
173 190 146
172 190 142
172 190 141
171 188 137
169 187 125
169 187 135
169 187 129
170 188 131
171 188 141
169 187 135
168 187 125
171 189 137
167 186 118
170 188 131
172 189 139
170 188 127
167 185 116
168 186 125
168 187 127
167 186 123
166 185 116
169 187 131
169 187 127
166 184 99
169 187 135
164 182 109
165 184 114
168 186 116
168 186 121
165 184 112
167 185 121
161 180 104
164 182 118
170 187 127
164 183 112
165 184 112
162 181 94
162 181 102
164 182 107
169 187 131
165 184 109
163 181 109
165 183 109
161 180 91
167 185 118
162 181 99
165 183 116
166 184 118
161 180 97
162 180 112
163 182 104
161 180 91
165 183 112
159 179 94
158 178 94
160 179 91
159 178 88
161 180 94
158 177 97
162 181 109
165 184 118
160 180 97
155 174 88
160 178 104
158 177 79
161 180 112
162 181 91
159 178 97
157 175 79
156 174 85
159 178 91
162 181 109
159 178 85
156 176 79
157 176 91
160 179 94
153 172 82
157 175 91
157 176 75
159 177 97
156 174 91
154 172 82
157 175 82
149 167 72
154 172 79
151 170 68
156 176 64
154 172 94
155 172 85
149 168 75
157 176 88
146 164 72
144 161 85
143 162 64
142 159 69
148 166 68
139 156 74
140 156 67
131 149 73
135 153 74
133 149 86
116 133 74
116 132 58
115 133 54
112 129 63
106 123 62
107 125 62
98 118 60
94 111 66
82 101 63
87 106 52
84 104 59
72 91 65
71 92 75
58 81 86
69 87 46
52 74 70
52 76 83
47 70 72
50 72 55
46 66 48
42 64 64
40 64 65
41 66 68
39 63 68
46 66 42
48 69 65
51 70 54
65 82 53
76 92 46
71 90 52
82 99 44
103 119 76
106 121 76
133 149 115
133 148 113
166 187 51
174 198 0
174 197 0
72 95 86
50 80 101
52 82 107
55 87 122
52 83 116
52 83 108
54 86 111
55 87 109
55 88 115
58 91 125
55 87 125
57 90 120
56 89 117
54 86 107
55 88 114
58 91 125
57 89 120
57 89 117
56 89 123
57 90 120
58 91 131
59 93 129
58 92 127
57 90 120
60 94 130
57 91 119
57 91 107
57 90 126
60 94 129
58 92 126
59 93 133
59 93 124
57 90 115
59 92 127
59 93 130
60 95 133
59 94 130
58 92 113
57 90 119
58 91 122
58 91 125
59 93 134
58 92 129
59 93 129
60 94 130
59 93 130
59 93 130
59 93 121
58 91 125
58 93 118
60 94 128
58 91 111
58 92 120
59 93 131
57 91 117
58 91 125
57 90 114
58 91 122
58 92 120
57 89 117
57 91 114
59 93 128
58 91 115
57 91 124
58 92 124
57 90 126
58 91 121
56 89 108
58 91 117
59 93 125
58 90 121
58 91 118
57 90 116
59 92 131
59 93 130
57 89 117
58 92 124
58 91 127
56 87 126
56 89 110
56 87 112
56 87 112
54 85 106
55 87 116
57 89 119
56 87 118
56 87 118
55 85 115
57 88 119
56 88 117
53 82 107
52 80 95
54 82 115
55 86 114
52 80 97
52 81 104
52 80 96
49 76 91
47 72 75
58 79 71
174 198 0
175 198 0
167 187 16
95 92 40
72 70 28
71 70 18
75 74 24
61 63 22
54 58 17
60 63 17
61 61 17
69 69 19
57 61 22
58 62 16
73 74 25
67 70 20
68 70 29
77 79 31
84 86 37
81 82 43
90 92 39
89 89 36
82 85 32
94 94 38
98 98 44
99 100 48
114 111 51
101 102 42
115 113 50
112 111 47
113 112 48
109 109 49
112 111 44
118 115 52
114 113 44
125 123 57
129 126 54
129 127 57
134 131 58
137 133 61
136 133 65
142 137 59
135 132 64
127 125 54
133 130 56
145 140 60
140 136 66
148 143 66
140 137 53
140 137 56
147 141 71
144 139 60
142 138 51
147 142 63
147 142 68
159 154 68
148 143 66
151 147 69
151 146 64
148 144 67
148 143 64
152 147 61
158 152 69
162 156 68
157 151 60
156 151 67
164 158 76
157 151 69
154 148 65
154 149 62
158 152 68
163 157 73
159 152 69
160 154 69
165 158 71
158 152 71
156 150 67
157 152 68
161 155 72
162 156 74
157 151 64
156 150 63
164 157 75
160 155 68
157 151 60
156 151 64
165 159 69
162 154 75
160 154 71
163 157 75
159 152 68
163 156 70
161 155 70
155 149 70
160 155 67
165 158 69
162 155 69
165 160 72
151 145 59
167 160 78
162 156 71
165 157 70
160 154 65
164 157 77
163 157 75
160 153 75
163 156 74
161 155 65
160 153 73
165 158 74
162 156 75
161 154 72
154 149 65
163 157 71
165 159 75
154 149 64
159 151 73
159 153 72
153 146 67
154 148 64
153 147 71
156 149 71
157 151 70
158 152 68
163 155 76
158 152 71
156 150 73
163 156 80
162 156 78
164 157 75
162 156 75
162 156 72
159 153 71
155 149 74
156 151 65
158 151 71
160 153 75
158 152 68
160 154 69
159 153 80
157 151 74
148 142 67
157 150 76
157 151 73
155 150 65
157 151 71
158 151 73
160 154 75
156 149 66
157 150 77
169 187 127
170 188 135
171 188 135
170 188 135
170 188 133
169 187 135
169 187 125
166 184 114
170 187 139
170 188 133
170 188 139
171 188 137
168 186 123
167 186 125
170 187 127
165 184 114
170 188 135
169 187 123
169 186 129
172 189 137
166 185 116
164 183 99
165 184 116
171 188 137
169 187 125
166 184 114
164 182 107
169 187 127
166 185 112
168 187 123
167 186 121
166 183 114
170 187 131
166 185 116
168 186 131
164 182 116
165 184 102
167 185 121
165 184 114
165 183 114
167 185 121
167 185 114
162 182 99
163 181 102
162 181 104
165 183 114
169 187 131
163 181 109
160 179 88
166 184 109
160 180 88
171 188 131
159 178 102
161 180 97
159 179 99
160 178 91
165 183 104
168 186 116
161 180 102
165 183 112
163 182 97
164 182 104
164 182 109
161 180 91
164 182 112
161 180 99
161 181 85
158 178 91
164 182 107
157 177 85
162 181 102
159 178 91
159 179 88
160 180 88
152 172 60
156 175 79
157 177 75
159 177 82
156 176 85
154 174 75
161 179 97
157 176 75
155 174 88
158 177 82
152 172 75
154 173 68
150 169 56
158 177 88
152 172 64
154 174 60
153 173 56
154 173 85
155 174 72
148 167 56
146 165 64
153 172 72
148 168 56
151 169 72
151 170 72
152 169 91
149 169 60
152 171 68
148 168 68
142 159 39
141 159 56
146 164 64
143 161 74
141 158 77
139 157 68
128 145 57
125 141 42
131 148 62
122 139 58
123 139 51
117 133 55
117 135 38
109 125 51
103 120 32
98 116 61
97 115 58
95 114 81
95 115 54
75 94 58
85 105 65
66 88 73
70 89 58
63 84 64
62 82 68
61 81 66
47 68 61
42 66 80
47 71 66
48 69 70
55 76 73
48 69 53
49 70 63
56 74 45
57 74 50
55 75 47
68 86 33
75 93 39
75 93 48
99 116 43
116 132 94
118 134 82
126 141 102
142 157 107
174 197 0
174 198 0
174 198 0
109 129 59
50 79 101
53 84 115
54 85 109
53 84 110
55 87 114
54 85 104
55 87 112
55 88 115
56 89 115
55 88 116
56 88 109
55 87 110
58 91 125
57 90 121
55 88 114
57 90 122
56 89 112
57 90 120
59 93 130
58 91 126
57 91 125
60 93 140
58 92 126
60 94 132
57 91 116
57 90 115
58 92 118
58 91 128
57 89 113
58 91 124
58 91 123
58 92 117
58 92 117
57 91 121
58 92 128
59 92 132
59 93 130
57 90 123
59 93 128
58 91 126
58 91 114
58 92 124
59 93 122
59 93 129
59 93 118
57 91 118
59 93 129
58 93 120
58 91 125
60 93 128
59 93 128
59 93 129
57 91 114
57 91 121
57 90 118
57 91 115
58 91 117
59 93 125
58 91 117
58 92 117
58 91 128
58 91 122
59 93 121
57 90 114
58 92 123
59 92 117
57 89 120
58 91 125
58 91 127
58 91 125
59 92 126
60 94 136
58 91 118
56 87 117
59 92 130
57 89 116
56 88 108
58 90 125
56 88 115
55 87 113
58 90 126
57 89 117
55 87 114
55 87 107
57 88 121
56 88 116
57 89 120
55 87 117
55 86 104
55 85 102
55 86 113
53 82 93
56 87 116
51 79 103
51 79 94
49 75 82
50 77 84
48 72 86
114 134 59
173 197 0
174 197 0
175 198 0
116 118 45
84 82 34
75 74 20
84 82 28
52 52 5
72 72 24
63 65 12
60 63 14
64 66 22
68 70 22
60 64 15
63 66 19
59 63 22
68 71 26
71 73 24
76 78 26
83 84 37
89 88 34
96 96 36
84 85 35
84 87 37
95 97 42
100 100 41
110 109 51
108 107 41
106 105 43
106 105 42
100 102 49
104 101 40
126 122 55
121 119 51
127 124 51
116 113 59
121 118 53
129 126 53
136 132 55
131 128 59
133 129 60
133 130 56
131 129 46
129 126 54
136 133 61
133 130 51
144 140 56
145 139 67
141 138 65
146 141 63
140 137 56
147 142 67
139 136 54
146 142 58
148 143 63
148 144 55
144 141 65
155 149 73
153 147 60
151 146 54
153 147 68
154 150 68
156 150 72
149 144 59
151 146 61
156 151 73
157 152 65
153 148 55
152 147 55
158 152 69
157 152 65
160 153 68
154 148 68
166 160 79
157 151 65
158 152 65
159 153 67
160 153 72
162 156 65
159 154 74
164 157 68
163 157 69
158 153 66
162 155 71
158 153 72
159 154 70
161 154 70
161 155 68
158 152 69
160 154 74
169 161 79
162 156 72
159 154 69
161 154 72
156 151 59
164 158 68
164 156 72
157 151 63
165 159 74
164 158 73
162 155 75
154 148 64
155 149 64
157 151 67
163 157 73
156 150 73
155 148 64
159 153 68
159 152 69
159 153 68
158 151 69
161 154 72
155 149 65
157 151 65
158 152 66
155 149 68
158 151 72
159 153 73
159 153 71
161 154 75
162 155 73
157 150 76
158 151 72
158 151 75
156 150 71
156 151 68
163 156 70
158 150 70
150 145 62
156 150 69
153 147 69
163 156 82
159 154 72
152 147 65
153 147 68
158 151 75
156 150 75
150 144 62
155 149 70
155 148 68
153 147 64
158 152 77
158 151 68
158 150 75
151 146 65
161 155 77
154 148 69
152 147 68
148 142 66
154 150 68
175 192 144
166 184 129
170 188 133
167 186 116
170 188 139
166 185 118
173 190 139
168 186 129
169 187 121
169 186 129
166 184 116
170 188 125
167 185 123
168 186 125
166 184 123
168 186 125
168 186 123
166 185 114
170 188 131
165 184 107
168 186 127
164 183 114
165 184 118
168 186 123
168 186 121
166 185 116
167 185 123
163 182 99
164 183 99
167 185 116
166 184 123
163 183 94
167 185 118
167 184 118
163 182 99
165 184 116
164 183 104
165 184 109
166 184 114
165 183 116
161 180 91
166 184 112
165 184 112
164 183 107
159 179 94
162 181 97
159 180 75
160 180 97
164 183 99
159 179 72
168 186 123
167 185 123
161 180 99
161 180 88
160 180 94
159 178 88
161 180 102
157 177 88
162 182 97
161 180 85
158 177 79
161 180 97
158 177 85
156 176 64
163 182 94
158 177 79
157 176 72
162 180 109
160 179 79
156 174 68
155 175 64
153 171 79
161 180 97
160 179 75
156 176 56
153 173 45
154 173 72
154 173 79
157 176 64
151 171 45
156 175 72
151 171 51
155 174 72
154 174 68
154 174 60
155 174 72
156 176 79
150 170 60
154 174 64
145 164 45
152 171 39
146 166 51
150 170 51
151 170 56
145 165 45
148 168 45
149 168 51
144 164 39
146 165 51
143 162 39
148 167 60
146 165 56
143 162 45
144 162 45
145 164 32
139 157 22
141 159 22
138 154 60
135 153 36
139 157 45
125 142 42
133 151 29
123 141 48
119 135 25
114 131 36
114 131 48
91 110 56
97 114 55
110 126 55
101 118 53
96 115 69
82 100 56
86 104 57
77 94 52
74 93 67
78 97 62
66 85 62
57 78 81
58 78 59
65 84 60
54 74 60
55 76 62
50 69 54
42 65 57
53 74 59
55 75 57
60 77 49
59 77 50
74 92 46
65 83 42
82 100 46
95 111 59
102 118 64
110 126 66
133 150 86
133 149 82
144 163 72
175 198 0
174 198 0
175 198 0
146 168 40
48 77 100
52 83 109
52 83 109
51 82 100
52 83 107
54 85 110
56 87 112
56 89 116
55 87 116
57 90 114
55 87 104
54 86 112
58 91 121
56 89 123
56 89 114
57 90 116
59 92 118
57 90 115
59 93 126
57 91 115
57 90 116
57 90 121
57 90 113
57 90 117
59 93 125
57 90 114
57 90 121
58 91 115
57 90 112
58 91 120
57 90 119
58 91 125
57 91 120
58 92 124
57 90 120
58 92 131
57 90 115
57 90 115
57 91 111
58 92 125
59 93 130
58 92 117
58 91 115
58 91 122
59 94 135
59 93 130
57 89 113
58 92 125
59 93 125
57 90 121
60 94 130
59 92 122
59 93 130
57 90 113
58 92 122
58 92 129
57 90 113
58 92 130
58 91 114
58 91 124
59 92 131
57 90 118
56 89 113
58 91 125
59 93 134
58 92 122
59 92 127
59 92 120
59 93 121
58 90 120
56 89 111
56 89 114
58 90 119
56 89 107
57 90 120
58 90 117
58 90 125
57 88 114
57 89 115
58 91 121
56 88 109
57 89 116
56 88 109
58 90 122
58 90 128
54 85 119
54 85 104
55 85 100
55 85 110
52 82 95
54 83 105
55 85 109
52 81 108
49 77 76
51 78 91
49 76 92
48 74 95
44 67 81
142 164 46
174 197 0
172 196 0
174 198 0
144 157 31
93 90 30
83 81 21
78 77 22
64 65 16
61 63 19
75 75 18
62 63 14
63 66 20
66 66 12
72 73 24
76 77 21
69 70 20
74 77 30
78 79 27
68 69 22
80 82 25
77 79 33
89 88 38
93 94 28
97 99 45
95 95 44
90 90 39
96 96 44
103 102 46
107 105 40
108 106 39
121 118 40
111 111 47
112 110 43
118 116 41
124 122 57
120 117 51
122 118 49
132 129 58
127 124 51
125 123 53
133 130 56
134 131 52
137 133 56
139 135 61
139 137 60
143 138 62
138 135 65
135 131 53
142 138 54
136 132 52
146 141 60
141 138 58
145 141 62
148 144 60
146 141 61
144 140 59
151 146 60
148 143 61
156 150 66
155 150 65
153 148 59
152 147 60
158 152 68
153 148 68
156 150 73
153 148 68
155 150 67
161 155 65
156 150 66
157 151 73
153 148 60
159 152 68
159 153 71
157 151 68
152 147 60
157 150 71
160 154 69
161 155 70
164 158 73
159 152 68
158 151 66
160 153 66
160 153 66
160 154 71
162 155 72
156 150 67
156 149 66
156 150 63
155 149 66
167 160 76
162 156 74
151 146 63
160 154 66
165 158 75
162 155 71
160 154 70
161 154 66
164 158 75
158 151 65
160 154 72
161 154 78
163 156 70
160 155 63
160 154 71
161 155 69
157 152 59
159 153 72
159 152 69
156 149 67
157 151 59
161 155 68
161 154 68
158 152 72
153 148 63
157 151 72
161 154 79
166 159 79
155 150 70
160 153 75
157 151 67
155 149 67
155 149 66
163 155 67
152 146 65
154 149 67
156 148 69
156 150 61
158 152 76
164 157 78
154 149 66
156 150 68
151 146 63
154 149 70
152 145 66
150 144 66
156 150 75
155 149 70
154 148 67
157 149 71
155 149 67
150 143 64
155 149 69
155 149 68
158 151 73
151 145 76
149 144 62
145 140 64
150 144 71
154 148 74
152 146 73
169 187 131
172 189 139
172 190 142
167 186 116
167 185 114
168 186 129
162 180 107
165 184 116
167 185 123
169 187 125
168 186 125
167 185 125
169 187 133
172 190 139
164 183 99
163 182 107
165 183 112
163 182 99
166 185 114
170 188 137
164 183 112
163 182 104
166 185 112
166 184 116
163 182 102
162 181 102
161 180 91
166 184 114
165 184 107
166 184 112
165 184 102
160 179 85
166 184 109
161 180 107
162 181 91
165 183 112
163 181 104
161 181 85
160 178 94
161 181 88
161 181 94
158 178 85
165 183 104
165 183 104
162 181 94
161 180 94
156 175 72
161 180 94
162 180 85
159 179 79
159 178 91
161 180 91
162 181 91
154 174 79
160 180 82
157 176 79
158 178 79
158 178 72
154 174 56
158 177 72
156 176 75
157 176 64
155 175 75
160 179 82
159 178 85
160 179 88
156 177 79
157 176 82
154 174 68
155 175 39
158 177 75
157 176 75
157 177 72
151 171 51
159 179 79
152 172 64
147 167 32
152 171 60
149 168 32
150 171 39
151 171 45
149 170 51
151 170 39
152 172 32
149 169 39
153 173 51
150 170 32
150 170 51
150 171 22
151 171 39
150 169 45
149 169 32
146 166 32
146 164 39
149 169 51
148 168 0
142 162 0
141 161 22
142 160 0
146 165 32
139 159 0
140 158 0
140 160 0
146 165 22
143 163 0
136 155 0
137 157 0
138 156 10
136 154 0
129 147 16
133 152 0
124 142 22
126 144 36
121 140 33
108 126 36
116 134 46
102 119 42
102 120 50
102 119 39
92 110 58
82 101 66
84 104 53
73 92 50
74 93 59
80 99 60
71 92 66
66 84 63
64 83 52
64 83 63
57 77 57
63 83 59
45 63 42
59 80 66
44 64 53
57 75 49
56 76 47
64 80 40
78 95 48
78 95 37
90 107 39
92 108 37
94 112 47
102 118 71
124 140 93
133 149 98
137 153 99
169 192 51
173 197 0
176 198 0
173 197 0
172 195 25
53 80 79
51 81 105
54 86 107
52 82 108
54 86 114
53 84 107
55 88 111
54 85 118
52 83 102
52 83 93
56 89 114
57 90 117
58 91 127
58 92 124
56 89 112
57 90 120
57 91 121
56 89 115
58 92 127
57 90 118
58 92 115
57 91 124
57 90 118
57 90 114
55 88 108
59 92 126
58 92 124
56 89 103
56 89 116
56 89 112
58 91 122
59 93 129
57 90 115
56 89 113
58 92 117
59 93 131
58 93 121
59 93 121
58 92 121
59 93 128
57 90 118
58 92 126
58 91 121
59 92 129
57 91 117
59 93 126
59 93 129
57 91 122
59 93 128
59 93 133
58 91 124
59 93 130
56 89 110
59 93 124
58 91 121
57 89 111
59 92 131
57 89 115
57 90 121
59 92 124
60 94 124
58 91 116
58 91 118
56 89 105
56 88 111
56 89 115
57 89 113
56 88 107
58 91 120
56 89 108
58 90 116
54 86 104
58 90 116
57 89 120
55 87 110
56 87 107
56 89 119
57 89 124
56 88 115
57 89 116
57 88 111
56 87 109
56 87 115
54 85 103
56 88 120
55 86 114
54 84 102
57 89 121
54 85 116
55 85 109
54 83 110
51 79 87
52 80 95
52 81 94
53 82 106
50 76 95
48 73 71
61 83 68
171 194 19
174 197 0
173 196 0
175 198 0
164 184 16
94 93 34
78 79 34
77 74 22
58 58 21
50 52 14
65 66 16
64 66 17
49 53 23
65 67 16
66 70 26
77 78 23
77 79 23
72 74 24
73 74 14
78 80 27
75 78 28
84 86 34
95 95 24
86 87 31
98 98 37
104 103 44
98 98 36
86 89 39
97 97 32
110 109 44
120 117 51
108 106 44
111 110 39
117 113 48
115 114 44
115 114 48
115 114 45
125 122 52
130 125 55
130 125 50
133 128 54
124 122 46
128 126 47
124 121 50
134 131 58
123 121 55
131 129 51
139 134 61
137 133 60
140 135 61
136 132 57
134 130 54
143 139 56
149 144 58
150 144 61
151 146 67
150 145 66
149 143 66
155 149 67
152 146 61
151 146 64
147 143 66
146 141 57
151 145 57
148 143 54
151 145 55
150 145 58
143 139 59
160 154 72
155 149 64
154 148 65
155 150 65
153 147 60
156 150 65
154 149 57
151 145 64
161 155 63
157 151 68
160 154 70
156 149 65
154 149 63
155 150 59
158 153 64
159 152 63
156 150 65
159 153 75
157 151 69
163 157 70
159 153 66
161 155 71
153 148 64
159 154 61
162 156 69
157 151 63
164 156 71
160 154 73
162 155 67
160 154 68
161 155 72
155 149 64
158 151 66
157 151 71
163 157 66
156 151 65
169 161 73
160 154 70
159 153 65
164 155 73
162 155 72
162 156 72
162 154 70
160 153 68
153 147 63
161 154 69
158 152 67
156 150 60
156 150 67
154 148 65
160 154 69
160 153 70
160 153 74
156 150 65
156 149 73
161 153 73
156 150 69
153 147 63
148 142 68
156 149 65
158 151 73
155 149 68
156 150 70
160 152 74
157 151 72
160 154 71
151 146 64
157 150 65
160 154 70
154 147 72
162 155 73
160 154 65
148 142 67
153 146 72
147 141 62
147 141 61
155 149 68
152 145 72
153 147 66
158 151 75
147 141 63
146 140 61
157 150 75
171 189 133
168 186 123
165 183 116
167 185 116
165 184 112
169 187 125
168 186 125
168 186 116
166 184 116
170 187 125
163 181 102
165 184 116
169 187 127
164 183 102
168 185 125
166 184 118
161 180 102
167 185 125
165 184 109
167 185 114
166 184 114
168 186 125
168 186 123
165 183 109
165 183 109
164 183 102
161 181 94
162 181 91
163 181 99
163 182 97
163 182 85
161 180 88
160 179 97
160 180 79
161 180 91
165 183 107
161 181 91
163 182 99
162 181 91
162 182 97
165 184 107
160 179 91
159 178 94
159 179 79
162 181 91
159 179 75
158 178 64
156 176 64
157 176 85
158 178 79
163 182 102
158 178 64
161 179 88
158 178 75
159 178 72
159 178 72
160 179 91
154 174 51
157 177 72
152 172 51
151 170 64
156 176 75
151 171 51
153 173 60
148 169 39
153 172 45
157 177 64
155 175 60
157 176 64
158 177 68
148 168 22
155 175 51
149 171 39
152 171 56
150 171 39
146 167 0
150 170 32
145 166 32
147 167 32
150 171 22
149 170 0
151 171 22
143 164 22
146 165 39
147 167 22
146 166 0
146 167 0
149 168 0
144 164 0
151 171 0
147 166 22
148 167 0
147 166 0
140 159 0
141 161 0
148 168 0
140 159 0
143 164 0
140 158 0
141 160 0
141 160 0
144 163 0
137 154 0
141 159 0
141 159 0
136 156 0
134 152 0
131 148 0
127 146 0
129 147 16
122 139 28
125 143 28
121 139 35
110 128 32
106 125 42
108 126 48
113 130 58
106 125 51
98 115 30
94 111 50
85 104 53
84 103 59
76 95 53
81 99 63
70 89 59
73 92 49
70 89 70
54 75 53
54 71 43
58 78 63
53 72 52
70 87 45
48 64 49
56 75 54
63 80 34
66 82 28
61 81 46
77 94 44
84 100 38
87 104 32
97 116 34
110 127 68
120 135 85
127 141 93
137 153 99
139 155 88
172 197 0
175 198 0
175 198 0
173 197 0
174 198 0
103 124 79
47 76 87
51 81 96
50 79 84
55 86 113
53 85 106
54 86 114
54 87 113
54 86 115
53 83 109
56 88 115
56 88 119
58 92 126
57 91 128
57 90 118
56 89 110
56 89 119
57 90 124
58 91 124
55 88 110
58 91 121
58 91 124
59 92 126
60 94 131
58 91 121
58 92 115
58 91 119
59 93 131
59 93 126
58 91 125
59 93 134
58 92 118
57 91 120
56 89 124
58 91 130
57 91 115
57 90 115
57 90 114
58 92 129
59 93 124
58 92 122
58 91 115
59 92 122
59 92 123
57 91 109
59 93 126
59 93 128
59 93 124
58 91 118
56 89 114
58 92 120
57 90 118
57 90 110
57 90 117
57 90 117
59 93 128
58 91 122
57 91 113
60 95 133
59 92 130
56 89 107
57 90 117
57 89 113
57 90 113
59 93 125
57 89 117
59 93 130
57 89 127
57 90 117
57 89 117
57 90 121
59 92 133
57 90 117
54 85 94
58 91 125
52 83 87
55 86 104
57 89 119
55 86 104
58 90 115
56 88 118
55 86 115
54 85 101
56 86 109
56 88 111
52 82 101
54 85 97
53 82 105
54 85 101
54 83 97
54 84 106
51 80 91
52 80 95
51 79 101
52 80 92
53 81 106
47 70 79
113 133 55
174 197 0
173 196 0
175 198 0
173 196 0
174 197 0
119 127 34
85 82 37
86 83 23
77 77 20
67 66 23
79 77 23
63 65 16
65 66 11
60 61 17
68 68 15
59 61 18
69 71 14
80 82 24
68 70 31
61 65 25
81 82 24
100 98 33
84 86 34
100 99 34
95 95 36
89 90 33
109 106 39
109 108 38
96 96 39
101 100 39
115 114 43
120 117 45
107 106 41
112 110 43
112 110 46
117 116 46
120 118 43
125 122 47
127 124 55
131 129 48
132 129 55
130 127 57
134 130 59
129 127 47
133 129 59
130 126 51
129 126 54
138 134 56
133 130 49
133 129 52
142 137 56
147 143 60
138 134 54
142 138 60
144 139 55
148 143 60
146 141 60
146 141 55
151 146 62
145 139 54
149 144 56
140 135 47
155 149 72
146 142 63
149 145 55
153 147 68
154 147 64
153 148 60
152 148 62
158 152 67
162 154 68
148 142 59
154 148 64
152 147 57
154 149 61
160 154 62
151 146 63
155 148 66
156 151 62
159 152 71
157 151 66
156 151 61
157 150 62
161 155 68
158 152 66
162 156 66
162 156 65
158 151 67
154 150 59
158 152 64
158 153 64
155 149 62
160 155 68
154 147 61
158 152 59
155 149 66
159 152 67
159 153 65
161 153 69
161 154 71
155 149 63
161 154 72
155 150 63
164 156 75
153 148 58
157 151 62
162 156 68
159 153 67
157 150 68
158 152 68
160 154 73
158 152 64
154 149 62
155 148 64
152 146 61
157 151 65
155 149 64
163 157 70
160 154 64
156 149 65
154 149 63
162 154 68
159 152 74
161 155 70
157 151 66
152 144 64
159 153 67
154 148 65
159 152 75
151 144 69
149 142 62
148 143 58
160 153 72
159 151 75
158 153 68
154 148 67
153 148 61
160 153 77
154 148 66
151 144 68
154 148 71
151 146 60
161 154 72
152 147 66
151 144 65
158 152 71
161 155 73
155 149 73
153 147 66
153 148 66
150 143 62
173 190 141
167 184 121
166 184 125
163 182 107
167 185 112
166 184 116
165 183 107
170 187 127
168 186 125
161 181 91
163 182 104
162 181 102
164 183 107
166 185 114
166 184 107
162 181 97
165 184 112
161 180 88
164 183 102
164 182 104
164 183 104
163 182 94
161 179 91
162 181 97
158 178 79
165 183 104
159 179 72
164 183 102
162 181 94
165 183 107
163 182 94
163 182 109
165 184 107
163 182 102
164 183 107
160 179 72
158 178 82
159 179 72
158 177 79
161 180 88
161 180 97
160 180 91
159 179 64
157 177 60
157 177 60
159 178 72
157 177 75
156 176 68
157 178 75
160 179 88
155 176 68
156 175 64
153 173 45
153 174 56
155 175 56
157 176 64
154 175 45
156 176 64
152 172 32
157 177 68
153 174 56
155 175 51
153 173 39
152 172 60
152 172 39
155 175 22
152 173 22
152 173 32
151 171 39
154 174 32
150 171 22
150 170 0
152 173 22
151 171 39
151 172 22
152 172 0
144 165 0
149 171 0
149 169 0
146 166 0
143 164 0
146 166 0
151 172 0
146 166 0
149 170 0
147 167 0
148 168 0
148 169 0
145 165 0
150 171 0
145 165 0
146 165 0
147 167 0
145 164 0
145 165 0
145 165 0
148 168 0
140 160 0
135 153 0
139 158 0
136 155 0
137 157 0
141 160 0
130 149 0
138 156 0
134 152 0
142 161 0
133 152 0
133 151 0
122 139 0
132 150 0
123 142 22
118 134 0
114 133 22
118 137 36
114 131 31
112 130 16
103 120 31
102 120 43
91 110 32
92 109 38
91 109 45
91 109 36
80 96 55
83 102 55
64 81 55
71 90 67
67 85 48
67 85 45
72 90 50
67 85 44
57 76 50
61 80 58
67 85 54
65 82 44
79 97 46
83 99 28
88 105 18
80 97 28
95 113 36
107 124 45
104 122 46
124 141 65
131 147 85
136 152 97
158 179 56
170 195 0
172 196 0
175 198 0
176 198 0
174 198 0
143 165 50
51 80 93
52 82 97
51 81 101
55 87 117
53 84 108
53 84 101
53 84 110
53 84 92
55 88 111
55 86 108
57 90 121
54 86 110
57 91 120
57 89 118
56 89 120
55 87 106
57 91 117
58 92 132
55 88 107
56 89 120
59 93 124
56 89 112
57 90 113
58 92 117
57 90 116
59 92 125
57 90 119
57 89 109
57 90 118
59 92 128
58 91 122
57 91 115
57 89 117
59 92 128
58 91 117
57 89 115
57 90 118
58 92 117
59 93 122
58 91 122
57 90 113
57 90 123
58 91 121
59 92 125
56 88 110
58 91 118
56 89 107
58 92 115
56 89 107
58 91 114
58 92 124
58 92 121
58 91 114
57 91 120
58 91 130
59 92 125
57 90 115
58 91 120
57 90 125
57 91 121
57 90 115
56 89 106
57 89 115
56 89 114
58 91 117
58 92 119
57 89 115
56 88 105
56 88 114
58 91 114
56 89 110
56 89 113
55 87 95
58 90 121
58 91 128
56 87 119
54 84 99
55 87 104
55 86 116
58 90 123
56 88 113
57 90 117
56 87 113
55 86 108
53 83 102
54 85 102
53 83 106
52 82 97
53 81 103
53 81 95
51 80 101
51 80 97
51 77 95
50 76 86
49 75 84
48 73 78
139 160 50
172 196 0
172 196 0
172 196 0
174 196 0
174 196 0
153 169 28
95 91 42
84 82 29
78 77 27
74 72 23
73 73 22
75 76 25
58 58 14
60 61 6
71 72 17
68 70 25
74 74 15
74 76 29
64 65 19
81 81 22
79 81 30
92 91 27
88 88 30
80 82 22
79 81 34
98 96 32
85 86 26
94 94 35
100 101 36
93 94 31
111 109 48
116 113 45
109 108 41
122 119 46
114 112 48
126 123 48
111 110 40
120 117 42
124 122 46
128 125 53
128 126 46
139 134 57
127 125 54
134 131 53
132 128 60
130 128 53
136 133 56
140 136 49
137 134 36
141 137 55
131 128 50
138 132 54
137 134 54
143 139 50
149 143 61
144 137 58
143 138 53
145 141 56
139 136 45
148 144 58
147 142 57
152 146 65
142 137 52
148 143 56
146 143 51
150 144 65
148 143 57
149 143 65
148 143 63
147 142 54
156 150 68
157 151 71
154 148 62
151 146 55
156 150 61
149 144 53
150 144 58
152 147 53
159 153 63
155 149 61
155 149 63
158 153 61
156 150 57
157 152 65
154 149 67
164 157 70
153 147 57
157 150 63
159 153 67
163 157 67
163 155 71
154 149 52
148 143 59
155 149 65
162 156 65
159 152 66
160 154 66
160 153 73
152 147 62
154 148 60
160 153 66
158 151 64
165 157 79
156 151 64
156 150 62
152 146 62
158 152 67
150 144 56
164 156 67
160 153 64
160 153 64
162 155 76
158 151 67
156 150 65
162 155 67
158 151 70
160 152 75
150 143 70
157 150 66
160 154 69
158 152 65
164 157 73
154 147 62
154 148 67
155 150 69
157 151 67
157 150 63
154 147 67
158 151 72
154 147 71
157 150 72
146 140 61
146 141 62
160 153 80
157 151 70
154 149 66
156 150 67
150 145 61
156 150 69
155 149 69
151 145 71
157 150 69
152 145 66
142 136 59
151 145 66
150 143 68
150 144 66
152 145 67
154 147 68
148 142 63
145 138 63
168 186 121
168 186 118
165 184 104
166 185 109
166 184 107
167 185 116
164 183 109
167 185 118
168 186 116
165 183 107
166 185 114
163 182 97
160 178 102
164 183 109
164 183 107
161 180 99
163 181 94
159 179 79
162 181 91
164 182 99
161 180 85
159 178 91
165 183 102
163 182 97
163 182 91
161 179 94
162 181 91
164 183 107
163 183 91
158 177 82
156 176 72
158 178 72
161 180 99
158 177 88
159 178 75
155 175 45
159 178 64
157 177 72
157 176 68
156 177 60
160 180 82
155 175 64
155 174 64
155 176 56
159 178 79
152 173 51
155 175 51
153 174 51
156 176 68
155 176 56
157 177 64
155 175 60
157 176 64
155 176 51
153 173 39
155 175 32
157 177 60
149 169 39
152 173 39
151 173 22
155 175 22
153 173 32
148 168 39
153 173 22
150 171 32
151 171 0
149 170 22
150 170 0
148 169 0
151 171 0
150 171 0
152 173 0
148 169 0
146 167 0
151 171 0
148 168 0
150 171 0
146 166 0
147 167 0
145 165 0
152 173 0
148 168 0
146 167 0
149 169 0
148 168 0
145 165 0
148 168 0
146 166 0
147 167 0
141 162 0
138 159 0
146 167 0
141 161 0
147 167 0
143 163 0
147 167 0
144 164 0
137 157 0
143 163 0
141 160 0
140 159 0
141 161 0
133 152 0
134 153 0
132 152 0
131 149 0
138 156 0
132 150 0
127 144 0
129 148 0
123 140 0
114 133 36
121 138 0
115 132 28
120 136 22
111 129 39
103 120 32
107 123 45
101 118 42
100 116 29
93 111 45
86 103 26
97 113 45
80 97 51
73 89 38
69 89 52
79 97 44
77 95 44
73 90 49
71 89 49
74 93 45
62 79 40
55 72 40
68 86 40
70 88 39
74 90 48
67 83 32
82 99 38
91 109 29
112 129 28
113 130 42
119 135 72
124 140 71
129 145 85
131 147 72
172 196 0
175 198 0
173 197 0
172 196 0
173 197 0
173 197 0
173 197 0
76 99 78
49 78 90
52 82 98
53 84 100
54 86 109
54 86 118
55 87 115
54 86 99
54 86 112
55 86 103
55 87 103
54 84 109
56 89 108
54 85 105
55 88 111
54 86 104
55 88 106
57 91 123
57 90 121
56 89 114
57 90 113
56 90 117
57 90 123
56 88 106
57 90 119
57 90 125
59 93 130
57 90 120
57 90 120
57 91 118
58 91 128
59 93 132
59 92 129
57 91 124
58 92 125
57 90 113
59 92 125
58 91 115
57 91 113
56 89 112
56 89 117
58 91 118
57 90 114
57 91 114
58 91 119
59 92 121
58 91 122
58 92 126
60 94 129
57 90 122
59 93 130
57 89 120
56 89 108
56 88 110
57 91 118
59 93 125
57 90 111
59 93 128
57 90 118
58 92 118
58 91 120
55 87 110
58 91 125
58 92 120
59 93 125
59 93 122
56 90 111
56 89 110
57 91 118
56 89 108
55 87 108
55 86 106
55 86 109
55 87 113
56 88 115
57 89 118
56 87 114
56 87 113
57 89 117
57 89 112
55 86 104
54 85 103
53 83 97
55 86 110
54 85 102
57 87 115
55 85 108
53 82 98
54 83 99
53 81 97
55 85 111
53 83 101
50 77 87
49 75 90
48 74 96
77 97 64
173 196 18
175 198 0
172 196 0
172 195 0
174 197 0
174 197 0
173 195 11
114 117 34
89 87 33
76 76 14
83 81 13
80 79 21
71 71 19
72 71 16
79 78 9
75 76 17
59 60 11
73 75 18
78 78 22
74 75 16
81 82 25
84 85 21
85 87 19
78 80 30
85 86 22
91 91 26
87 88 30
96 96 34
105 104 32
104 103 40
114 111 34
110 110 46
107 106 38
111 110 41
100 100 33
111 109 39
116 113 45
115 113 35
112 111 40
132 127 49
115 113 39
121 119 40
117 114 45
128 124 49
131 128 51
135 131 53
139 134 53
132 130 44
134 131 53
139 133 64
127 124 44
131 127 44
135 132 53
126 123 39
139 134 50
141 135 52
141 136 53
141 135 56
144 139 55
146 140 56
150 144 63
144 140 53
150 144 56
152 145 57
156 150 65
154 149 52
147 142 60
155 149 59
152 147 60
152 145 56
151 145 63
154 148 65
153 147 60
155 150 70
156 149 64
147 142 61
166 159 72
158 152 62
158 152 64
147 142 55
159 153 66
154 148 58
154 147 64
158 152 65
153 148 57
159 151 59
153 147 59
158 151 66
159 153 62
157 152 52
164 158 72
153 147 61
160 153 64
152 146 41
151 144 60
157 151 68
161 155 65
160 153 62
158 152 67
161 154 67
149 143 56
160 154 69
158 152 63
158 152 61
161 155 68
157 150 61
157 151 61
156 149 64
155 149 60
159 152 69
148 142 44
157 152 60
156 150 66
163 157 67
157 150 70
154 147 65
152 146 59
151 146 56
158 153 66
153 148 59
165 159 68
163 157 66
154 148 65
154 148 63
163 157 70
153 147 65
160 154 73
152 146 68
155 148 67
154 149 63
158 152 71
156 149 72
155 148 64
152 145 63
156 150 67
149 142 65
151 144 65
160 154 70
150 144 62
152 146 61
148 141 64
146 141 56
150 146 63
152 145 65
139 134 58
152 147 63
147 142 62
144 139 60
156 149 67
155 148 71
153 146 68
146 140 66
163 182 112
170 188 127
164 183 99
163 183 97
163 182 99
163 182 97
165 183 107
161 181 91
161 181 85
164 182 107
166 185 107
166 184 114
164 183 104
158 178 72
166 185 112
163 182 99
164 182 102
162 181 94
162 181 91
160 180 82
159 179 68
161 180 94
160 180 79
162 181 94
163 181 99
158 177 64
158 177 75
155 175 68
161 180 97
162 181 85
160 179 82
158 177 75
158 177 85
159 178 85
155 175 51
157 178 56
153 174 32
156 176 68
159 179 75
155 176 45
157 177 60
156 176 56
155 176 39
157 177 64
155 175 45
155 175 39
154 175 64
152 173 22
153 173 32
152 173 22
156 177 56
154 174 32
155 175 39
153 173 0
152 172 22
152 173 32
153 174 22
152 172 0
150 171 0
151 171 0
153 174 22
148 169 0
149 171 0
150 170 0
152 173 0
149 170 0
152 173 0
147 168 0
147 168 0
146 166 0
147 168 0
147 168 0
150 171 0
152 172 0
150 170 0
147 168 0
143 164 0
149 170 0
146 166 0
148 169 0
143 163 0
143 163 0
142 163 0
143 163 0
145 165 0
147 167 0
146 166 0
145 166 0
141 162 0
144 164 0
146 165 0
145 165 0
141 161 0
135 153 0
147 167 0
141 162 0
141 160 0
132 150 0
135 155 0
132 151 0
136 155 0
129 148 0
138 157 0
142 161 0
129 147 0
135 155 0
127 146 0
126 143 0
125 144 0
118 133 0
135 154 0
117 133 32
121 139 28
102 119 27
111 128 22
104 122 26
105 123 32
91 109 36
96 112 31
101 119 53
83 100 38
84 103 54
89 106 35
84 102 50
82 98 50
76 92 38
56 73 44
69 87 30
73 90 48
71 86 32
62 79 43
64 80 36
71 88 50
74 89 34
68 83 40
82 98 32
96 112 41
96 112 22
95 112 28
114 133 14
111 128 42
133 150 95
133 148 72
135 152 82
148 168 51
171 196 0
171 195 0
173 197 0
173 196 0
173 196 0
175 198 0
173 197 0
119 140 40
48 76 102
51 81 90
53 84 105
50 79 79
54 86 105
54 86 114
53 84 114
53 84 93
57 89 114
56 89 109
54 86 114
55 87 113
56 89 111
57 90 120
56 89 110
56 88 106
57 90 111
56 88 117
55 87 108
56 88 104
57 90 120
58 91 122
55 88 106
57 91 115
57 91 121
55 87 108
58 91 122
58 92 116
58 91 114
56 88 105
56 89 111
56 88 115
56 90 118
59 92 115
56 89 114
56 88 111
57 90 114
58 92 120
58 92 124
58 91 121
59 93 131
58 91 118
57 90 105
58 91 107
60 95 127
57 90 118
58 92 114
58 92 123
57 90 119
58 92 129
57 90 114
56 88 108
56 88 110
59 92 131
59 92 122
57 90 114
54 87 103
59 92 129
56 89 118
58 91 116
57 91 118
58 90 120
55 87 115
57 90 113
57 89 113
56 87 113
58 91 123
59 93 132
56 87 117
56 88 110
56 89 107
55 85 110
57 90 110
55 87 114
57 90 125
54 86 103
56 87 118
56 89 117
55 86 115
55 86 99
55 85 105
55 86 109
56 86 103
55 86 103
57 89 113
53 82 99
54 85 109
52 80 105
52 81 108
53 82 107
51 77 90
51 78 88
50 78 96
49 75 77
124 144 45
171 194 0
173 196 0
173 196 0
174 197 0
174 197 0
172 197 0
171 195 0
148 164 18
107 103 42
87 86 24
78 75 23
74 75 13
78 77 20
71 72 18
74 73 9
60 63 18
73 74 21
69 69 22
70 71 19
81 80 24
69 71 20
81 81 25
86 86 24
86 86 38
85 84 26
86 87 26
101 99 35
91 91 30
102 102 36
106 103 34
106 104 38
102 100 30
113 111 38
113 109 40
105 104 46
108 107 34
115 113 36
114 113 45
120 119 46
123 121 42
133 130 51
117 115 39
127 122 53
129 126 48
118 116 37
129 125 37
127 124 45
136 132 50
130 126 52
136 132 56
134 130 47
130 127 34
143 139 54
140 137 56
137 132 54
145 140 56
136 131 45
144 139 45
149 144 50
153 148 60
146 140 56
144 138 58
151 145 63
141 136 49
143 138 58
155 150 70
146 142 52
155 150 68
161 154 66
145 141 55
152 146 56
150 145 55
149 144 54
153 147 60
150 145 53
157 150 63
156 150 61
158 152 63
153 148 61
157 150 62
157 151 67
152 147 60
153 147 64
159 151 65
153 148 54
155 150 57
153 148 58
157 150 62
155 148 64
157 150 60
158 152 63
158 152 69
155 149 59
162 156 69
156 150 66
161 154 61
152 146 59
156 149 56
154 148 62
158 152 64
156 150 63
154 148 64
154 149 61
164 157 69
158 153 59
153 147 63
157 151 67
161 154 68
161 155 66
158 152 64
152 145 64
159 153 67
153 148 62
154 148 58
156 150 52
145 140 52
158 152 64
160 153 65
153 146 71
158 152 63
156 149 66
154 147 62
150 144 61
158 151 69
148 142 58
155 149 60
156 148 65
151 146 58
152 146 60
153 146 65
148 142 61
157 151 62
148 142 61
155 149 66
153 146 61
157 150 64
148 143 56
148 143 60
161 155 73
145 139 65
154 147 61
156 148 71
149 143 64
151 145 63
153 146 70
157 152 69
148 143 59
154 146 68
141 137 56
145 139 62
152 145 69
147 140 61
163 182 97
169 186 123
164 183 102
165 183 102
165 183 109
161 180 94
165 184 107
161 181 94
162 181 97
162 181 97
160 180 75
164 183 102
158 178 72
165 183 107
158 178 68
160 180 79
159 180 82
160 180 75
156 174 72
157 177 64
160 179 72
160 179 91
158 177 75
156 176 64
159 179 75
160 180 79
160 180 82
155 175 68
156 176 75
156 176 60
158 177 68
158 177 68
155 175 56
157 176 60
157 177 60
155 175 51
155 175 45
156 176 56
156 176 45
153 173 45
156 177 51
154 174 39
157 177 45
157 177 56
151 171 22
151 171 32
153 173 32
148 169 0
153 173 0
150 171 0
155 175 0
152 173 0
150 171 0
149 170 0
153 174 0
151 172 0
150 171 0
151 171 0
153 173 0
149 171 0
149 170 0
150 171 0
153 173 0
150 171 0
149 169 0
149 169 0
152 173 0
152 173 0
146 166 0
147 168 0
148 168 0
149 169 0
146 167 0
148 169 0
147 168 0
144 164 0
148 168 0
144 165 0
146 166 0
149 169 0
147 168 0
148 168 0
145 165 0
146 165 0
147 167 0
146 166 0
146 165 0
149 169 0
142 162 0
143 163 0
147 168 0
143 163 0
136 156 0
134 154 0
137 158 0
139 159 0
142 162 0
138 158 0
130 149 0
135 155 0
130 149 0
135 154 0
124 142 0
129 148 0
133 151 0
129 147 0
127 145 0
127 145 0
121 139 0
126 145 0
120 137 0
123 141 16
117 134 0
117 135 0
107 125 16
109 125 28
109 126 22
107 124 36
110 128 45
97 113 35
91 109 48
97 114 32
80 98 37
88 105 45
76 93 28
78 94 42
82 99 47
79 94 42
74 91 45
82 98 46
75 91 28
73 88 29
71 88 24
74 91 35
83 100 40
90 106 31
99 116 16
98 114 26
109 125 22
110 127 36
127 144 72
132 148 77
139 156 79
139 156 72
171 195 0
174 197 0
174 197 0
172 196 0
171 195 0
169 194 0
175 197 0
171 194 0
160 184 25
58 82 72
49 78 91
52 82 103
52 84 93
52 83 91
54 86 111
53 84 113
55 86 101
55 87 111
56 88 105
57 90 113
52 83 98
55 87 103
54 86 100
56 89 116
55 87 103
55 87 111
56 89 112
58 92 120
57 90 116
56 88 109
57 90 106
56 89 116
57 89 115
57 90 114
55 88 113
56 89 115
57 91 122
58 92 123
57 89 113
56 89 109
56 89 113
56 89 116
57 90 108
58 91 122
57 90 108
58 92 111
57 91 121
56 89 108
56 89 120
58 92 124
59 93 130
58 91 122
57 89 114
57 90 113
58 91 111
59 92 122
56 89 107
58 91 115
56 88 108
58 92 124
57 91 124
59 93 122
57 90 113
58 91 122
57 91 116
58 92 120
59 92 130
58 92 126
56 89 111
55 87 115
56 88 114
55 87 110
56 88 108
56 89 111
56 89 113
56 88 117
52 83 102
57 90 117
57 89 125
55 86 99
57 89 116
54 85 93
55 87 113
57 89 115
56 88 119
57 90 115
56 88 116
55 86 113
55 85 105
55 86 115
53 83 91
54 84 110
54 84 98
55 86 112
54 84 103
51 80 90
53 82 93
50 78 90
50 77 92
53 79 86
52 79 86
45 69 68
57 80 71
160 183 19
172 195 0
172 195 0
171 194 0
172 195 0
171 194 0
174 197 0
172 196 0
172 194 11
115 117 41
99 96 43
92 89 31
74 73 11
74 74 14
72 72 3
78 78 12
69 69 12
77 78 16
81 80 8
80 79 20
75 76 22
83 84 23
78 80 18
92 92 21
83 83 18
86 86 22
77 78 24
102 100 26
86 87 24
104 102 30
88 88 21
97 97 31
113 111 34
111 109 33
105 103 34
107 105 25
109 107 41
104 103 38
111 109 38
116 113 44
120 117 39
111 110 40
110 108 41
125 121 45
128 124 45
132 130 46
135 132 44
129 125 43
140 135 47
120 119 40
134 131 43
131 127 42
131 127 46
139 135 48
136 131 47
136 132 52
140 135 57
135 130 48
144 140 52
140 136 49
141 136 58
141 138 53
144 139 48
140 135 51
148 142 56
144 140 51
140 135 51
148 144 57
149 144 51
154 147 62
147 142 54
150 144 57
152 146 60
152 147 60
148 143 58
152 147 55
148 142 53
154 148 64
153 147 63
154 147 58
154 147 62
150 144 53
158 151 69
148 142 60
154 149 57
154 148 56
155 147 66
160 154 61
159 154 60
151 145 62
158 152 63
158 151 66
160 154 63
158 151 67
156 149 59
157 152 64
151 145 57
154 148 63
158 153 62
152 146 61
154 148 67
155 149 62
151 146 59
153 147 59
159 152 65
157 151 61
156 150 62
159 152 58
152 146 57
151 145 56
161 154 69
157 152 64
157 150 58
152 147 52
152 146 58
151 145 56
158 151 62
149 143 61
153 148 57
161 155 63
151 145 56
151 145 65
154 147 58
154 148 61
151 145 63
152 146 64
153 147 66
155 148 66
153 147 65
143 138 58
151 145 56
154 147 66
153 147 63
153 147 66
152 146 62
153 146 65
150 143 64
156 150 70
153 147 66
157 151 64
149 144 59
154 149 70
153 146 65
149 144 57
160 152 69
153 147 65
149 143 63
149 142 65
148 142 63
150 145 66
143 137 57
148 141 62
143 137 57
162 181 104
167 186 121
164 183 99
166 183 114
162 181 88
163 182 102
159 178 82
161 181 97
164 183 102
162 182 82
161 181 85
157 177 79
166 184 107
162 181 75
161 179 82
161 181 82
160 179 85
162 180 91
161 181 91
160 179 75
158 178 68
160 179 75
158 178 75
160 179 64
156 175 64
157 177 60
158 178 72
159 178 68
155 175 45
154 173 60
154 174 51
157 177 56
156 176 51
157 178 60
152 173 0
154 175 32
153 173 45
155 175 51
157 177 60
152 172 32
154 174 39
150 170 39
152 173 32
151 172 22
148 168 0
152 173 32
154 175 0
152 172 0
149 170 0
151 171 0
150 170 0
152 174 0
153 173 0
151 172 0
153 174 0
152 172 0
149 169 0
150 171 0
151 170 0
149 170 0
152 172 0
149 169 0
148 169 0
149 169 0
150 171 0
146 166 0
147 168 0
146 167 0
150 171 0
150 171 0
146 167 0
145 166 0
148 169 0
148 169 0
146 167 0
150 170 0
145 165 0
147 166 0
144 165 0
146 167 0
141 161 0
146 167 0
145 165 0
141 161 0
148 169 0
144 165 0
143 164 0
142 163 0
143 163 0
145 165 0
145 165 0
142 162 0
144 164 0
140 160 0
136 157 0
132 152 0
141 160 0
136 156 0
137 156 0
143 163 0
137 158 0
137 157 0
138 157 0
132 152 0
131 150 0
135 154 0
129 147 0
134 153 0
121 139 0
126 145 0
126 143 0
117 133 0
117 135 16
121 138 16
117 136 0
103 120 16
101 117 32
99 116 16
101 118 34
91 107 32
95 112 22
81 98 39
106 123 35
88 103 38
91 107 38
71 87 21
89 107 38
66 83 37
79 95 42
75 92 41
80 97 31
77 93 21
74 90 24
72 90 46
76 93 27
85 102 16
100 117 0
106 123 14
119 136 16
112 128 42
129 145 56
134 151 75
133 148 82
160 181 60
175 198 0
172 196 0
170 194 0
172 195 0
170 194 0
172 195 0
172 196 0
172 196 0
172 196 0
110 133 58
47 75 73
52 82 105
50 79 90
52 83 100
53 84 97
52 83 93
54 85 106
52 83 99
54 86 110
53 85 98
56 88 112
56 88 117
57 90 119
56 88 113
57 89 107
55 88 103
56 88 110
55 86 109
57 89 111
56 88 107
56 89 108
55 87 112
56 88 115
56 88 106
57 90 113
56 89 117
56 88 109
58 92 129
58 92 115
56 88 110
58 92 123
57 90 122
57 90 111
56 88 102
57 90 102
58 90 126
57 91 122
56 89 116
55 87 107
56 88 117
58 92 122
56 88 118
59 92 122
57 90 122
59 93 121
58 92 114
57 90 114
58 91 124
57 90 97
56 88 121
57 90 107
56 88 108
56 88 105
57 90 111
58 90 122
57 90 125
56 89 111
57 90 102
59 93 128
56 89 110
54 86 102
56 88 107
57 90 116
56 89 113
55 86 97
56 88 104
53 84 99
57 90 115
56 87 107
57 90 122
56 88 109
57 89 118
53 84 94
53 84 105
54 85 108
56 87 108
53 83 100
56 87 121
54 85 102
53 83 98
55 86 107
56 89 107
55 85 105
54 83 99
56 87 105
51 79 98
52 81 95
52 80 97
51 79 83
49 76 83
50 78 89
46 71 71
105 125 57
172 196 0
172 195 0
172 195 0
173 196 0
171 194 0
172 195 0
173 196 0
171 194 0
171 194 0
145 162 18
88 87 30
88 85 23
71 68 23
73 70 19
69 69 21
68 68 15
78 76 12
71 71 12
80 79 19
80 81 14
82 83 14
75 75 26
77 79 23
77 79 23
92 91 20
83 83 20
83 84 25
89 88 24
100 98 27
95 95 24
86 86 35
100 99 35
103 102 33
93 92 20
107 104 35
110 108 37
112 109 29
108 106 34
113 111 37
122 119 43
123 119 42
125 121 37
119 116 40
128 125 37
120 116 46
127 123 39
132 128 47
128 125 51
125 122 47
137 132 43
137 133 48
130 128 45
133 128 47
130 125 45
132 129 48
148 142 57
134 130 35
142 137 52
143 138 50
137 133 51
141 137 50
151 145 66
137 132 47
142 138 48
141 136 51
150 144 56
143 139 45
149 144 57
150 144 54
148 144 51
149 144 54
149 143 56
151 145 63
159 153 61
154 147 57
154 148 60
150 146 50
155 149 57
152 146 56
150 145 52
155 149 58
150 145 58
155 150 57
155 149 62
152 147 54
158 152 61
149 144 58
150 144 58
158 152 60
166 158 68
152 147 52
152 147 56
154 150 48
156 150 56
153 146 60
149 145 45
153 147 53
153 147 57
162 154 65
144 140 51
150 144 60
158 152 65
156 150 63
158 152 61
159 152 69
155 147 63
151 146 54
144 138 45
156 149 68
159 151 67
156 149 64
155 150 61
148 142 53
151 146 58
148 144 48
159 152 65
152 146 61
158 152 63
154 148 61
146 139 57
153 147 63
155 148 67
152 145 62
153 147 56
142 137 57
146 142 53
153 147 62
152 146 62
149 143 61
155 149 61
151 144 66
149 142 59
160 153 66
150 144 62
158 152 65
149 143 61
142 138 57
153 147 59
151 145 62
145 140 57
150 143 63
153 147 68
148 142 59
146 141 60
151 143 64
147 143 58
161 153 75
147 141 54
145 140 54
151 146 61
149 143 63
152 147 61
146 140 65
159 178 85
166 184 109
164 183 104
163 182 97
158 179 75
162 180 79
161 181 94
158 179 72
165 183 112
160 179 79
159 178 75
160 179 88
161 180 82
161 179 85
158 178 56
159 178 79
161 180 88
161 179 88
161 180 72
157 177 75
156 176 64
157 177 75
157 176 60
156 176 56
159 178 56
157 176 60
155 175 51
155 175 56
155 176 45
155 176 22
158 178 60
151 172 22
156 177 51
156 177 51
153 173 32
154 175 22
152 174 22
152 173 0
152 173 0
154 174 0
151 172 0
151 172 0
150 170 0
152 173 0
149 169 0
149 170 0
151 171 0
152 172 0
151 172 0
151 171 0
149 170 0
150 169 0
152 173 0
154 174 0
144 166 0
149 171 0
151 171 0
150 171 0
151 171 0
152 172 0
149 170 0
150 170 0
149 169 0
143 164 0
152 172 0
148 168 0
146 165 0
150 171 0
154 174 0
148 168 0
149 168 0
148 169 0
142 163 0
152 172 0
151 171 0
150 170 0
145 166 0
144 165 0
148 168 0
144 163 0
144 165 0
145 164 0
143 163 0
140 159 0
146 167 0
142 163 0
143 162 0
130 150 0
145 166 0
145 165 0
146 166 0
136 155 0
139 159 0
139 158 0
138 157 0
144 163 0
136 156 0
140 159 0
136 156 0
132 152 0
141 161 0
132 151 0
133 151 0
126 145 0
130 148 0
132 151 0
129 148 0
125 144 0
123 142 0
132 150 0
120 138 0
115 133 0
133 151 0
118 134 0
102 117 22
105 122 27
98 116 22
103 119 27
101 118 38
101 116 14
95 112 22
94 111 35
81 98 37
85 101 39
84 101 38
85 101 17
85 102 38
78 92 27
67 84 14
94 109 16
87 102 38
95 109 22
85 100 16
87 102 14
81 97 22
91 108 16
103 120 0
104 121 16
116 135 21
124 141 48
124 141 51
120 137 45
140 158 60
171 195 0
170 194 0
174 198 0
172 195 0
172 195 0
172 195 0
170 194 0
172 194 0
171 195 0
171 195 0
157 179 26
51 79 70
47 75 81
52 83 106
53 84 106
56 88 124
51 81 86
51 81 99
52 82 94
54 85 108
55 86 113
56 88 110
54 85 113
55 87 111
56 88 102
56 88 110
55 86 110
57 90 116
57 90 110
54 86 110
58 91 116
55 88 114
57 91 111
57 90 115
56 89 105
56 89 108
55 87 111
53 85 100
58 92 127
54 86 90
56 88 107
57 90 107
58 91 119
56 88 119
56 89 109
54 85 103
58 91 126
58 90 114
58 91 122
58 91 121
56 89 113
57 90 111
56 88 111
57 90 122
58 91 128
56 88 105
58 91 126
59 93 128
57 90 118
56 88 104
55 87 105
57 90 113
57 90 124
57 91 120
55 88 103
58 91 121
58 92 126
56 88 111
56 89 120
56 89 120
56 89 114
57 90 113
56 89 115
59 92 120
57 89 110
56 88 113
57 89 112
57 88 115
58 91 124
54 85 106
56 87 111
56 88 113
55 88 108
55 85 100
55 87 109
55 86 113
57 89 104
56 87 116
56 87 108
54 84 108
54 84 106
54 84 103
53 83 100
53 83 96
52 81 93
54 83 104
53 82 102
56 87 107
49 77 79
50 78 94
52 80 91
45 71 80
57 79 70
157 179 28
168 191 0
170 194 0
173 195 0
171 193 0
172 195 0
173 196 0
171 194 0
171 194 0
174 196 0
174 196 0
113 120 27
98 95 28
73 72 20
87 85 16
80 78 16
75 75 19
63 63 18
77 78 16
86 84 18
86 82 16
83 82 14
68 69 15
79 80 20
73 75 21
80 80 16
97 94 32
88 87 25
87 88 31
90 89 24
95 95 21
96 94 26
106 103 33
104 103 26
106 106 32
101 99 30
105 105 29
112 109 34
101 100 35
108 106 35
118 115 37
114 110 38
123 120 40
119 115 23
113 111 36
126 124 51
128 124 42
125 122 39
126 124 42
119 117 43
126 123 37
132 128 42
128 126 54
133 128 42
142 138 47
126 124 36
128 124 42
132 127 53
143 138 53
138 134 53
150 144 60
150 144 54
145 139 46
140 135 48
148 144 45
140 135 40
152 146 57
142 138 45
143 138 47
148 142 58
148 143 49
147 142 50
151 145 61
145 140 53
145 140 60
141 136 50
155 149 63
151 146 57
142 138 41
158 152 64
154 148 60
156 150 60
150 143 54
154 149 59
153 147 59
149 143 49
154 148 61
155 149 61
156 151 57
153 148 56
156 150 59
153 147 59
152 147 57
156 150 60
155 148 56
152 146 61
155 149 62
157 152 64
154 148 57
152 145 54
154 148 49
149 143 51
152 147 53
156 148 64
152 146 59
151 146 52
155 149 62
155 149 67
147 141 58
148 142 60
156 151 61
161 154 64
155 149 60
153 147 61
155 150 52
155 149 59
152 147 56
156 150 65
149 143 52
151 144 57
153 147 68
154 147 60
154 146 66
159 152 68
151 145 61
152 146 59
156 149 66
152 146 59
154 146 60
145 139 56
153 147 64
153 145 63
149 142 65
152 146 64
157 150 69
147 142 54
158 151 74
142 137 51
148 142 62
143 137 57
144 138 59
147 142 64
149 143 63
152 145 58
151 145 61
142 137 51
154 147 63
147 142 63
153 145 69
153 147 66
147 141 57
156 148 70
148 142 64
151 145 60
156 176 72
160 179 85
158 178 75
159 177 82
162 181 97
163 181 85
159 179 64
161 180 82
160 180 79
158 178 60
155 175 56
161 181 88
159 179 79
157 177 64
158 177 64
155 175 60
155 176 60
157 178 60
156 176 68
156 176 64
155 175 51
154 174 45
156 176 45
154 175 51
153 173 32
153 174 32
154 174 39
153 174 22
154 175 32
154 174 39
153 174 22
153 174 22
153 174 22
153 174 0
152 173 0
152 173 0
148 169 0
149 170 0
153 173 0
151 172 0
150 170 0
154 175 0
152 172 0
152 173 0
153 173 0
149 170 0
154 175 0
152 174 0
152 172 0
150 170 0
150 171 0
150 170 0
148 169 0
146 166 0
154 173 0
150 170 0
150 171 0
149 169 0
147 168 0
148 168 0
149 169 0
150 172 0
150 169 0
152 172 0
147 168 0
147 168 0
147 166 0
148 168 0
150 170 0
149 169 0
146 166 0
148 168 0
147 167 0
145 164 0
142 163 0
145 166 0
147 167 0
144 165 0
146 167 0
143 163 0
143 164 0
140 160 0
145 165 0
144 165 0
144 165 0
139 160 0
145 165 0
146 164 0
145 166 0
143 164 0
139 159 0
145 165 0
140 160 0
140 160 0
136 155 0
143 163 0
141 160 0
135 154 0
140 160 0
133 153 0
135 153 0
134 153 0
127 145 0
134 153 0
131 150 0
126 143 0
126 144 0
130 149 0
124 142 0
125 144 0
128 145 0
115 132 0
118 134 0
113 129 0
115 132 16
115 132 0
109 125 16
114 131 0
107 124 0
101 118 22
101 118 21
97 114 38
83 99 22
93 108 22
98 113 22
95 111 22
88 104 40
86 101 26
86 102 28
84 101 28
83 98 34
84 101 34
91 107 16
97 113 21
95 111 28
102 118 20
110 126 14
118 136 16
116 134 0
121 139 39
119 135 56
127 142 79
161 183 22
172 196 0
172 195 0
172 196 0
171 195 0
168 192 0
169 192 0
168 193 0
173 196 0
173 196 0
172 195 0
167 191 0
111 134 66
49 78 90
51 80 86
50 80 88
51 82 83
53 83 103
54 85 104
51 81 98
51 81 95
54 85 104
55 87 120
53 84 104
56 88 111
55 88 109
57 89 110
57 90 119
54 85 100
55 88 115
55 88 93
56 89 97
55 86 110
54 87 97
56 89 109
57 89 115
55 88 109
56 88 108
57 89 114
57 89 115
57 89 109
57 90 125
57 91 112
55 87 104
55 88 113
57 90 122
58 91 115
57 90 115
56 89 125
58 92 126
57 89 115
56 89 112
58 91 115
57 91 114
56 89 113
58 91 120
57 90 110
59 93 128
56 89 105
57 89 110
56 89 105
58 92 121
56 89 102
56 88 108
56 89 110
60 93 126
58 92 118
58 91 124
55 87 108
55 87 110
56 88 111
55 87 99
58 91 121
57 90 105
56 89 108
57 90 115
55 86 104
56 88 107
56 88 118
54 85 96
54 86 95
57 90 114
55 86 104
54 86 112
56 87 110
53 84 85
56 88 118
55 85 102
53 84 94
54 85 103
52 82 97
54 83 102
54 84 102
53 83 99
53 82 106
54 84 103
53 82 91
51 78 95
50 76 91
51 80 95
48 75 79
48 76 84
49 76 78
98 117 49
172 195 0
169 192 0
168 191 0
168 191 0
169 192 0
173 196 0
168 189 0
170 193 0
171 194 0
173 196 0
173 196 0
162 182 0
91 90 31
83 82 18
77 74 28
73 72 21
64 64 14
71 70 14
77 77 11
85 85 16
81 82 20
71 72 17
84 83 16
72 73 16
83 83 13
83 83 20
85 84 24
94 93 12
91 92 22
93 91 23
108 107 18
98 99 18
96 93 24
107 105 26
104 103 29
102 102 29
113 111 34
110 107 37
110 108 30
117 114 35
109 106 24
111 110 41
108 107 29
126 123 41
112 109 36
111 107 29
126 122 42
126 123 41
132 129 42
137 133 45
124 121 34
134 130 47
137 132 52
125 121 38
137 133 45
132 129 51
129 125 40
139 134 52
135 130 44
135 131 41
146 140 50
141 137 51
138 135 40
143 139 46
143 138 54
139 134 53
149 143 54
143 138 45
144 139 51
146 140 51
145 140 49
155 148 61
133 130 39
157 151 58
144 138 44
142 138 41
150 144 57
147 141 52
144 140 43
149 143 55
150 144 50
141 135 44
152 146 52
155 148 63
152 146 49
159 152 64
148 143 56
146 140 57
150 144 49
148 143 49
154 149 59
160 152 61
157 150 60
150 144 53
154 148 60
154 148 57
153 147 53
157 151 60
155 148 59
152 147 54
150 144 57
152 147 49
156 150 56
158 151 68
154 148 57
148 142 53
147 142 57
154 149 58
158 152 63
156 149 60
153 147 61
147 142 57
154 148 60
153 147 62
155 149 62
157 151 62
155 149 67
156 149 63
148 142 53
159 152 61
150 145 48
158 152 63
156 150 69
156 148 64
149 144 61
153 148 51
154 147 58
147 143 58
155 149 67
148 142 57
152 145 59
148 142 53
155 148 61
149 143 59
152 144 64
147 140 64
151 145 58
148 141 54
154 148 58
148 143 59
161 152 74
148 141 60
151 145 63
147 140 60
150 143 62
145 140 56
149 144 57
141 136 53
150 144 59
149 143 59
152 147 68
151 144 63
146 140 62
147 141 62
160 179 85
158 178 68
157 178 72
160 179 82
157 177 60
161 179 88
161 180 85
159 179 79
153 173 51
159 179 72
154 174 51
157 177 72
157 176 75
158 178 72
156 177 51
156 176 64
155 175 56
155 176 39
156 176 45
156 176 64
156 176 60
157 177 39
155 175 51
156 177 32
151 172 39
157 177 39
151 171 22
152 173 22
153 174 0
152 172 22
151 171 0
152 173 0
149 170 0
153 173 0
151 172 0
151 172 0
152 172 0
151 171 0
152 172 0
151 171 0
150 171 0
151 172 0
152 173 0
153 173 0
150 170 0
153 173 0
151 172 0
148 169 0
152 172 0
150 171 0
150 171 0
150 171 0
151 172 0
149 170 0
147 167 0
148 168 0
148 168 0
149 169 0
147 167 0
147 167 0
150 170 0
148 168 0
147 167 0
147 167 0
151 170 0
147 168 0
147 166 0
145 165 0
148 168 0
148 168 0
151 171 0
150 170 0
149 170 0
142 161 0
148 167 0
143 163 0
144 164 0
143 164 0
142 162 0
144 163 0
145 164 0
144 164 0
143 164 0
142 162 0
142 163 0
141 161 0
140 160 0
143 164 0
138 158 0
138 157 0
144 164 0
139 158 0
137 156 0
140 159 0
139 158 0
138 156 0
135 155 0
139 159 0
136 157 0
131 150 0
134 152 0
134 154 0
129 148 0
134 154 0
124 143 0
121 140 0
126 146 0
121 138 0
125 143 0
122 140 0
126 143 0
119 137 0
121 139 0
111 127 0
110 127 0
112 127 0
107 125 22
112 130 0
103 119 16
105 122 0
95 111 22
106 122 36
85 100 22
96 112 28
91 107 22
96 110 28
85 100 16
98 113 14
86 101 16
96 112 0
87 101 0
84 99 9
91 107 16
100 115 16
97 113 14
117 134 0
121 138 16
119 136 0
124 142 22
120 135 60
123 139 72
142 160 56
169 193 0
170 194 0
173 197 0
172 195 0
171 194 0
171 194 0
169 194 0
171 195 0
172 195 0
169 193 0
166 191 0
167 191 0
153 176 28
52 80 74
50 80 80
53 84 97
48 77 68
51 81 88
49 79 82
52 83 98
54 86 105
53 84 93
54 86 103
53 84 99
55 87 98
55 86 101
55 87 109
56 88 112
55 88 114
54 86 101
57 90 109
55 88 105
55 87 108
56 88 119
54 86 99
53 85 103
54 86 100
58 91 120
55 88 111
56 88 111
58 92 121
56 88 108
57 90 110
57 91 124
56 89 106
56 88 111
55 88 106
53 84 93
56 89 117
58 91 117
55 88 105
57 90 119
56 88 105
57 90 117
55 88 107
58 91 120
57 90 114
54 86 100
56 89 114
58 92 121
57 90 110
56 89 105
58 91 117
57 89 118
56 88 111
58 91 116
57 90 120
57 89 118
56 89 113
56 89 107
56 89 108
57 90 111
56 88 113
58 90 116
57 89 114
58 91 116
56 89 113
58 91 120
58 90 117
55 87 99
56 89 108
56 88 118
56 89 113
54 84 88
56 88 103
56 88 108
56 88 110
55 86 108
54 84 101
57 88 112
56 86 115
53 83 90
53 83 105
52 81 95
54 84 95
52 82 85
52 82 89
52 80 103
52 81 93
51 78 86
51 78 88
45 70 67
53 76 74
159 182 26
169 191 0
167 189 0
170 193 0
170 192 0
170 193 0
171 193 0
174 196 0
169 190 0
169 192 0
169 192 0
170 193 0
169 192 0
134 142 28
89 85 26
83 80 25
89 86 23
74 72 19
72 71 14
76 75 16
82 82 18
78 77 14
81 78 18
83 80 12
83 82 22
84 83 18
86 85 16
93 93 24
86 86 22
101 100 26
84 85 24
99 98 26
95 93 31
106 105 28
102 101 28
102 101 19
110 108 26
105 103 24
103 102 23
110 109 26
107 104 30
116 112 34
113 110 38
127 123 44
121 118 35
128 124 43
120 118 41
127 124 40
125 122 42
130 127 43
114 112 26
128 122 37
135 131 45
126 121 38
128 123 42
138 133 49
135 129 45
127 123 47
143 139 39
144 138 55
138 133 37
130 128 36
145 139 48
136 131 43
138 134 44
144 138 53
133 128 36
133 129 48
138 133 46
145 140 49
144 139 53
150 146 51
146 141 42
153 147 55
152 146 51
143 139 48
149 144 54
145 139 48
154 147 63
152 146 55
146 140 42
147 141 49
148 142 44
148 142 51
150 143 52
152 147 57
153 148 58
148 143 47
152 146 47
156 150 54
152 145 52
156 150 58
148 143 48
152 145 58
149 143 56
155 149 52
157 151 62
155 148 58
155 149 52
156 150 60
158 152 63
146 139 49
160 152 64
152 146 53
151 145 57
154 147 59
153 147 59
155 149 62
148 143 42
150 145 52
159 151 62
156 149 67
152 147 58
148 143 47
157 150 60
148 143 53
153 146 60
163 156 66
146 141 65
150 144 62
143 137 49
157 151 62
151 144 58
157 151 65
152 145 62
153 146 65
149 142 59
158 152 66
158 151 66
150 144 57
147 141 61
158 151 67
154 149 59
147 141 61
148 142 59
145 141 56
160 153 69
147 141 59
150 144 58
155 148 65
149 142 54
150 144 59
147 142 59
146 141 58
146 141 59
143 136 57
150 144 58
149 142 67
147 140 61
146 139 56
145 139 57
152 145 67
145 140 61
146 140 63
154 147 64
161 180 88
160 179 79
157 177 72
160 179 75
159 178 72
152 171 64
158 178 68
157 177 56
162 180 85
155 175 60
156 175 79
157 177 68
158 178 68
157 177 56
154 174 56
155 176 68
155 175 45
154 175 45
155 175 22
154 174 22
154 174 22
153 173 39
152 173 22
154 175 22
155 175 0
153 174 22
151 172 0
153 174 0
154 175 0
149 169 0
150 172 0
155 175 0
154 175 0
149 170 0
150 170 0
152 172 0
150 171 0
150 171 0
150 171 0
152 172 0
153 174 0
147 168 0
148 169 0
150 171 0
151 172 0
150 169 0
150 171 0
148 169 0
152 172 0
150 172 0
150 170 0
148 169 0
149 170 0
151 171 0
147 167 0
151 172 0
148 169 0
149 169 0
150 171 0
150 171 0
146 167 0
150 171 0
152 173 0
152 171 0
151 171 0
147 167 0
148 168 0
151 172 0
145 166 0
149 170 0
147 168 0
144 164 0
149 169 0
147 168 0
148 168 0
150 169 0
144 166 0
145 165 0
144 165 0
140 160 0
142 161 0
149 170 0
143 163 0
145 164 0
137 156 0
142 161 0
140 159 0
143 164 0
141 161 0
143 162 0
140 160 0
144 164 0
134 154 0
138 157 0
137 157 0
134 154 0
140 160 0
135 155 0
134 154 0
130 149 0
132 150 0
134 153 0
127 146 0
120 139 0
124 142 0
132 150 0
126 145 0
123 140 0
119 138 0
123 141 0
117 135 0
119 136 0
120 138 0
107 123 0
112 129 0
115 132 0
110 127 0
109 125 0
94 112 16
110 126 22
104 120 16
103 118 16
96 112 16
88 104 27
95 109 27
94 110 22
107 123 19
89 104 14
90 106 0
88 103 22
88 104 14
100 116 21
98 113 0
107 125 22
108 125 14
119 136 16
118 136 0
124 141 0
117 134 0
126 142 51
127 144 56
168 192 22
170 193 0
170 194 0
169 192 0
171 194 0
170 193 0
169 193 0
168 191 0
168 190 0
167 191 0
167 191 0
168 191 0
169 193 0
165 188 0
122 144 47
47 75 75
49 78 70
50 80 86
51 81 101
51 81 95
52 83 84
55 87 112
55 87 107
53 84 100
54 86 84
53 85 105
56 89 114
56 88 113
53 84 92
55 87 103
55 88 110
54 86 105
56 89 105
56 88 103
55 87 105
56 89 111
56 89 116
56 89 111
56 87 101
56 88 105
56 88 111
55 87 107
56 89 114
56 88 108
55 87 108
55 87 106
58 92 121
55 88 107
58 91 118
56 89 105
54 86 109
57 91 117
57 90 118
55 87 108
58 91 129
58 91 113
56 89 107
56 89 108
56 89 110
56 89 110
56 89 117
58 91 115
57 90 109
56 89 97
59 92 125
56 88 115
55 87 108
56 88 108
57 90 118
55 87 107
56 89 103
56 89 102
57 89 118
58 91 122
55 87 107
55 86 98
56 88 111
55 87 101
57 90 118
54 84 104
57 89 111
54 86 103
55 87 104
55 86 104
56 88 103
55 86 107
53 83 98
52 82 96
54 86 113
52 81 98
53 84 94
53 84 95
54 85 97
54 83 104
52 81 91
54 84 93
50 78 91
53 82 93
52 81 93
51 79 91
49 75 86
49 75 80
49 75 84
116 136 51
167 190 0
170 193 0
170 193 0
168 189 0
166 188 0
166 189 0
169 193 0
166 187 0
166 188 0
166 189 0
166 189 0
166 188 0
169 190 0
160 182 11
103 104 32
98 92 32
90 86 17
74 72 23
87 86 22
76 76 2
74 73 19
78 78 11
71 69 12
78 77 14
76 75 9
85 84 17
94 93 18
95 91 18
88 87 15
88 86 16
93 91 29
82 81 23
99 98 28
103 101 19
109 107 28
99 99 28
115 112 27
113 109 33
115 111 34
111 108 33
106 105 28
115 112 29
120 117 32
128 125 42
114 112 33
113 111 32
113 109 37
121 116 37
125 122 30
126 122 39
117 115 29
122 119 31
136 131 47
129 126 42
125 122 37
124 121 36
126 123 34
135 132 40
135 130 45
134 129 43
144 138 55
139 135 48
143 138 55
147 141 44
145 139 51
133 129 39
142 137 47
146 141 54
137 133 43
142 138 48
146 140 49
148 143 47
139 134 47
145 140 45
149 145 51
144 139 48
146 140 52
149 144 56
149 144 49
146 140 52
145 140 49
144 138 44
146 140 48
150 144 44
151 144 58
143 138 46
154 147 59
153 147 52
150 145 51
153 147 51
156 148 58
153 147 56
146 140 54
148 144 42
153 147 59
151 146 53
155 149 59
155 148 63
159 152 64
150 143 56
154 149 52
151 146 57
152 146 57
152 146 52
150 144 52
153 146 60
162 155 60
155 148 57
155 149 60
153 147 60
146 140 53
150 144 53
154 149 60
152 145 60
152 146 56
155 148 57
151 145 61
157 150 62
142 136 52
149 142 51
151 145 59
158 151 65
157 151 62
152 146 60
145 139 60
157 150 67
141 136 52
149 142 57
144 138 58
153 147 61
153 147 60
150 143 54
152 146 65
156 150 60
147 140 53
148 141 57
150 143 62
151 145 53
149 144 51
152 146 62
148 143 60
151 144 62
146 140 59
151 144 64
154 147 67
146 140 61
145 139 63
148 140 65
146 140 59
150 144 64
146 141 58
147 140 57
142 136 52
149 143 58
140 134 62
159 178 82
158 178 68
157 177 72
159 179 68
155 175 60
159 178 68
154 174 45
155 175 51
158 178 56
157 176 60
155 176 45
157 178 68
156 177 45
156 176 60
155 175 32
150 171 0
152 173 45
156 176 45
154 174 0
154 175 22
155 175 0
151 172 0
153 175 0
152 173 0
152 173 0
149 170 0
154 175 0
153 174 0
153 174 0
151 172 0
151 172 0
151 171 0
153 173 0
151 172 0
149 170 0
151 172 0
152 173 0
152 173 0
149 170 0
151 171 0
152 172 0
150 170 0
150 171 0
149 170 0
152 173 0
149 169 0
148 168 0
149 170 0
153 172 0
150 170 0
151 171 0
149 169 0
151 171 0
150 169 0
147 168 0
148 169 0
147 168 0
152 172 0
152 172 0
145 165 0
149 169 0
147 167 0
146 166 0
149 169 0
151 171 0
149 169 0
147 167 0
150 170 0
147 167 0
146 167 0
142 162 0
140 160 0
149 169 0
142 163 0
144 165 0
146 166 0
142 162 0
146 167 0
143 164 0
144 163 0
142 162 0
144 165 0
145 164 0
143 162 0
142 162 0
141 161 0
139 159 0
140 159 0
137 157 0
138 157 0
142 162 0
135 155 0
134 153 0
132 151 0
139 158 0
139 158 0
136 156 0
131 150 0
130 149 0
133 152 0
128 148 0
133 151 0
133 152 0
130 147 0
130 149 0
130 148 0
122 141 0
116 134 0
126 143 0
125 143 0
118 136 0
117 136 0
113 131 0
122 139 0
116 132 0
115 132 0
111 128 0
106 122 0
109 125 0
102 119 0
100 116 22
96 113 0
97 113 16
87 102 28
92 107 27
102 117 27
97 113 0
84 99 0
100 115 0
97 112 16
90 106 16
105 120 0
101 116 16
107 123 21
123 140 0
122 139 0
115 132 0
119 136 0
120 137 32
113 128 60
157 178 39
169 192 0
169 193 0
165 189 0
169 192 0
169 192 0
168 191 0
169 192 0
169 193 0
166 190 0
170 193 0
166 189 0
167 191 0
169 192 0
167 190 0
164 187 0
70 93 63
48 78 84
52 83 103
51 81 99
53 83 100
52 83 95
51 81 89
52 82 95
53 84 102
53 84 100
53 84 107
52 83 97
54 85 112
53 84 108
55 87 104
55 87 109
56 88 111
55 88 105
55 88 105
55 87 95
54 85 98
56 89 115
56 88 115
57 90 123
57 89 117
56 89 117
57 90 105
56 88 104
56 89 115
57 90 106
57 90 111
56 89 105
54 86 98
58 91 121
54 85 97
58 91 118
55 87 105
56 88 95
55 87 107
56 88 114
57 89 114
57 90 114
55 87 99
57 89 107
59 92 117
56 88 114
56 88 107
58 90 107
58 91 123
56 87 104
57 90 105
55 87 92
54 86 108
55 87 100
56 88 107
56 88 108
56 88 103
56 87 108
56 88 105
56 89 107
58 91 120
54 86 104
53 83 99
53 84 103
53 84 94
54 85 101
54 86 102
56 88 108
55 86 97
55 87 108
54 85 103
55 86 111
54 85 99
56 89 118
54 85 103
55 86 105
53 83 98
51 80 99
53 82 92
52 82 104
52 81 100
51 79 85
52 81 91
48 76 70
52 80 86
48 76 79
48 74 80
73 93 68
167 189 25
169 192 0
166 188 0
161 183 0
171 193 0
169 190 0
169 191 0
168 189 0
166 187 0
166 189 0
164 186 0
172 194 0
170 192 0
171 193 0
171 194 0
149 168 0
78 76 25
88 83 28
100 96 29
80 78 16
81 79 11
85 81 23
84 81 14
89 87 9
75 74 20
82 81 16
76 76 10
85 83 11
87 85 14
81 82 12
90 88 18
104 101 21
88 88 23
94 92 24
98 95 14
111 108 19
98 97 25
103 100 19
102 101 28
107 104 30
111 108 34
103 99 28
109 106 29
115 111 33
112 109 35
119 117 30
114 112 30
127 123 37
119 116 39
122 118 42
123 119 35
125 122 34
115 110 24
121 118 29
132 128 37
135 130 34
125 121 38
136 131 44
135 131 42
139 133 37
131 126 49
129 125 39
139 132 38
143 137 49
138 133 45
135 129 44
135 131 42
138 134 41
133 129 36
136 132 42
139 134 47
151 144 54
146 141 45
133 130 43
142 136 51
149 142 45
147 141 51
151 146 53
141 136 49
141 135 45
147 141 42
149 143 52
148 142 48
145 140 45
147 142 47
146 140 59
146 142 39
152 145 57
140 135 44
158 152 60
156 149 60
155 149 53
144 140 49
152 146 49
157 151 58
154 148 57
158 151 58
159 152 62
158 151 62
152 144 53
162 156 68
158 151 62
152 147 49
158 151 63
158 152 59
153 147 59
151 145 57
150 143 52
144 138 48
150 144 42
157 150 65
145 140 54
156 150 61
153 146 47
149 144 51
151 145 56
150 143 53
159 153 65
148 142 54
152 146 60
151 146 49
146 141 52
143 137 49
144 138 53
148 141 48
154 149 58
151 146 56
150 145 54
154 147 57
152 144 70
154 147 62
155 146 63
158 151 69
144 138 56
147 142 51
148 142 62
147 142 51
151 146 52
147 141 60
150 144 52
148 141 59
152 146 59
156 149 67
144 136 61
146 141 57
144 137 56
143 138 57
143 138 54
145 140 60
144 139 59
149 143 67
144 137 58
146 140 60
147 140 64
150 144 67
146 139 60
158 178 72
158 177 72
157 177 68
156 175 64
158 177 68
155 174 51
157 176 68
157 177 68
157 177 56
156 175 51
155 175 56
154 175 51
155 175 32
153 174 32
153 174 0
155 175 45
154 175 0
151 172 0
151 171 0
153 173 0
154 175 0
153 173 0
152 172 0
152 173 0
151 172 0
152 173 0
151 172 0
150 170 0
151 172 0
150 170 0
150 171 0
151 171 0
151 172 0
154 175 0
152 172 0
151 171 0
151 172 0
152 172 0
147 167 0
152 173 0
151 171 0
153 173 0
151 172 0
148 168 0
150 171 0
150 171 0
151 171 0
147 168 0
149 170 0
150 170 0
149 170 0
149 169 0
149 170 0
150 171 0
148 169 0
151 172 0
149 170 0
144 165 0
154 174 0
145 166 0
144 166 0
147 168 0
147 166 0
150 170 0
146 166 0
149 170 0
152 172 0
141 161 0
147 168 0
146 166 0
146 165 0
142 163 0
142 162 0
140 159 0
143 163 0
141 162 0
138 158 0
145 166 0
140 160 0
144 163 0
143 162 0
143 163 0
142 161 0
143 162 0
138 158 0
144 164 0
140 160 0
135 154 0
136 155 0
136 156 0
134 153 0
138 158 0
134 153 0
133 153 0
131 150 0
142 162 0
135 154 0
128 147 0
132 150 0
130 150 0
124 143 0
126 145 0
128 146 0
126 145 0
123 141 0
125 144 0
121 138 0
128 146 0
121 138 0
130 148 0
113 131 0
122 140 0
112 129 0
116 132 0
112 129 0
104 121 0
123 141 0
111 128 0
109 125 0
107 123 0
101 116 0
96 112 0
104 119 0
106 121 16
96 111 0
104 120 0
90 105 0
98 112 0
103 118 0
92 108 16
98 114 14
98 113 0
118 134 0
114 130 0
115 132 0
111 128 0
122 139 0
114 131 0
117 132 39
139 159 39
165 189 0
163 187 0
169 193 0
166 189 0
163 186 0
169 193 0
165 188 0
168 191 0
167 191 0
167 191 0
166 190 0
164 187 0
166 189 0
164 188 0
168 191 0
165 188 0
134 157 37
47 74 64
47 75 82
48 77 82
51 80 97
52 83 97
54 86 91
53 83 103
53 84 101
52 83 98
54 84 104
53 84 104
56 89 108
53 84 105
54 85 99
55 86 113
56 88 109
54 85 99
56 88 111
55 88 106
55 87 112
54 86 103
54 86 102
55 87 107
57 91 113
56 88 105
58 91 118
56 89 113
54 86 103
55 88 107
57 90 115
56 88 113
56 89 111
55 88 99
56 89 105
56 88 107
56 89 100
55 88 103
58 91 113
55 88 99
56 88 102
55 86 105
57 90 110
54 86 100
57 90 108
55 87 99
55 87 103
56 87 110
56 89 110
58 92 117
56 89 111
57 90 120
54 85 110
55 87 101
57 89 107
55 87 100
55 88 107
56 89 105
54 86 107
54 85 102
53 84 108
56 88 108
56 88 104
54 86 97
55 86 107
53 85 97
54 84 106
58 90 116
54 85 97
52 81 96
55 86 102
54 85 96
53 84 105
55 86 109
57 88 110
54 85 101
53 83 101
52 81 98
52 82 86
48 75 76
50 79 92
52 81 92
48 75 72
52 80 91
50 78 93
46 71 63
49 76 85
139 160 42
166 189 0
166 187 0
164 186 0
165 187 0
165 187 0
168 188 0
164 186 0
164 187 0
167 189 0
165 188 0
164 187 0
166 188 0
168 188 0
164 186 0
165 186 0
171 193 0
150 165 22
85 83 26
99 94 32
83 82 21
79 77 16
80 78 16
82 80 18
77 74 18
80 79 8
90 88 14
80 79 16
72 72 18
90 87 19
76 76 12
84 82 20
90 89 16
93 91 19
84 82 22
106 104 21
97 94 16
99 96 27
110 107 25
110 107 31
100 98 30
110 107 26
110 107 37
109 107 24
116 112 31
119 114 25
102 101 33
115 111 40
114 110 35
123 120 32
127 124 45
122 118 37
117 114 35
123 120 40
119 116 35
120 118 32
123 120 38
120 117 30
119 113 34
127 123 37
142 137 44
135 131 36
133 129 41
127 122 30
142 137 39
140 134 34
138 133 44
142 137 44
138 134 48
141 134 47
140 136 45
140 135 42
144 138 45
138 133 41
139 133 46
143 137 44
146 141 36
145 140 48
149 144 49
143 138 48
154 147 50
147 141 49
150 144 51
150 145 48
155 148 56
145 140 47
149 143 52
149 143 48
149 144 48
144 138 52
151 146 45
151 146 53
158 150 64
144 139 44
149 143 45
148 143 41
146 141 54
143 139 42
149 144 51
148 143 51
144 140 37
150 143 53
151 144 49
147 141 48
146 140 53
147 142 52
157 152 56
153 146 54
146 140 52
150 145 56
145 139 48
151 144 58
153 147 56
152 145 61
156 149 59
149 143 54
150 144 58
148 143 52
152 146 53
156 150 59
148 143 45
150 144 51
147 140 52
147 141 54
151 143 62
155 149 58
149 143 59
150 143 53
142 136 53
148 141 53
151 144 58
150 144 52
154 147 56
147 140 57
158 153 63
145 137 56
144 139 51
148 142 54
148 142 53
140 133 56
151 144 63
149 143 62
141 136 51
147 142 56
153 146 59
148 142 58
153 146 62
143 138 52
148 144 45
152 145 62
152 145 65
144 140 54
146 140 60
154 147 57
153 148 59
148 142 53
139 133 60
156 176 56
157 177 64
158 177 79
154 174 51
159 179 68
155 174 64
157 177 56
156 177 64
156 177 39
156 176 39
156 175 39
155 175 39
154 175 22
151 171 22
152 173 0
152 173 0
152 173 0
152 173 0
151 172 0
152 173 0
154 174 0
153 174 0
152 173 0
149 169 0
154 174 0
152 172 0
152 172 0
152 173 0
152 173 0
151 171 0
152 173 0
152 172 0
150 171 0
152 173 0
149 169 0
151 172 0
150 171 0
151 171 0
150 170 0
149 170 0
151 171 0
148 168 0
149 169 0
148 169 0
149 170 0
154 175 0
149 169 0
151 171 0
149 169 0
152 173 0
150 171 0
150 170 0
148 169 0
147 168 0
150 170 0
148 167 0
147 168 0
152 172 0
150 170 0
143 164 0
146 166 0
146 167 0
146 166 0
144 164 0
150 170 0
150 171 0
143 163 0
144 165 0
149 170 0
142 162 0
148 167 0
140 159 0
146 165 0
145 164 0
144 164 0
141 161 0
142 162 0
140 159 0
138 158 0
143 162 0
139 160 0
149 168 0
142 161 0
137 158 0
134 154 0
141 162 0
142 162 0
140 159 0
137 156 0
139 159 0
139 158 0
138 157 0
140 158 0
132 152 0
136 155 0
135 154 0
132 152 0
129 148 0
134 153 0
134 154 0
129 148 0
134 153 0
132 151 0
125 144 0
129 147 0
127 146 0
122 139 0
124 141 0
118 136 0
117 134 0
118 135 0
116 132 0
113 129 0
112 130 0
116 133 0
118 136 0
109 126 0
108 125 0
97 112 0
110 126 0
92 107 0
110 125 0
102 117 0
103 118 0
105 120 0
99 113 0
98 113 0
98 113 16
105 121 16
113 130 0
100 116 0
105 120 0
117 134 0
114 130 0
113 130 0
118 134 0
120 138 0
115 131 32
125 141 39
170 192 0
168 191 0
169 193 0
165 188 0
166 189 0
157 181 0
167 190 0
164 188 0
169 192 0
168 191 0
168 191 0
168 191 0
163 186 0
162 185 0
159 183 0
164 187 0
164 187 0
164 187 0
102 124 68
46 75 67
49 77 75
50 80 95
51 81 78
49 78 96
52 83 94
50 80 76
50 80 80
54 85 107
52 82 91
52 83 86
56 88 110
54 86 97
53 84 94
54 86 96
56 89 108
55 87 99
53 84 100
56 87 100
53 85 95
56 89 102
55 87 105
55 88 97
53 85 99
57 90 111
56 88 106
57 89 118
57 90 114
58 91 114
57 89 107
56 88 107
56 88 111
55 88 113
57 91 114
54 86 92
57 89 113
54 86 108
56 88 108
55 87 107
56 88 108
56 88 110
53 85 92
57 90 117
57 89 107
55 88 110
56 88 117
54 85 103
57 90 120
57 89 107
57 90 117
55 87 102
55 88 111
57 90 108
56 88 111
55 88 107
57 89 110
53 84 90
56 88 103
56 88 92
54 85 96
54 86 104
55 87 105
57 89 110
55 87 102
52 81 96
52 82 92
52 82 99
55 86 98
55 87 105
56 87 107
55 85 107
55 86 106
54 84 101
53 84 101
51 79 91
54 84 96
50 78 87
53 82 105
49 77 85
50 78 92
50 78 74
49 76 89
49 75 74
45 70 65
111 132 47
163 186 0
166 188 0
165 186 0
167 189 0
166 188 0
163 183 0
169 192 0
166 187 0
169 190 0
164 187 0
164 186 0
163 183 0
168 188 0
166 188 0
160 182 0
165 187 0
171 193 0
163 186 0
126 127 34
81 78 28
85 82 28
82 78 29
88 83 16
78 76 17
82 80 25
76 73 14
90 86 14
73 72 8
87 86 19
90 88 8
86 85 8
81 80 9
95 93 16
90 88 8
94 92 9
85 84 10
87 86 18
104 101 16
99 96 16
106 103 18
98 94 26
103 101 25
108 107 21
107 105 30
97 97 25
126 121 38
120 117 34
110 107 31
118 117 26
108 106 28
118 115 34
120 118 28
120 117 36
120 116 25
124 118 33
121 117 37
127 124 33
134 131 41
133 130 29
127 122 37
134 129 40
136 132 45
137 130 38
135 130 36
132 126 38
138 132 37
136 133 37
138 133 34
138 132 45
132 128 37
140 135 37
138 133 43
148 141 52
149 142 50
141 136 41
141 136 37
144 137 49
146 140 40
143 138 45
142 135 44
143 137 37
146 141 51
145 140 45
143 137 45
147 141 47
150 144 51
145 139 46
148 143 45
140 134 36
150 144 54
149 142 52
143 137 45
141 137 47
157 149 59
146 141 47
152 145 52
147 142 48
152 145 58
154 147 53
151 144 52
149 143 52
150 143 54
152 147 51
147 142 47
151 144 54
155 148 57
141 135 42
149 144 48
145 139 44
148 142 49
149 142 51
148 142 47
151 146 59
145 140 51
150 143 56
151 146 56
141 134 41
155 149 57
147 141 52
151 145 54
150 144 64
150 144 54
147 142 47
147 140 54
157 150 53
155 149 57
157 150 62
150 144 52
153 148 56
152 146 59
144 138 49
151 144 58
146 140 51
142 136 56
147 141 53
155 150 64
145 140 54
144 138 53
145 141 51
147 142 62
148 141 58
150 144 56
144 138 57
150 144 63
142 137 48
146 140 60
144 138 53
150 144 60
142 137 57
149 142 59
149 143 58
148 142 52
157 149 70
143 138 52
140 135 56
141 135 52
145 140 52
153 173 39
159 179 68
156 176 51
154 174 51
153 173 45
156 176 39
158 177 51
154 175 22
153 173 22
155 176 32
153 174 0
150 170 0
154 174 0
154 174 0
152 172 0
152 173 0
151 171 0
151 172 0
153 175 0
151 172 0
155 175 0
152 172 0
154 174 0
151 172 0
152 173 0
152 173 0
151 171 0
153 174 0
151 171 0
153 174 0
150 170 0
151 172 0
152 173 0
151 171 0
149 170 0
153 173 0
152 173 0
151 171 0
151 172 0
151 172 0
151 172 0
150 170 0
150 170 0
149 168 0
151 171 0
149 170 0
152 173 0
148 168 0
146 167 0
149 169 0
147 169 0
145 165 0
144 164 0
145 165 0
147 167 0
145 166 0
148 167 0
147 167 0
144 165 0
148 168 0
145 165 0
146 166 0
148 168 0
144 164 0
148 169 0
141 160 0
146 166 0
146 167 0
147 167 0
144 164 0
139 159 0
145 166 0
143 163 0
145 165 0
141 160 0
143 163 0
142 163 0
148 167 0
143 163 0
139 158 0
139 158 0
136 156 0
140 160 0
143 163 0
138 158 0
136 154 0
141 161 0
138 157 0
133 151 0
138 157 0
133 151 0
132 151 0
135 154 0
137 156 0
138 157 0
132 151 0
125 144 0
132 151 0
132 150 0
131 151 0
129 148 0
122 140 0
133 152 0
122 140 0
120 137 0
124 142 0
120 138 0
126 144 0
121 138 0
119 136 0
114 131 0
116 133 0
113 130 0
118 136 0
108 125 0
119 136 0
110 126 0
103 120 0
103 120 0
108 123 0
104 121 0
102 117 0
106 122 0
105 119 0
111 126 0
101 117 0
106 121 0
106 122 0
105 120 0
109 124 0
110 126 0
110 127 0
103 119 0
114 131 0
116 132 0
119 135 0
112 128 0
118 133 51
168 190 22
166 189 0
169 193 0
162 186 0
166 189 0
168 191 0
166 190 0
170 193 0
167 190 0
166 189 0
164 188 0
157 179 0
162 185 0
159 183 0
162 185 0
166 189 0
163 186 0
155 179 0
162 184 0
155 178 16
76 100 69
47 75 71
50 80 80
52 82 89
51 82 84
51 81 95
51 82 84
54 85 95
52 83 96
55 86 107
52 83 93
54 85 103
53 85 86
53 84 90
55 86 108
54 86 106
55 86 109
56 88 93
55 88 112
55 88 105
54 86 105
53 84 90
55 87 109
55 86 106
56 89 120
54 87 100
57 89 107
56 88 114
56 87 107
55 87 110
56 88 105
56 88 108
55 87 103
54 86 97
55 88 99
54 86 100
55 87 94
53 84 90
55 87 103
55 88 111
55 87 107
53 85 102
55 87 113
55 87 108
57 91 108
55 86 107
56 88 105
55 87 102
55 87 100
55 87 100
58 91 113
55 87 100
54 85 94
55 88 99
55 87 105
59 92 126
56 88 102
54 85 103
56 89 117
55 87 111
56 88 108
56 88 97
54 85 101
55 87 108
54 86 103
53 83 101
53 83 103
54 85 103
52 82 86
53 83 101
50 79 92
52 81 99
52 82 90
53 83 94
52 80 84
51 81 98
51 80 92
55 86 102
51 79 95
51 79 80
49 76 82
48 74 86
47 73 65
74 95 71
160 182 25
163 185 0
157 178 0
165 187 0
165 187 0
165 186 0
162 183 0
161 181 0
165 186 0
161 182 0
166 188 0
166 188 0
167 187 0
163 184 0
165 188 0
165 187 0
165 186 0
161 182 0
165 186 0
154 174 0
99 98 24
82 80 22
74 71 21
97 92 21
88 85 28
71 70 20
90 88 16
81 79 11
69 68 14
85 85 11
87 86 15
94 90 18
86 86 14
86 83 21
82 81 8
98 95 22
90 87 21
97 94 12
100 98 8
98 95 18
117 114 19
103 100 24
101 98 20
111 108 31
107 103 27
108 104 21
107 104 24
122 117 35
121 115 33
117 116 31
114 112 32
114 111 33
106 104 19
122 118 30
122 119 35
118 114 25
128 124 35
123 118 35
123 119 28
122 119 32
129 126 37
129 125 43
125 121 42
126 122 32
132 127 42
132 128 42
136 130 37
139 134 34
140 135 39
134 128 44
141 136 35
138 134 35
138 133 37
140 134 41
137 132 36
139 133 41
133 129 34
143 137 42
144 139 46
135 129 50
148 142 42
143 136 47
140 136 34
150 144 56
143 136 47
143 137 42
147 142 45
143 136 45
140 135 42
147 141 47
151 146 41
146 140 50
149 144 47
146 141 44
142 138 37
137 134 39
146 142 47
145 140 41
152 145 48
146 141 51
150 145 45
152 147 42
154 148 49
149 143 48
151 145 54
145 139 49
145 141 45
147 141 42
153 147 56
146 141 45
143 137 52
152 146 53
150 144 52
145 139 51
144 138 49
141 136 39
146 139 54
152 147 57
152 147 57
146 139 47
151 145 57
158 150 67
149 143 48
142 137 52
151 145 60
144 138 51
155 149 60
151 145 64
142 137 44
143 137 48
151 144 63
148 142 51
151 145 57
149 143 54
153 148 53
141 136 51
145 140 60
152 145 61
143 137 53
134 129 42
147 140 61
149 144 59
151 144 61
139 133 51
139 133 53
143 138 54
152 145 53
148 142 59
143 136 52
146 140 51
141 136 52
141 135 51
141 135 44
147 140 59
152 145 63
145 140 58
147 141 57
149 143 54
157 177 56
153 173 45
157 177 45
156 177 39
154 174 39
156 176 32
155 176 22
154 175 22
152 172 0
153 173 0
153 174 0
153 174 0
153 173 0
153 173 0
153 173 0
152 173 0
153 173 0
154 175 0
153 173 0
154 174 0
152 173 0
150 171 0
152 173 0
153 174 0
152 172 0
152 173 0
149 169 0
150 171 0
150 171 0
151 170 0
149 169 0
149 170 0
153 172 0
149 169 0
148 168 0
150 170 0
148 168 0
149 169 0
150 171 0
147 168 0
147 167 0
152 172 0
150 170 0
150 171 0
147 168 0
150 170 0
150 171 0
148 169 0
149 170 0
149 170 0
150 169 0
150 170 0
148 168 0
143 164 0
143 163 0
147 168 0
143 164 0
146 166 0
150 170 0
146 166 0
148 168 0
148 169 0
145 165 0
147 167 0
146 166 0
141 161 0
143 163 0
143 162 0
148 168 0
142 162 0
146 165 0
140 160 0
143 163 0
143 163 0
142 161 0
145 164 0
141 160 0
134 153 0
137 155 0
138 158 0
141 161 0
140 159 0
141 161 0
142 162 0
139 158 0
138 157 0
142 162 0
140 159 0
140 158 0
140 159 0
134 153 0
135 154 0
134 154 0
135 153 0
133 152 0
130 148 0
124 143 0
131 150 0
127 147 0
132 151 0
131 149 0
122 141 0
133 151 0
123 142 0
124 143 0
126 144 0
121 139 0
122 139 0
125 142 0
120 138 0
117 135 0
124 141 0
115 134 0
118 135 0
120 137 0
102 118 0
115 131 0
124 141 0
105 121 0
100 114 0
108 125 0
114 129 0
98 112 0
101 116 0
102 116 0
112 128 0
95 110 0
103 118 0
102 118 0
103 119 0
107 125 0
112 128 0
124 141 0
109 125 0
119 134 0
104 120 0
100 114 0
155 175 22
164 186 0
168 191 0
167 191 0
167 190 0
161 184 0
161 184 0
164 187 0
167 190 0
164 186 0
161 184 0
158 181 0
159 183 0
166 188 0
160 183 0
166 190 0
161 185 0
164 187 0
162 186 0
159 183 0
158 180 0
146 168 40
49 77 77
49 78 79
50 79 82
48 76 90
51 80 88
51 82 96
52 83 87
51 81 82
48 77 78
54 86 94
53 83 89
56 89 107
55 87 103
56 88 108
51 80 86
53 83 105
54 85 95
50 80 84
52 83 88
52 83 91
54 85 89
55 87 93
53 85 105
56 88 108
55 87 105
53 85 92
54 85 103
56 88 103
55 88 109
55 88 103
53 84 102
56 89 103
55 87 92
54 85 94
57 90 110
56 89 102
53 84 97
56 89 113
54 86 95
56 88 97
56 88 95
55 87 107
57 89 105
56 89 90
57 90 118
56 88 97
55 86 99
56 89 114
56 88 108
54 86 100
54 86 102
56 88 102
55 87 103
54 85 102
54 85 100
53 84 101
54 86 102
55 86 102
55 86 101
57 90 110
53 85 88
53 83 92
54 85 105
52 83 92
55 86 92
52 81 90
53 83 87
53 83 94
55 86 93
55 85 106
52 81 87
53 83 99
53 83 102
51 79 75
52 80 82
51 80 93
52 82 81
53 82 101
50 79 84
49 76 83
49 76 65
49 72 70
135 157 45
161 182 0
160 182 0
163 186 0
163 185 0
161 182 0
157 177 0
166 189 0
166 185 0
165 185 0
158 177 0
165 185 0
163 182 0
163 185 0
160 180 0
162 182 0
159 180 0
159 180 0
165 186 0
165 185 0
163 182 0
157 175 11
97 97 29
87 83 12
83 79 26
87 84 19
71 68 8
90 86 16
76 73 14
87 84 16
69 69 8
96 94 16
93 91 12
87 85 3
94 91 9
96 92 11
94 90 18
85 85 8
91 90 16
98 94 16
101 98 14
99 97 20
104 102 8
108 104 24
103 98 29
110 108 20
105 103 18
107 105 18
118 115 29
115 112 22
109 107 21
119 116 21
117 114 31
125 121 28
119 115 26
114 111 25
109 106 31
115 112 26
116 111 31
136 131 34
114 111 25
133 128 40
138 133 43
127 123 19
125 120 37
126 121 40
129 124 42
137 132 36
135 131 41
136 132 38
131 127 41
138 132 40
136 131 36
138 133 37
136 131 33
137 132 41
141 136 41
133 128 35
139 134 44
135 130 42
144 136 51
144 139 44
140 134 37
139 133 44
150 144 51
145 140 49
133 130 41
137 133 34
147 142 48
147 140 51
140 134 42
143 137 41
143 137 44
152 146 51
142 136 45
147 143 41
142 137 42
138 133 39
143 137 44
150 144 45
146 142 42
149 143 49
150 144 54
141 136 44
138 133 30
148 142 52
140 135 47
138 132 42
151 145 51
151 144 56
148 142 52
135 130 37
141 136 41
150 144 53
151 146 47
154 148 61
146 140 45
147 141 48
141 136 45
156 150 57
143 136 47
143 137 48
144 138 45
147 141 52
154 147 62
146 141 49
154 147 61
148 141 58
152 147 63
148 143 56
148 142 52
150 144 54
149 143 56
147 140 56
148 141 64
149 142 54
141 136 57
150 144 62
145 139 48
146 140 57
151 144 67
150 143 61
143 138 47
150 144 58
148 142 56
152 145 60
147 141 53
143 137 59
150 144 60
142 135 53
142 137 54
148 141 59
149 142 59
145 138 54
137 132 51
137 132 52
146 141 59
147 141 58
143 137 60
154 175 22
156 176 56
154 173 51
154 174 0
152 173 22
153 174 32
154 175 0
152 172 0
154 174 0
150 171 0
153 174 0
151 172 0
154 174 0
151 172 0
153 173 0
153 172 0
152 173 0
151 171 0
153 173 0
152 172 0
151 172 0
152 172 0
149 169 0
150 170 0
152 172 0
153 173 0
151 172 0
152 172 0
150 171 0
152 171 0
148 169 0
151 171 0
153 173 0
152 172 0
148 168 0
149 169 0
152 172 0
152 172 0
148 169 0
151 171 0
151 171 0
151 172 0
147 167 0
149 170 0
147 167 0
147 168 0
150 171 0
147 167 0
151 171 0
146 167 0
147 168 0
151 171 0
146 166 0
147 168 0
149 168 0
144 164 0
150 171 0
148 168 0
144 164 0
145 165 0
147 166 0
141 161 0
146 167 0
146 165 0
147 167 0
150 170 0
142 162 0
144 164 0
147 167 0
144 164 0
142 163 0
143 163 0
147 167 0
145 165 0
141 161 0
142 161 0
136 155 0
145 165 0
142 161 0
141 160 0
141 159 0
140 160 0
136 156 0
134 153 0
144 163 0
143 163 0
137 156 0
136 157 0
132 151 0
135 155 0
136 155 0
133 152 0
131 149 0
139 158 0
137 155 0
136 154 0
131 150 0
127 145 0
136 155 0
125 144 0
127 145 0
132 150 0
127 147 0
135 154 0
123 143 0
124 141 0
128 145 0
125 142 0
123 140 0
119 137 0
113 129 0
120 137 0
119 136 0
113 131 0
112 128 0
114 132 0
121 137 0
112 128 0
102 119 0
100 116 0
110 125 0
104 120 0
106 121 0
100 115 0
100 116 0
110 125 0
110 126 0
106 122 0
107 123 0
110 126 0
124 140 0
123 139 0
112 128 0
112 128 0
109 125 0
119 135 32
147 167 22
165 187 0
167 190 0
169 192 0
164 186 0
163 186 0
161 183 0
162 185 0
164 187 0
166 189 0
161 184 0
162 184 0
163 186 0
161 184 0
161 184 0
158 181 0
164 186 0
158 180 0
161 184 0
159 182 0
152 175 0
155 178 0
155 176 0
121 143 31
48 76 69
49 78 86
51 80 86
48 78 71
50 79 87
50 80 87
52 82 82
52 82 83
51 82 90
53 84 88
54 85 104
54 85 98
51 82 92
55 87 105
53 84 86
52 83 84
56 89 110
55 86 101
51 81 90
56 88 110
55 87 100
56 88 107
53 84 97
55 87 111
52 83 100
55 87 110
54 85 94
57 89 117
53 84 99
55 88 107
54 86 100
56 89 97
57 89 108
56 88 108
56 89 110
54 85 92
54 87 92
55 87 105
55 87 102
56 88 102
56 88 108
56 89 105
54 85 94
54 85 100
57 89 117
57 89 110
54 85 99
56 88 108
53 84 107
56 89 118
54 85 95
54 85 100
54 85 99
55 86 108
55 88 99
53 83 102
53 83 85
55 87 100
52 83 100
54 86 89
50 78 87
54 86 102
54 85 108
54 85 105
55 87 105
53 82 90
52 81 87
55 86 90
54 84 96
53 82 97
51 80 85
54 84 90
53 81 96
50 78 77
52 81 99
50 78 87
50 78 77
46 72 76
49 77 78
44 68 66
138 158 40
157 178 0
161 182 0
160 181 0
160 180 0
158 179 0
160 180 0
150 170 0
161 182 0
160 179 0
158 178 0
159 179 0
159 178 0
166 186 0
159 180 0
156 176 0
165 185 0
162 182 0
159 180 0
166 187 0
156 176 0
161 181 0
163 184 0
140 154 19
89 84 28
93 88 25
76 74 21
83 78 25
81 79 11
86 84 19
92 88 18
78 76 8
88 86 15
87 85 16
84 81 14
95 93 16
77 77 8
90 85 5
107 102 16
94 91 12
84 82 17
88 87 11
103 100 20
98 96 14
95 92 11
107 103 21
109 106 28
106 104 24
107 103 29
108 104 14
110 106 20
106 104 28
113 110 29
109 106 23
125 120 29
116 113 25
125 120 25
132 127 37
128 124 33
130 126 41
120 116 30
127 123 33
120 118 27
127 123 25
121 115 34
135 129 27
137 133 33
133 127 19
124 119 33
140 134 45
127 121 28
133 128 39
137 131 41
123 120 34
145 140 44
141 134 42
128 124 29
133 128 33
139 135 34
146 141 48
140 135 34
141 134 37
133 128 37
136 131 41
137 132 37
143 137 48
137 132 42
139 134 45
144 138 44
142 136 47
142 137 44
143 136 44
141 135 45
140 136 51
146 140 49
144 139 42
149 143 47
137 132 36
149 142 49
144 139 44
146 139 51
142 136 36
148 142 39
149 142 47
144 139 44
149 143 52
151 145 47
149 143 48
147 140 49
144 138 51
145 140 52
152 146 56
150 145 57
149 143 48
148 141 48
142 137 48
146 141 48
154 147 66
142 137 44
149 143 54
149 144 48
152 144 52
151 145 54
142 136 51
152 146 59
146 141 47
149 143 49
148 142 48
137 133 41
145 139 47
150 144 52
147 142 47
148 143 52
150 143 56
147 140 54
150 144 48
150 144 59
151 145 54
140 134 52
144 138 53
144 139 52
140 135 52
142 135 48
151 144 59
149 144 54
146 140 54
149 143 56
141 135 47
149 144 56
152 145 60
142 138 45
142 136 57
148 142 57
139 132 48
146 140 54
147 140 49
138 132 47
134 127 51
148 142 59
144 137 60
156 176 51
150 170 0
153 174 0
151 173 0
153 174 0
151 172 0
152 173 0
151 171 0
153 173 0
153 174 0
151 171 0
151 172 0
152 173 0
152 172 0
153 172 0
150 171 0
152 172 0
149 170 0
153 173 0
151 172 0
152 172 0
150 171 0
153 174 0
150 169 0
152 172 0
153 174 0
148 169 0
153 174 0
149 171 0
152 172 0
152 173 0
151 171 0
151 171 0
150 170 0
149 169 0
146 167 0
152 172 0
152 172 0
151 171 0
150 170 0
146 167 0
150 169 0
150 170 0
150 170 0
146 166 0
149 169 0
148 167 0
148 169 0
147 167 0
148 169 0
148 168 0
145 166 0
147 167 0
142 162 0
143 163 0
149 169 0
143 164 0
146 165 0
148 168 0
142 161 0
145 166 0
144 164 0
144 165 0
145 164 0
146 166 0
142 162 0
142 161 0
142 162 0
145 165 0
143 162 0
142 162 0
141 160 0
142 162 0
138 158 0
139 158 0
141 160 0
137 157 0
148 168 0
143 163 0
141 161 0
142 162 0
139 158 0
137 155 0
138 158 0
131 150 0
141 160 0
133 153 0
138 157 0
134 152 0
136 155 0
133 151 0
131 151 0
133 151 0
138 157 0
133 151 0
130 149 0
129 148 0
129 147 0
132 150 0
125 144 0
121 139 0
125 144 0
133 153 0
125 142 0
125 143 0
124 142 0
132 150 0
122 139 0
114 132 0
124 141 0
117 133 0
121 139 0
115 131 0
115 132 0
108 124 0
110 126 0
113 129 0
106 122 0
114 130 0
103 118 0
110 125 0
109 125 0
99 114 0
103 118 0
103 118 0
101 117 0
105 120 0
110 127 0
110 126 0
117 133 0
115 131 0
102 118 0
109 124 0
107 122 0
107 123 0
136 154 22
168 190 0
162 184 0
164 187 0
162 185 0
160 182 0
157 180 0
161 184 0
162 184 0
157 180 0
159 181 0
159 182 0
155 178 0
161 183 0
159 181 0
156 179 0
156 179 0
159 181 0
152 174 0
159 181 0
153 175 0
156 178 0
161 184 0
158 180 0
148 171 0
101 122 46
48 76 63
48 77 89
51 80 98
49 78 84
50 80 80
52 83 84
52 82 90
50 80 85
50 80 88
52 83 97
53 84 84
52 83 93
52 83 97
54 85 95
54 85 101
53 84 97
54 85 111
53 84 100
54 85 97
56 88 109
55 87 103
54 86 86
56 88 108
55 87 110
57 90 109
53 85 86
54 86 99
52 83 90
55 87 98
53 85 90
55 87 99
57 89 114
52 83 90
52 83 90
54 86 111
55 87 103
56 88 115
56 88 111
55 87 102
53 84 93
55 87 105
54 85 96
56 87 100
53 84 86
55 88 95
55 86 107
54 85 95
56 88 102
54 85 102
53 84 100
54 85 107
54 86 92
55 87 102
51 81 90
55 87 102
53 85 101
51 81 94
53 83 99
51 81 87
54 85 95
55 86 92
53 83 97
55 86 89
53 83 92
52 82 96
50 80 90
53 83 93
52 82 99
51 80 93
50 79 82
53 83 89
51 80 89
51 80 77
48 76 76
49 77 78
47 74 66
46 72 78
47 72 65
115 136 48
154 174 0
154 176 0
155 176 0
144 164 0
152 172 0
151 173 0
153 171 0
158 179 0
159 177 0
160 181 0
153 170 0
155 174 0
159 180 0
149 169 0
157 179 0
151 171 0
164 184 0
161 182 0
161 178 0
159 179 0
161 180 0
160 180 0
156 177 0
158 178 0
128 139 19
88 84 22
94 88 30
102 95 19
76 74 2
86 82 16
87 82 8
80 78 8
78 77 0
75 74 8
86 84 0
83 82 14
100 94 0
99 96 11
91 90 0
91 87 8
90 87 8
102 98 0
98 97 14
102 99 25
109 106 24
102 100 16
109 104 25
103 100 14
94 91 14
108 102 11
106 103 18
98 96 25
119 115 24
112 108 29
105 103 14
109 107 16
123 118 30
110 107 25
118 114 26
125 120 28
122 118 21
121 117 22
122 118 32
120 116 19
119 118 14
128 123 29
127 123 31
125 120 25
130 124 28
131 126 37
135 129 25
125 121 33
134 129 34
135 129 36
138 133 36
138 133 42
139 133 39
133 128 33
140 135 39
137 131 45
143 137 42
140 134 34
139 134 44
134 129 39
133 129 37
145 138 44
147 141 49
149 143 42
144 137 45
149 143 45
143 139 41
143 137 37
145 140 51
141 136 30
139 134 36
140 135 34
148 141 51
146 141 37
147 142 47
145 140 47
141 136 42
135 131 37
143 138 44
151 143 49
145 139 56
145 139 48
144 139 47
150 142 56
153 146 48
148 141 53
153 147 51
141 134 48
147 140 48
152 146 56
145 138 51
140 135 47
151 144 54
151 145 58
158 150 60
145 139 52
148 141 54
149 143 59
147 142 52
147 141 44
144 139 41
135 130 36
154 148 51
144 138 53
149 141 52
139 135 44
150 143 58
149 143 56
146 141 51
139 134 44
146 139 51
150 144 51
149 143 52
152 146 48
145 139 48
146 140 54
144 137 52
145 138 54
143 138 56
145 139 51
143 136 48
144 140 49
141 136 53
141 135 56
154 148 66
143 139 48
146 140 54
136 130 54
142 135 57
141 135 57
144 138 53
139 133 52
146 139 53
142 136 51
141 134 61
142 136 58
153 173 39
151 173 0
155 175 0
153 173 0
152 173 0
150 171 0
152 172 0
151 171 0
150 170 0
153 173 0
151 172 0
152 173 0
152 172 0
151 172 0
152 172 0
153 173 0
152 172 0
151 171 0
151 170 0
150 170 0
151 171 0
153 173 0
148 168 0
151 172 0
149 169 0
152 174 0
153 173 0
148 168 0
151 171 0
149 169 0
147 167 0
150 170 0
151 170 0
150 170 0
149 168 0
149 169 0
151 171 0
150 171 0
149 169 0
150 170 0
151 172 0
148 168 0
147 167 0
148 169 0
146 166 0
148 168 0
149 169 0
151 171 0
143 163 0
148 168 0
142 162 0
146 167 0
149 169 0
147 167 0
147 167 0
145 164 0
147 167 0
148 168 0
145 165 0
145 165 0
145 165 0
145 165 0
144 164 0
141 161 0
139 158 0
145 164 0
141 161 0
149 167 0
141 161 0
145 164 0
141 161 0
141 160 0
134 154 0
144 164 0
141 161 0
137 157 0
137 157 0
144 164 0
136 155 0
138 157 0
143 162 0
139 160 0
137 156 0
144 163 0
137 156 0
136 156 0
135 155 0
136 155 0
142 161 0
134 152 0
132 150 0
139 157 0
128 147 0
131 149 0
132 150 0
137 154 0
129 148 0
130 149 0
130 149 0
132 150 0
133 150 0
122 140 0
129 148 0
120 137 0
130 147 0
124 142 0
129 147 0
128 145 0
113 130 0
113 131 0
116 133 0
120 136 0
119 137 0
121 137 0
106 122 0
119 135 0
115 131 0
110 125 0
112 129 0
106 122 0
111 128 0
109 125 0
101 116 0
98 113 0
102 117 0
110 126 0
113 129 0
111 126 0
105 120 0
102 117 0
112 128 0
104 119 0
102 116 0
103 117 0
133 152 0
162 185 0
156 178 0
158 180 0
159 181 0
163 185 0
159 182 0
164 186 0
157 180 0
153 175 0
157 180 0
154 176 0
155 178 0
164 186 0
155 176 0
158 180 0
160 182 0
151 174 0
153 175 0
153 175 0
160 183 0
158 179 0
154 175 0
154 176 0
147 170 0
152 175 0
143 166 0
79 101 61
48 76 82
52 82 92
48 76 84
49 79 92
49 79 77
51 81 90
52 82 96
50 80 86
52 83 88
53 84 100
54 85 98
53 83 87
54 86 95
53 83 97
53 85 97
52 82 100
52 83 93
53 84 84
52 83 101
55 88 99
55 88 103
54 86 95
55 86 106
56 88 110
54 86 106
56 87 111
53 84 86
53 84 84
54 86 102
49 78 76
54 86 110
54 86 105
55 87 95
53 85 100
56 88 102
53 84 99
55 87 110
54 85 102
52 83 95
55 87 94
54 85 97
54 86 111
53 84 94
53 84 94
55 86 103
54 86 95
56 88 103
55 86 92
54 86 95
55 86 105
52 83 95
53 83 95
51 81 87
55 86 99
55 86 106
53 83 94
54 85 105
55 86 105
54 86 102
52 83 91
52 82 86
55 86 101
52 81 95
51 80 87
52 81 86
50 79 89
52 82 99
52 82 97
50 78 67
52 81 97
51 80 82
52 82 97
50 77 81
51 80 73
50 76 92
47 73 63
88 108 57
144 164 0
151 168 0
149 171 0
147 164 0
152 172 0
160 178 0
155 174 0
159 178 0
161 180 0
152 172 0
152 172 0
154 173 0
154 174 0
157 176 0
154 174 0
159 180 0
158 177 0
155 173 0
156 175 0
157 175 0
165 184 0
155 172 0
163 183 0
155 173 0
165 185 0
164 184 0
125 132 30
89 84 26
82 80 14
86 83 23
89 86 19
79 77 3
81 77 14
85 80 18
81 80 0
94 92 14
97 94 5
90 87 8
95 91 11
87 84 12
89 87 14
86 82 0
99 96 11
100 96 0
103 100 14
104 101 18
103 99 8
101 99 16
112 108 21
104 100 18
108 104 11
113 109 22
110 106 25
103 100 16
118 113 28
107 104 21
110 106 14
110 106 16
126 122 34
112 108 18
112 107 19
129 124 37
125 120 35
130 125 28
124 120 27
126 122 28
123 119 26
120 115 34
126 121 30
120 118 25
139 134 35
130 125 31
127 121 30
132 126 42
129 124 34
137 131 41
135 130 35
127 123 30
136 131 30
142 135 38
134 128 41
127 124 22
132 127 34
132 126 39
143 137 39
138 133 39
123 118 22
141 136 44
147 141 51
132 127 39
139 133 39
139 133 36
141 136 39
145 140 41
142 137 39
140 133 49
147 139 45
143 137 48
134 129 34
145 140 44
149 144 45
139 133 45
145 138 45
145 139 45
147 141 45
147 140 51
145 139 45
147 141 47
145 139 49
136 131 39
141 136 47
151 145 47
151 144 49
145 139 45
153 145 56
145 140 48
141 136 39
143 137 47
147 141 48
146 140 49
147 141 45
147 140 53
138 133 45
139 134 45
144 139 48
149 144 45
148 142 49
150 144 57
141 137 39
142 138 34
141 135 47
142 135 49
141 136 45
138 134 42
144 138 49
141 135 39
135 129 44
144 137 44
147 139 54
143 138 47
143 137 48
146 140 59
143 138 52
145 138 54
143 136 45
144 138 53
141 136 49
140 135 49
145 138 49
143 138 49
142 136 53
149 141 53
139 133 49
143 138 47
139 133 48
137 131 51
136 129 45
143 137 48
133 129 45
139 133 53
144 138 56
156 176 0
151 171 0
152 171 0
152 173 0
152 172 0
153 174 0
153 174 0
151 171 0
149 170 0
150 170 0
152 173 0
149 171 0
150 170 0
148 169 0
153 173 0
151 171 0
151 171 0
150 171 0
155 175 0
151 171 0
152 172 0
149 169 0
148 168 0
149 170 0
152 170 0
149 171 0
150 171 0
147 168 0
150 171 0
149 170 0
151 172 0
148 170 0
149 169 0
150 171 0
150 170 0
149 169 0
152 172 0
149 169 0
151 171 0
147 166 0
149 169 0
146 165 0
148 168 0
145 166 0
149 168 0
148 168 0
148 168 0
146 166 0
142 162 0
147 167 0
144 164 0
147 166 0
147 165 0
143 164 0
145 166 0
144 163 0
150 170 0
146 166 0
139 157 0
147 167 0
146 166 0
146 165 0
143 162 0
143 161 0
145 165 0
146 166 0
140 161 0
143 162 0
143 162 0
144 162 0
139 158 0
140 159 0
144 163 0
143 163 0
136 155 0
144 165 0
140 159 0
140 159 0
140 158 0
139 158 0
134 152 0
139 158 0
139 158 0
135 154 0
136 154 0
130 149 0
129 148 0
136 154 0
132 151 0
132 150 0
126 144 0
137 155 0
128 147 0
131 150 0
131 149 0
137 155 0
134 153 0
133 151 0
132 151 0
131 149 0
121 139 0
123 141 0
127 144 0
128 145 0
123 140 0
126 144 0
118 135 0
130 148 0
117 135 0
122 138 0
122 139 0
111 129 0
121 138 0
113 129 0
123 140 0
121 137 0
118 134 0
106 122 0
110 127 0
102 118 0
107 122 0
98 113 0
112 128 0
111 127 0
101 117 0
100 115 0
113 129 0
110 125 0
99 114 0
110 124 0
109 124 0
100 114 0
99 113 0
137 153 22
161 183 0
158 180 0
160 182 0
161 183 0
160 182 0
154 176 0
151 172 0
157 179 0
152 174 0
151 173 0
158 179 0
154 176 0
154 176 0
150 171 0
158 181 0
155 177 0
152 175 0
155 178 0
156 178 0
153 174 0
157 179 0
143 165 0
155 177 0
146 168 0
143 165 0
152 174 0
144 166 0
143 164 18
69 92 62
47 74 77
46 74 70
47 76 73
51 80 91
53 84 95
51 81 84
48 77 66
51 81 74
48 77 80
50 80 82
54 85 90
53 84 92
50 79 105
53 84 93
54 84 102
49 79 76
51 81 90
53 84 90
54 86 100
53 84 99
54 84 88
56 89 109
54 85 102
54 85 107
54 86 105
55 86 110
53 84 100
54 86 97
54 86 86
53 84 92
56 88 107
53 84 92
53 83 92
53 84 86
55 86 103
54 86 88
56 88 114
54 86 100
52 83 82
58 90 110
53 84 99
55 87 110
52 83 101
54 85 97
54 86 89
57 89 117
55 86 99
53 84 82
53 83 88
52 82 92
55 88 102
52 83 84
54 85 100
52 82 86
54 84 102
54 85 84
51 81 86
53 84 93
55 86 100
54 84 101
52 83 83
50 79 77
49 78 86
52 81 92
52 83 97
52 82 94
51 80 80
53 83 102
48 75 75
51 79 91
51 80 98
45 70 64
50 79 86
46 71 63
81 101 57
148 170 31
146 166 0
146 165 0
147 166 0
156 173 0
149 168 0
150 168 0
144 163 0
154 174 0
155 175 0
157 176 0
153 172 0
156 175 0
156 175 0
146 164 0
158 177 0
157 175 0
150 167 0
157 175 0
155 172 0
158 177 0
154 172 0
152 169 0
159 179 0
159 177 0
160 177 0
159 179 0
158 177 0
118 128 0
94 89 19
95 90 22
98 94 29
86 83 19
84 81 16
85 82 11
91 88 19
75 74 11
88 84 0
99 95 16
89 86 21
91 88 8
94 92 8
88 86 8
93 90 8
102 99 16
105 102 16
111 107 3
100 97 8
107 103 16
102 99 12
109 105 19
103 99 19
104 100 0
113 110 25
111 105 18
109 107 14
122 117 26
116 113 21
116 113 21
116 111 22
115 110 22
113 110 24
118 115 26
120 118 16
128 123 22
119 115 16
112 107 21
124 119 22
125 122 36
127 123 19
135 130 33
135 130 27
134 129 28
130 125 29
129 123 32
127 122 29
131 127 25
135 130 36
134 129 36
131 126 32
143 136 37
135 131 25
139 133 41
138 133 37
138 131 37
138 132 33
133 128 30
143 138 44
140 135 34
138 133 32
139 135 30
139 134 39
138 133 37
138 131 39
140 134 41
143 136 39
143 138 41
140 134 44
139 132 37
142 135 47
143 138 39
137 130 39
144 138 41
141 136 41
138 133 42
143 137 44
143 138 37
150 144 39
138 134 41
140 135 36
145 140 47
145 139 39
152 145 52
150 144 48
148 142 49
148 141 51
146 140 41
148 142 51
143 137 42
139 133 36
143 137 52
143 137 45
135 129 47
136 129 45
140 134 39
148 142 51
137 131 41
144 138 45
146 140 44
149 143 59
142 137 45
147 141 54
155 148 61
140 134 47
142 136 48
140 134 45
143 138 45
138 132 48
145 138 57
147 140 48
143 138 47
140 134 52
148 142 58
148 142 52
146 141 53
150 142 60
146 139 56
150 143 53
146 139 59
140 135 44
140 134 52
137 131 42
138 133 47
130 124 45
141 136 45
153 146 67
148 142 56
139 133 48
141 136 58
138 133 48
139 133 54
132 126 47
154 174 0
153 173 0
153 173 0
153 173 0
152 172 0
155 174 0
153 174 0
153 174 0
153 174 0
153 173 0
153 173 0
152 173 0
150 171 0
150 171 0
153 174 0
147 167 0
153 173 0
150 170 0
153 173 0
152 172 0
149 168 0
149 169 0
149 170 0
153 173 0
151 172 0
151 171 0
149 170 0
144 165 0
149 169 0
147 169 0
149 170 0
148 169 0
147 167 0
150 171 0
148 168 0
146 167 0
152 173 0
148 169 0
148 167 0
145 166 0
146 166 0
149 169 0
146 166 0
147 167 0
149 171 0
146 165 0
147 166 0
150 170 0
146 167 0
144 164 0
146 165 0
146 166 0
141 161 0
145 165 0
146 165 0
142 161 0
146 165 0
144 164 0
146 165 0
138 157 0
143 161 0
145 164 0
142 161 0
148 169 0
144 163 0
141 160 0
143 163 0
142 161 0
140 159 0
144 163 0
144 162 0
140 159 0
140 159 0
140 158 0
144 164 0
142 162 0
141 161 0
138 157 0
139 158 0
137 156 0
141 160 0
131 149 0
126 144 0
131 150 0
135 154 0
138 157 0
134 152 0
136 155 0
133 153 0
135 153 0
137 155 0
135 153 0
128 146 0
135 154 0
132 150 0
134 152 0
133 151 0
122 141 0
127 145 0
125 142 0
129 146 0
120 137 0
126 143 0
124 143 0
130 148 0
129 148 0
113 129 0
118 135 0
122 138 0
122 138 0
122 139 0
120 136 0
112 128 0
108 124 0
114 130 0
110 127 0
113 129 0
120 136 0
114 130 0
111 128 0
107 122 0
115 131 0
107 122 0
108 124 0
104 119 0
105 121 0
110 124 0
110 124 0
105 119 0
114 129 0
101 115 0
107 120 0
131 149 22
160 182 0
155 177 0
161 184 0
155 177 0
155 176 0
155 177 0
152 172 0
151 171 0
160 182 0
156 177 0
151 172 0
157 179 0
153 175 0
156 177 0
157 178 0
148 170 0
156 177 0
154 176 0
151 173 0
153 174 0
152 174 0
145 166 0
151 172 0
146 167 0
154 175 0
153 175 0
153 176 0
148 169 0
146 167 0
145 166 16
78 102 79
48 76 71
48 77 70
48 77 70
52 83 104
51 82 78
49 79 78
52 83 90
52 83 86
53 84 92
50 80 84
52 82 84
51 81 89
52 83 84
52 83 100
52 82 84
53 85 95
54 86 88
51 82 94
52 83 98
54 86 97
53 85 94
54 86 95
56 88 106
53 85 100
55 87 97
54 86 105
54 85 105
54 86 100
52 83 82
53 85 92
52 83 96
53 83 97
55 87 99
52 83 95
53 84 88
52 83 92
56 89 102
54 86 99
54 85 90
54 85 99
53 83 94
54 86 95
52 82 86
54 86 102
53 84 84
53 84 88
54 85 87
54 85 102
54 85 91
55 87 103
52 83 80
53 84 82
53 84 90
52 82 88
52 82 101
52 82 89
52 82 89
51 80 86
51 80 95
52 81 98
49 78 88
50 78 77
51 80 87
53 83 99
52 81 90
54 84 91
51 80 94
46 73 76
50 78 89
50 78 82
47 73 78
46 72 68
78 97 57
150 169 25
138 157 0
147 165 0
142 161 0
153 171 0
139 156 0
150 169 0
144 164 0
144 165 0
140 157 0
137 154 0
155 175 0
149 167 0
146 165 0
151 170 0
147 165 0
153 171 0
140 157 0
151 168 0
152 170 0
154 171 0
152 170 0
157 174 0
147 165 0
152 171 0
153 168 0
156 172 0
156 173 0
145 161 0
162 180 0
115 121 28
96 90 30
87 82 21
94 89 22
90 87 0
83 80 19
89 84 11
80 77 8
92 88 11
88 84 14
80 75 0
84 82 14
95 93 8
89 85 3
97 92 8
97 94 0
97 93 3
92 88 8
104 99 8
94 92 15
108 103 14
105 101 18
111 109 14
99 96 0
97 93 22
111 108 14
106 103 11
115 110 11
116 113 26
121 116 23
108 103 20
124 120 30
113 109 16
116 113 20
124 120 25
123 118 31
116 113 12
119 114 26
123 117 21
124 120 24
125 120 25
119 116 25
132 127 28
127 121 32
131 125 25
135 129 36
130 124 28
129 126 29
132 128 33
129 126 30
134 130 30
131 125 30
130 125 28
137 132 39
135 128 37
131 126 36
136 131 34
137 131 34
127 122 25
131 128 28
143 136 42
140 134 39
143 138 41
141 134 39
137 131 36
145 139 39
140 135 30
134 130 41
150 145 45
135 129 37
142 134 48
143 138 37
140 133 42
150 143 41
139 133 39
139 134 39
141 135 36
145 139 39
140 135 44
141 136 39
150 143 45
146 140 49
146 140 49
145 139 45
149 142 49
146 140 47
141 136 42
142 134 48
146 140 41
139 133 39
135 129 44
141 134 34
147 142 44
146 139 52
146 139 47
152 145 52
150 144 49
148 142 52
148 141 49
137 131 39
147 141 44
135 130 42
145 139 47
146 139 42
148 141 49
143 136 49
146 140 49
138 131 44
135 130 41
139 133 42
134 129 42
139 133 51
138 132 49
141 135 53
138 133 44
152 146 57
137 130 47
146 139 57
135 129 41
135 130 48
143 136 57
136 130 48
146 139 45
145 139 56
145 137 53
142 136 49
139 133 53
136 130 56
140 135 51
135 130 49
138 132 54
139 134 44
144 137 57
155 175 0
153 173 0
152 173 0
154 174 0
151 171 0
156 175 0
153 174 0
150 171 0
152 172 0
150 170 0
154 174 0
154 174 0
151 171 0
149 168 0
151 171 0
150 170 0
148 168 0
148 168 0
151 171 0
149 169 0
148 169 0
149 170 0
150 171 0
148 167 0
148 168 0
148 168 0
147 166 0
148 169 0
148 168 0
151 171 0
149 169 0
148 168 0
147 168 0
149 169 0
151 171 0
151 172 0
149 169 0
148 168 0
147 166 0
147 167 0
145 165 0
146 165 0
144 164 0
148 168 0
147 167 0
144 164 0
146 166 0
148 168 0
147 166 0
144 163 0
145 165 0
149 169 0
146 166 0
142 161 0
149 169 0
143 163 0
148 168 0
146 166 0
144 164 0
145 165 0
143 162 0
144 163 0
139 158 0
139 158 0
146 166 0
142 162 0
145 164 0
140 159 0
140 159 0
142 161 0
140 160 0
145 164 0
135 154 0
140 159 0
137 157 0
138 157 0
139 159 0
144 164 0
138 156 0
136 155 0
142 161 0
135 154 0
138 156 0
137 155 0
133 151 0
139 157 0
128 147 0
134 152 0
133 152 0
133 152 0
138 157 0
129 147 0
126 143 0
128 147 0
127 146 0
136 153 0
129 146 0
131 149 0
128 146 0
124 141 0
124 142 0
125 142 0
132 150 0
124 141 0
128 146 0
127 145 0
117 134 0
118 136 0
125 142 0
119 135 0
116 133 0
118 136 0
113 130 0
114 131 0
112 128 0
111 127 0
109 125 0
108 123 0
111 127 0
113 129 0
113 129 0
106 122 0
115 131 0
105 121 0
110 125 0
102 117 0
115 130 0
104 119 0
104 118 0
107 122 0
100 113 0
133 151 22
160 181 0
160 181 0
152 173 0
159 180 0
157 178 0
154 175 0
156 177 0
152 172 0
151 171 0
150 171 0
148 169 0
153 174 0
156 177 0
151 173 0
144 164 0
151 172 0
153 174 0
150 172 0
143 163 0
146 167 0
145 167 0
150 172 0
155 176 0
143 164 0
137 158 0
154 175 0
144 164 0
147 168 0
140 162 0
147 168 0
145 167 0
137 157 18
65 87 54
44 71 53
49 78 85
48 77 95
50 80 62
50 79 87
50 81 80
50 80 84
48 78 69
52 82 95
53 85 89
52 83 91
52 83 88
50 80 86
53 83 96
52 82 88
50 80 74
53 83 86
55 87 99
50 80 92
53 84 98
55 86 100
55 87 103
54 86 99
51 81 88
53 83 97
54 86 103
54 84 97
50 80 84
54 86 99
53 85 88
53 83 95
54 86 111
54 86 102
52 82 95
53 85 94
56 89 110
52 82 86
51 81 86
53 84 99
53 85 80
53 84 99
54 85 102
52 83 94
53 84 90
54 85 89
52 83 86
52 82 94
53 84 90
54 84 111
51 81 94
52 83 84
50 79 78
54 86 99
52 82 90
53 84 93
54 85 99
50 80 85
52 82 81
51 81 94
52 83 92
53 83 99
47 75 81
49 78 74
52 82 96
53 82 82
49 77 73
50 79 79
48 74 73
46 73 70
44 70 62
65 87 48
121 137 0
143 161 0
151 169 0
131 149 0
141 160 0
139 158 0
139 158 0
142 159 0
138 156 0
148 166 0
145 160 0
145 161 0
146 162 0
148 163 0
152 171 0
149 165 0
147 162 0
154 172 0
146 162 0
146 163 0
145 160 0
148 164 0
150 166 0
149 165 0
151 166 0
149 164 0
151 165 0
155 173 0
153 169 0
147 163 0
150 165 0
148 162 0
121 128 22
88 84 25
84 80 22
82 79 19
91 87 20
92 87 20
91 88 8
96 91 8
92 89 14
96 93 11
80 77 12
88 84 0
94 90 14
97 92 0
96 92 8
98 94 8
94 90 0
105 101 14
105 100 11
107 102 15
97 94 11
102 97 8
97 95 0
120 115 20
103 100 8
107 103 14
116 113 8
113 109 11
114 110 26
113 110 19
116 113 22
125 120 24
128 122 31
121 117 22
120 117 22
124 119 24
118 115 14
126 121 25
124 120 28
124 120 26
127 121 28
134 129 25
125 120 19
127 122 28
125 121 25
129 125 28
128 122 25
123 120 22
135 129 28
125 122 18
127 124 16
127 123 32
129 124 30
130 126 19
127 121 28
134 129 30
131 125 34
138 133 41
141 135 41
136 131 32
139 133 28
135 130 32
136 130 32
129 126 39
136 130 37
138 133 32
135 130 39
137 131 36
141 135 44
138 133 34
143 137 41
140 134 32
147 141 30
142 138 32
147 141 47
137 130 41
144 137 44
129 125 37
143 138 37
136 131 37
139 133 37
141 136 44
134 128 32
140 134 36
137 131 37
148 143 47
146 140 39
140 134 42
146 138 49
149 141 51
140 135 41
145 139 44
138 133 32
140 136 44
144 138 51
137 130 51
146 140 44
145 139 48
139 134 45
138 132 47
142 137 51
144 138 49
145 140 45
147 141 49
145 138 45
137 132 48
141 135 48
139 133 41
142 136 45
142 135 47
142 136 49
146 141 48
143 136 51
142 136 45
140 135 49
148 140 58
141 135 52
143 136 53
142 136 53
138 132 54
139 134 52
142 136 52
141 135 51
145 137 54
137 132 42
140 133 56
133 128 42
140 134 39
138 131 49
136 130 49
139 133 44
138 131 48
150 171 0
150 171 0
153 173 0
154 174 0
151 172 0
153 173 0
152 173 0
154 174 0
152 172 0
151 171 0
149 170 0
150 170 0
152 172 0
152 173 0
149 169 0
154 175 0
149 170 0
150 170 0
150 171 0
151 172 0
154 174 0
152 172 0
152 172 0
152 172 0
152 171 0
152 173 0
147 167 0
148 168 0
150 171 0
150 171 0
150 169 0
150 170 0
146 165 0
147 167 0
147 167 0
151 171 0
153 173 0
150 170 0
149 170 0
149 169 0
147 167 0
146 166 0
145 166 0
144 164 0
148 169 0
151 170 0
146 166 0
145 165 0
146 166 0
143 163 0
149 170 0
143 161 0
145 164 0
144 164 0
146 167 0
148 168 0
144 163 0
146 165 0
145 165 0
139 160 0
146 166 0
143 162 0
142 162 0
146 165 0
141 161 0
140 160 0
147 166 0
144 164 0
143 162 0
140 160 0
143 161 0
141 161 0
141 160 0
145 164 0
137 155 0
141 160 0
139 158 0
141 160 0
135 153 0
136 155 0
135 153 0
137 155 0
135 153 0
138 156 0
139 157 0
135 153 0
134 152 0
128 145 0
127 144 0
124 142 0
136 155 0
139 157 0
127 145 0
129 147 0
124 141 0
131 149 0
133 151 0
131 148 0
121 138 0
115 131 0
126 143 0
126 143 0
125 142 0
127 144 0
120 137 0
119 136 0
121 138 0
119 136 0
117 134 0
122 140 0
125 142 0
112 128 0
107 122 0
119 135 0
110 126 0
110 126 0
115 130 0
114 129 0
103 119 0
112 128 0
111 127 0
114 129 0
107 121 0
105 121 0
103 118 0
117 133 0
104 118 0
99 113 0
103 117 0
101 115 0
134 152 0
153 174 0
153 174 0
151 170 0
154 175 0
146 165 0
152 171 0
153 175 0
154 173 0
141 161 0
158 179 0
156 177 0
149 170 0
146 166 0
155 176 0
150 172 0
150 170 0
144 165 0
148 168 0
156 177 0
148 169 0
137 158 0
146 167 0
138 158 0
141 162 0
138 159 0
137 157 0
140 162 0
147 168 0
141 162 0
145 166 0
139 160 0
141 162 0
143 163 0
136 156 0
84 105 56
47 75 75
45 73 62
50 79 81
50 79 86
48 77 82
47 76 65
47 75 70
52 83 94
51 81 82
51 81 93
53 84 100
52 83 87
50 79 84
52 83 93
49 79 82
53 85 89
53 84 97
53 84 86
53 84 89
54 85 99
54 85 103
54 85 95
53 84 102
53 84 82
54 85 95
53 84 98
54 85 97
53 85 94
52 82 82
53 84 95
54 85 113
51 81 84
55 87 100
53 84 90
55 87 105
53 83 88
53 83 88
52 83 86
53 84 86
51 81 84
54 85 99
53 83 94
52 83 92
52 83 90
53 83 97
52 82 97
51 82 92
51 80 88
54 85 99
54 85 102
52 81 92
51 81 88
53 83 101
51 80 92
52 82 92
50 79 82
52 82 97
53 83 84
49 78 79
52 81 79
50 78 90
47 74 80
52 82 80
49 76 87
47 73 76
48 74 65
48 76 75
45 70 58
76 95 60
127 147 0
142 160 0
130 147 0
146 163 0
136 154 0
138 155 0
138 154 0
140 156 0
136 151 0
147 165 0
138 153 0
143 159 0
141 155 0
142 157 0
149 167 0
144 160 0
148 164 0
147 165 0
148 164 0
136 148 0
145 161 0
147 162 0
148 163 0
145 158 0
152 171 0
150 165 0
136 151 0
149 165 0
148 163 0
149 165 0
142 158 0
147 160 0
154 168 0
150 165 0
117 125 19
84 81 25
99 93 19
74 70 18
92 88 11
97 92 21
89 84 18
82 77 11
94 88 14
92 88 14
92 86 11
99 94 0
85 82 0
93 90 8
101 98 8
101 97 14
105 100 0
110 106 0
102 99 8
102 97 16
101 98 11
97 95 0
109 105 8
112 107 18
104 100 11
105 103 21
106 102 8
113 109 8
103 98 18
111 106 18
97 93 0
108 105 14
121 116 22
118 114 23
121 117 18
119 114 0
125 120 30
123 119 25
126 121 19
129 124 28
132 126 28
116 111 28
129 123 29
131 125 25
122 117 28
132 127 22
138 133 25
132 126 32
130 125 19
135 130 28
129 122 22
130 125 30
139 134 28
140 137 30
134 128 30
127 124 22
131 126 25
133 128 28
137 132 39
133 130 32
130 125 30
141 136 32
139 132 30
133 128 30
134 129 34
123 119 16
137 132 32
141 135 39
137 132 32
140 133 37
138 130 30
143 136 44
136 130 39
143 138 44
139 133 39
141 135 48
140 134 47
140 135 39
138 133 32
144 137 44
147 140 47
137 132 37
139 134 34
148 143 41
138 132 42
141 135 41
144 138 45
137 132 36
141 135 41
145 140 41
137 132 42
146 140 51
144 137 42
143 136 44
139 133 34
142 136 49
148 142 54
144 137 44
141 136 44
141 136 41
139 134 39
142 135 49
147 141 45
136 130 47
142 136 48
138 133 39
143 136 54
149 142 53
139 132 42
137 130 44
132 126 42
141 134 51
138 132 48
144 136 47
137 132 44
141 135 49
136 130 41
138 132 44
139 133 49
140 133 51
138 132 52
136 130 48
143 137 54
135 129 44
130 123 44
142 136 45
139 133 47
139 134 48
126 121 39
141 136 44
140 134 51
154 174 0
152 173 0
153 173 0
152 172 0
149 170 0
153 173 0
151 171 0
150 170 0
152 172 0
152 173 0
152 172 0
149 170 0
149 169 0
154 174 0
146 166 0
153 173 0
151 172 0
149 169 0
149 168 0
148 168 0
148 168 0
148 169 0
149 170 0
150 171 0
152 173 0
148 168 0
149 169 0
148 167 0
150 170 0
146 165 0
151 171 0
147 167 0
147 167 0
150 169 0
148 169 0
149 170 0
144 163 0
146 165 0
147 167 0
145 164 0
147 167 0
144 164 0
150 169 0
149 168 0
145 164 0
146 165 0
147 167 0
144 164 0
147 166 0
146 166 0
147 167 0
149 168 0
148 166 0
149 169 0
147 166 0
143 163 0
142 162 0
144 164 0
143 162 0
146 165 0
143 162 0
142 162 0
143 162 0
139 159 0
143 163 0
138 158 0
141 161 0
140 159 0
135 155 0
135 155 0
140 159 0
145 164 0
137 156 0
138 157 0
138 158 0
142 160 0
143 162 0
134 153 0
135 153 0
132 152 0
137 156 0
134 152 0
137 155 0
142 160 0
139 158 0
137 155 0
135 154 0
138 157 0
131 149 0
128 146 0
136 153 0
129 148 0
125 142 0
131 149 0
131 149 0
129 147 0
131 149 0
132 150 0
130 147 0
116 131 0
132 149 0
131 149 0
124 141 0
121 137 0
130 148 0
121 138 0
127 143 0
122 138 0
122 139 0
117 133 0
119 135 0
111 127 0
118 134 0
112 127 0
121 137 0
121 137 0
115 130 0
108 123 0
105 119 0
118 133 0
100 114 0
108 123 0
108 123 0
112 128 0
102 116 0
96 110 0
104 117 0
97 111 0
86 98 0
125 143 0
151 171 0
148 168 0
152 172 0
152 172 0
151 172 0
150 170 0
151 171 0
153 174 0
146 166 0
153 173 0
146 166 0
142 162 0
147 169 0
140 160 0
144 164 0
139 158 0
152 171 0
143 164 0
145 166 0
144 165 0
144 164 0
141 162 0
143 163 0
136 157 0
135 155 0
139 159 0
139 160 0
137 158 0
136 156 0
138 157 0
132 152 0
141 162 0
136 156 0
141 162 0
132 152 0
132 151 0
86 108 56
46 74 66
47 76 51
50 80 78
46 73 78
48 76 78
49 79 82
50 80 82
53 84 93
50 80 86
51 81 88
49 78 74
54 85 103
51 81 84
51 82 78
51 81 86
52 83 84
51 81 84
53 83 97
52 82 92
51 82 97
49 79 78
55 87 100
52 82 92
52 83 91
53 84 84
55 87 100
50 80 88
54 86 97
51 82 90
53 85 82
51 80 85
52 83 92
53 85 86
54 85 100
52 82 94
54 86 99
50 80 86
53 83 97
52 83 92
54 85 94
54 85 94
53 84 94
52 83 85
53 84 97
53 84 101
52 83 99
52 83 95
50 80 79
52 82 94
52 82 94
49 78 88
49 78 70
54 84 95
52 82 74
53 84 82
52 82 92
50 79 80
49 77 82
50 78 87
50 78 87
47 75 74
47 74 77
48 76 73
48 76 79
46 71 66
46 72 58
74 92 51
118 136 0
134 151 0
127 141 0
140 158 0
144 161 0
142 159 0
131 147 0
142 157 0
138 154 0
137 154 0
146 163 0
135 152 0
137 155 0
138 154 0
140 157 0
144 161 0
146 160 0
145 162 0
143 158 0
138 152 0
143 160 0
142 156 0
148 165 0
145 160 0
139 154 0
135 148 0
144 160 0
143 157 0
140 155 0
150 166 0
146 159 0
144 160 0
150 164 0
140 153 0
148 159 0
142 155 0
130 142 11
85 82 16
88 83 19
85 81 16
91 88 19
82 76 16
87 83 18
95 90 18
80 77 0
81 78 8
91 87 11
89 84 8
84 82 0
100 95 8
98 94 14
97 95 8
107 103 0
86 83 0
109 105 14
107 104 0
100 98 8
104 100 11
102 99 11
107 103 14
113 108 0
111 107 16
114 111 11
112 109 16
131 126 12
116 111 22
111 106 16
111 106 21
123 118 22
120 115 0
127 121 30
122 116 11
118 113 19
121 116 16
119 114 16
122 117 30
120 116 28
122 117 30
128 123 22
121 117 19
131 126 30
134 129 19
131 126 29
125 121 30
121 117 22
125 120 32
132 127 32
133 129 30
138 133 32
131 127 25
130 123 30
133 127 28
127 123 36
136 131 32
135 129 22
139 133 30
135 130 30
134 129 36
137 132 25
137 133 30
137 131 34
140 134 37
139 133 22
138 133 36
143 138 30
132 127 36
127 121 37
140 135 39
139 132 41
140 134 36
137 131 37
136 130 37
136 132 28
131 125 32
140 134 30
141 135 47
140 133 32
143 138 45
146 140 45
134 129 41
139 134 37
142 136 44
143 136 44
143 135 51
132 127 39
145 138 47
139 134 37
137 131 36
129 124 32
138 132 34
135 130 44
143 137 48
137 131 44
147 141 47
137 133 37
137 131 39
135 130 39
143 136 44
137 131 42
143 136 47
139 132 52
143 137 48
146 140 57
141 134 45
136 129 45
143 137 42
140 133 47
138 132 47
136 130 47
143 137 53
138 132 49
125 119 44
130 125 37
139 133 42
134 129 44
141 135 44
132 126 41
127 121 48
131 126 45
138 132 52
143 136 54
140 135 45
135 129 45
138 131 54
139 133 52
143 138 56
152 173 0
150 170 0
154 174 0
152 173 0
149 169 0
151 170 0
152 173 0
151 172 0
150 171 0
153 173 0
151 171 0
151 171 0
149 170 0
152 172 0
151 171 0
152 173 0
151 172 0
151 170 0
152 171 0
146 166 0
148 169 0
150 170 0
149 169 0
148 167 0
149 169 0
148 169 0
148 168 0
150 170 0
148 168 0
147 166 0
146 166 0
146 165 0
146 166 0
148 169 0
146 165 0
147 166 0
146 164 0
148 169 0
148 167 0
148 167 0
144 163 0
148 168 0
139 159 0
147 166 0
149 170 0
143 162 0
148 168 0
148 167 0
144 164 0
146 165 0
143 162 0
141 162 0
143 163 0
143 162 0
148 166 0
144 163 0
147 166 0
141 160 0
144 163 0
143 162 0
144 163 0
145 163 0
146 164 0
143 162 0
142 161 0
143 162 0
141 160 0
140 157 0
141 160 0
142 160 0
138 156 0
136 154 0
135 154 0
138 157 0
140 159 0
139 157 0
140 158 0
134 152 0
137 156 0
135 154 0
136 154 0
133 152 0
127 144 0
133 151 0
135 153 0
130 147 0
134 153 0
134 151 0
134 151 0
128 147 0
134 151 0
133 150 0
124 143 0
123 140 0
134 152 0
133 151 0
117 135 0
121 138 0
131 148 0
121 138 0
118 135 0
127 143 0
124 141 0
121 138 0
119 135 0
121 136 0
122 138 0
123 139 0
113 129 0
116 132 0
111 126 0
119 135 0
119 135 0
119 135 0
97 111 0
112 126 0
111 125 0
108 124 0
114 129 0
106 120 0
108 122 0
104 119 0
102 116 0
106 120 0
97 110 0
99 112 0
91 104 0
100 112 0
132 148 0
150 169 0
146 164 0
148 167 0
155 175 0
144 164 0
149 168 0
157 177 0
145 165 0
147 167 0
148 168 0
146 166 0
148 168 0
140 160 0
137 157 0
147 167 0
139 159 0
148 169 0
146 167 0
134 154 0
144 165 0
141 161 0
150 170 0
130 150 0
135 155 0
138 157 0
136 154 0
135 154 0
135 155 0
142 162 0
143 164 0
139 159 0
139 160 0
128 149 0
137 156 0
139 161 0
131 150 0
123 143 0
134 154 0
85 105 51
46 74 69
47 75 84
47 75 73
47 75 73
49 78 62
50 80 78
49 78 80
51 81 82
50 79 88
51 81 84
51 82 81
48 77 78
54 85 95
50 79 84
51 81 95
51 81 87
50 81 72
48 76 72
53 84 76
49 78 86
52 82 86
52 82 94
51 82 83
54 84 90
51 81 90
54 86 108
51 81 80
51 80 99
53 84 97
55 87 108
53 83 92
53 83 88
53 84 84
52 82 97
53 85 97
48 77 82
48 77 78
51 82 86
53 84 90
50 80 82
51 81 88
53 83 99
54 85 94
53 83 102
55 86 97
50 79 84
52 82 99
53 82 90
50 80 76
53 83 94
54 85 103
51 80 83
49 78 82
49 78 88
50 78 83
48 76 74
50 78 77
49 77 90
48 75 65
50 78 78
49 77 79
46 73 68
43 67 75
44 68 46
88 106 40
132 149 0
117 132 0
123 138 0
128 145 0
129 147 0
131 148 0
123 140 0
130 147 0
139 156 0
135 151 0
134 148 0
134 148 0
120 136 0
143 160 0
127 144 0
135 151 0
136 151 0
137 155 0
137 152 0
140 156 0
135 147 0
145 157 0
124 135 0
131 143 0
137 151 0
141 155 0
136 148 0
134 146 0
142 154 0
151 165 0
132 146 0
149 164 0
140 153 0
143 156 0
137 150 0
139 149 0
150 163 0
146 154 0
133 142 11
91 86 16
105 98 30
82 78 19
86 82 21
86 80 11
86 82 11
92 88 19
86 81 0
87 84 0
96 91 12
91 88 0
98 92 3
105 99 0
106 101 0
108 102 0
97 92 0
108 104 0
90 86 0
96 93 11
104 101 14
104 101 11
111 107 8
110 106 16
107 103 0
109 105 11
114 110 0
121 115 11
112 109 11
116 111 8
117 113 16
108 104 24
116 111 16
120 116 16
124 120 21
120 117 0
131 126 26
110 106 19
122 117 19
125 119 19
124 119 25
122 117 25
133 127 29
125 120 22
122 117 16
126 120 27
125 119 19
130 123 16
131 125 34
131 127 19
132 127 32
131 127 19
126 123 19
127 122 19
125 121 19
143 135 37
135 131 32
135 130 25
132 127 30
140 134 36
137 133 28
137 132 25
133 127 28
132 127 30
134 127 32
141 134 34
136 130 28
128 121 28
141 136 39
143 136 44
132 127 22
133 127 36
139 133 44
138 132 41
135 130 39
136 130 39
139 131 41
139 133 36
141 135 36
133 129 30
138 131 44
136 131 34
140 134 34
142 138 41
137 129 32
141 135 37
143 136 39
135 129 45
142 136 51
143 137 44
141 136 37
146 140 48
146 139 52
138 132 41
141 134 44
140 135 37
141 135 48
140 133 41
135 129 41
140 134 48
139 133 42
143 138 37
148 141 45
135 130 39
149 142 54
140 134 49
141 134 44
140 133 44
135 130 41
133 128 37
134 128 48
142 133 52
150 142 54
130 125 39
138 132 47
134 128 45
147 139 51
138 131 52
137 132 39
140 135 49
137 132 41
141 135 52
135 130 41
131 126 42
137 132 44
137 131 45
139 132 48
133 127 42
140 134 49
150 171 0
150 168 0
151 171 0
150 170 0
150 171 0
153 173 0
151 171 0
153 173 0
153 173 0
152 172 0
150 170 0
150 170 0
149 170 0
148 168 0
147 166 0
152 171 0
150 170 0
148 168 0
151 171 0
150 170 0
150 170 0
146 164 0
151 170 0
147 167 0
148 167 0
150 170 0
147 167 0
148 169 0
146 166 0
149 168 0
149 168 0
146 166 0
147 166 0
147 167 0
147 167 0
148 169 0
146 166 0
151 171 0
145 164 0
147 166 0
149 168 0
148 169 0
145 164 0
148 168 0
140 160 0
150 169 0
145 164 0
141 160 0
145 164 0
140 159 0
148 167 0
144 163 0
140 159 0
147 167 0
140 159 0
144 163 0
142 160 0
142 160 0
143 163 0
142 161 0
143 162 0
141 159 0
140 159 0
145 164 0
138 157 0
140 160 0
142 161 0
141 160 0
144 162 0
137 155 0
144 164 0
146 165 0
141 160 0
140 159 0
139 157 0
135 154 0
134 152 0
138 156 0
139 158 0
140 159 0
140 159 0
132 150 0
130 148 0
136 154 0
133 150 0
131 148 0
134 152 0
127 144 0
134 152 0
129 147 0
131 148 0
133 150 0
130 147 0
129 146 0
126 144 0
129 146 0
127 145 0
123 140 0
128 146 0
125 141 0
127 145 0
126 143 0
125 142 0
122 138 0
120 137 0
116 132 0
117 132 0
117 133 0
120 136 0
114 130 0
112 126 0
119 134 0
117 132 0
119 133 0
120 136 0
115 130 0
113 128 0
113 127 0
110 124 0
109 123 0
107 121 0
101 116 0
104 118 0
96 109 0
98 112 0
98 111 0
107 120 0
140 158 0
139 157 0
139 159 0
146 165 0
149 168 0
146 166 0
144 162 0
144 163 0
143 163 0
147 167 0
140 159 0
133 152 0
144 163 0
143 162 0
141 161 0
142 160 0
141 160 0
133 153 0
139 157 0
131 150 0
140 160 0
140 161 0
136 155 0
147 165 0
133 152 0
137 156 0
126 145 0
128 147 0
133 152 0
133 152 0
130 149 0
132 152 0
130 150 0
142 162 0
141 161 0
133 152 0
115 134 0
125 145 0
128 146 0
129 148 0
133 151 0
96 116 34
51 76 53
50 79 84
49 77 80
47 76 71
47 75 67
50 80 78
49 78 91
49 78 80
49 78 80
50 79 95
51 81 86
48 77 88
50 80 88
50 80 78
50 81 78
51 80 86
51 81 86
52 82 95
52 83 84
50 80 82
49 79 82
51 81 92
53 83 97
52 83 86
52 84 86
51 82 76
53 84 95
53 83 94
57 89 111
51 81 80
52 83 90
50 80 82
53 83 99
50 80 92
53 85 100
52 82 92
49 79 72
52 83 88
50 80 76
47 75 77
52 83 99
51 80 100
51 81 92
53 83 87
49 78 84
51 81 72
49 78 72
49 77 85
53 83 95
51 81 86
50 79 75
50 78 79
49 77 90
51 80 86
49 76 76
50 78 85
50 78 84
46 73 65
48 76 74
47 74 72
40 64 52
44 67 54
96 114 25
127 143 0
113 129 0
125 140 0
133 149 0
133 150 0
116 131 0
132 148 0
128 142 0
121 136 0
132 148 0
124 139 0
133 150 0
129 146 0
134 150 0
130 146 0
138 153 0
135 150 0
138 151 0
128 141 0
132 146 0
138 154 0
139 153 0
139 154 0
129 142 0
132 147 0
139 151 0
139 153 0
144 159 0
138 150 0
142 155 0
136 148 0
132 146 0
134 146 0
135 147 0
140 153 0
135 144 0
145 156 0
141 151 0
139 148 0
139 149 0
137 147 0
98 96 26
88 82 25
73 70 0
87 82 0
83 78 16
90 84 0
85 81 0
94 88 8
97 90 14
92 87 8
84 79 8
92 87 11
99 93 0
91 87 8
99 95 8
107 101 0
93 88 0
100 96 0
101 96 14
112 107 0
109 103 14
91 87 11
106 102 8
111 106 11
101 95 11
106 100 21
111 106 22
109 104 16
112 106 0
115 111 11
114 111 16
104 100 16
109 105 0
123 118 23
116 113 0
124 119 18
115 110 11
116 111 11
111 107 11
124 118 18
127 121 22
128 122 16
117 112 19
123 119 0
121 116 22
125 122 14
127 121 22
133 127 19
123 118 22
134 128 32
133 127 30
128 122 32
129 124 19
135 128 22
135 131 34
131 125 34
132 126 19
133 128 25
130 126 32
133 129 19
136 130 34
126 121 22
132 126 34
127 123 25
136 130 32
138 134 22
124 120 30
135 128 39
142 136 37
139 133 44
143 137 37
137 130 37
139 133 34
134 129 36
143 138 37
141 133 41
132 123 34
142 135 41
139 133 42
137 130 44
132 126 34
132 126 36
138 132 45
136 129 32
137 132 39
149 144 34
136 129 41
141 134 42
136 131 39
137 131 34
140 134 42
140 135 34
144 137 47
133 128 34
145 140 45
139 132 39
131 127 39
144 136 51
132 125 39
138 134 42
141 135 49
135 129 41
135 128 45
144 137 51
136 130 42
140 133 42
138 132 44
135 128 53
134 128 32
139 131 51
137 131 42
138 131 49
135 130 41
146 141 54
145 138 52
138 133 47
139 132 51
130 124 37
144 139 53
139 133 36
126 120 41
146 139 51
135 129 49
136 130 47
128 121 44
128 123 41
134 127 42
148 169 0
152 172 0
153 173 0
152 173 0
151 171 0
151 172 0
149 169 0
150 171 0
153 173 0
150 169 0
152 171 0
148 168 0
150 169 0
149 170 0
152 171 0
149 169 0
149 168 0
150 171 0
150 171 0
153 173 0
149 169 0
149 168 0
151 171 0
147 167 0
148 168 0
147 167 0
149 168 0
149 168 0
148 168 0
149 169 0
148 168 0
145 165 0
148 169 0
150 170 0
150 170 0
143 164 0
150 169 0
147 166 0
147 166 0
144 164 0
145 164 0
143 163 0
148 168 0
145 165 0
146 167 0
148 166 0
144 163 0
144 164 0
145 164 0
143 162 0
147 168 0
143 161 0
144 163 0
148 167 0
141 161 0
145 164 0
139 158 0
143 162 0
142 160 0
146 165 0
138 157 0
137 155 0
142 161 0
143 163 0
142 161 0
142 162 0
139 157 0
138 157 0
137 156 0
136 153 0
142 160 0
140 159 0
140 159 0
139 157 0
135 153 0
135 153 0
140 159 0
135 153 0
136 155 0
140 157 0
134 152 0
132 150 0
133 150 0
136 155 0
130 149 0
131 149 0
129 147 0
123 140 0
133 151 0
129 146 0
132 149 0
131 147 0
119 137 0
127 144 0
123 140 0
127 144 0
124 142 0
135 152 0
116 133 0
128 145 0
123 139 0
119 135 0
111 127 0
117 133 0
115 131 0
127 144 0
114 130 0
124 140 0
115 130 0
116 131 0
116 131 0
115 130 0
107 122 0
115 130 0
110 125 0
110 124 0
109 123 0
104 119 0
99 112 0
107 121 0
105 118 0
100 114 0
105 118 0
91 103 0
95 108 0
116 129 0
144 162 0
142 161 0
145 165 0
145 164 0
142 160 0
133 150 0
141 159 0
138 156 0
144 163 0
147 166 0
138 156 0
136 155 0
139 159 0
135 154 0
134 153 0
131 149 0
139 158 0
137 155 0
134 154 0
137 156 0
144 164 0
132 152 0
132 150 0
134 154 0
134 154 0
137 157 0
132 151 0
136 156 0
138 158 0
133 151 0
127 147 0
130 149 0
128 147 0
118 136 0
128 147 0
123 143 0
122 141 0
127 146 0
118 137 0
123 141 0
128 147 0
123 141 0
120 138 0
111 129 24
77 98 49
44 71 56
47 74 78
50 79 78
46 75 72
48 77 78
47 76 64
50 79 78
50 79 86
52 82 94
49 78 76
51 80 84
48 77 80
50 80 70
51 81 78
52 82 90
52 83 88
52 82 99
48 77 72
51 81 87
48 76 74
50 80 80
52 82 92
49 78 80
51 81 70
51 81 76
49 78 72
51 81 94
50 79 86
51 81 88
52 83 88
53 84 95
50 80 80
52 83 86
49 78 67
50 80 82
51 81 86
49 79 76
52 82 81
52 82 97
51 81 90
49 78 70
53 83 95
52 83 80
51 80 94
50 79 76
51 81 92
48 77 70
49 77 80
47 76 55
52 81 86
48 76 78
51 80 88
49 78 75
46 73 62
46 73 75
45 71 60
47 74 72
45 70 68
71 91 41
97 112 18
110 125 0
126 143 0
131 147 0
117 132 0
120 135 0
131 145 0
118 133 0
130 144 0
129 147 0
129 146 0
120 136 0
122 137 0
141 157 0
135 148 0
148 164 0
134 150 0
127 142 0
130 143 0
134 151 0
132 144 0
137 150 0
131 144 0
121 134 0
135 149 0
132 143 0
133 147 0
125 139 0
135 148 0
134 148 0
146 159 0
140 154 0
148 159 0
143 154 0
132 143 0
137 149 0
137 150 0
130 141 0
138 146 0
143 155 0
130 144 0
130 136 0
129 138 0
136 141 0
107 106 16
86 80 19
92 85 16
90 85 18
78 74 0
77 74 11
96 90 2
84 78 11
95 89 0
87 83 16
89 86 0
100 95 8
91 86 0
95 87 0
95 91 0
94 89 16
104 99 8
108 103 0
97 91 0
105 100 0
99 94 11
104 100 0
97 93 11
107 101 0
109 105 8
105 101 8
111 105 11
113 109 11
112 106 11
112 108 0
119 114 11
117 113 11
121 115 19
105 101 8
115 109 19
111 105 19
117 112 11
125 119 16
120 115 11
116 109 19
114 109 19
118 112 16
128 124 16
127 122 16
122 117 19
123 117 11
129 123 16
139 132 33
126 120 19
127 123 19
125 120 31
114 111 11
129 124 11
129 121 22
132 126 22
133 127 28
128 122 28
135 129 30
130 125 28
135 129 37
132 127 30
124 118 34
133 127 22
132 126 34
129 125 11
131 126 32
132 126 37
140 133 28
132 125 22
135 130 32
136 129 30
136 131 30
134 127 28
135 129 34
134 126 37
138 132 30
127 122 28
133 128 22
140 135 39
139 133 34
129 124 28
135 127 41
137 132 30
145 140 32
133 128 34
134 129 25
141 136 34
132 126 36
140 134 41
131 125 44
136 130 39
132 128 34
137 132 42
139 133 37
140 134 37
138 133 32
134 128 37
142 135 37
139 132 47
134 128 39
140 134 44
141 134 47
138 132 49
143 136 36
130 126 36
137 131 47
133 129 34
140 133 51
139 131 48
136 130 48
139 133 52
129 124 36
138 132 47
136 130 48
127 121 39
140 134 51
122 118 32
136 131 47
137 131 39
142 135 54
133 128 51
139 133 52
130 124 44
136 130 56
132 126 42
128 121 44
151 171 0
152 171 0
152 172 0
151 171 0
149 170 0
151 171 0
153 173 0
153 173 0
152 171 0
148 168 0
148 167 0
153 173 0
147 167 0
151 171 0
152 171 0
149 170 0
149 168 0
151 171 0
151 171 0
149 170 0
149 168 0
152 171 0
149 169 0
148 167 0
148 167 0
148 168 0
149 169 0
149 168 0
144 163 0
148 168 0
147 167 0
145 165 0
146 165 0
141 159 0
146 166 0
149 170 0
148 167 0
145 165 0
148 166 0
145 164 0
142 161 0
148 168 0
149 168 0
146 166 0
147 166 0
147 166 0
148 167 0
148 168 0
139 158 0
143 162 0
142 161 0
144 163 0
142 160 0
147 166 0
141 161 0
140 159 0
142 161 0
145 164 0
143 161 0
143 162 0
138 157 0
141 160 0
141 160 0
138 156 0
140 158 0
142 162 0
139 158 0
140 157 0
143 162 0
139 158 0
138 155 0
140 157 0
132 151 0
138 156 0
136 154 0
138 156 0
135 152 0
134 151 0
137 155 0
131 148 0
132 150 0
137 153 0
135 153 0
138 157 0
132 149 0
128 146 0
126 144 0
136 153 0
130 146 0
131 148 0
129 147 0
125 142 0
125 142 0
131 149 0
126 142 0
126 142 0
123 139 0
121 136 0
124 140 0
126 143 0
120 136 0
120 135 0
126 142 0
125 140 0
116 132 0
117 132 0
116 131 0
124 140 0
116 131 0
120 136 0
118 132 0
107 122 0
107 121 0
106 119 0
116 130 0
117 132 0
112 126 0
102 115 0
97 110 0
100 112 0
88 100 0
106 120 0
90 102 0
90 102 0
124 139 0
144 161 0
139 157 0
146 164 0
143 161 0
142 159 0
137 155 0
135 152 0
136 154 0
129 147 0
139 158 0
138 156 0
139 158 0
137 154 0
146 164 0
141 159 0
134 152 0
134 151 0
140 160 0
137 155 0
128 147 0
139 157 0
135 153 0
137 156 0
128 147 0
137 156 0
136 155 0
131 149 0
133 151 0
134 153 0
136 153 0
123 142 0
134 153 0
127 146 0
133 151 0
127 145 0
119 138 0
106 124 0
125 144 0
130 149 0
121 140 0
117 136 0
116 134 0
112 129 0
111 128 0
104 121 0
108 125 0
91 109 25
43 70 76
44 71 59
46 74 59
47 75 73
48 76 91
48 77 88
49 77 90
50 80 74
51 81 86
49 78 76
50 80 82
47 76 67
49 78 74
49 79 64
49 79 78
51 80 84
50 79 82
51 81 80
52 83 90
52 83 95
52 81 90
51 81 92
51 82 70
51 81 84
50 79 78
52 83 82
52 82 99
49 79 78
51 81 86
51 81 76
51 81 82
50 79 80
50 80 90
51 81 90
51 81 92
49 78 78
52 83 94
51 81 81
51 81 88
50 79 90
47 74 74
48 77 77
48 76 77
50 79 89
46 72 72
48 76 65
47 75 83
50 78 79
50 79 80
50 79 90
49 76 81
49 77 75
48 76 72
48 75 72
45 69 63
45 69 62
73 91 54
101 116 18
98 111 0
104 117 0
109 123 0
111 124 0
108 121 0
117 133 0
111 126 0
130 147 0
135 151 0
122 137 0
127 140 0
139 153 0
128 144 0
126 139 0
130 146 0
138 154 0
113 129 0
132 145 0
124 137 0
137 149 0
126 141 0
125 140 0
126 142 0
122 133 0
134 149 0
131 146 0
131 145 0
131 141 0
136 150 0
140 151 0
124 136 0
134 146 0
132 142 0
128 138 0
137 148 0
127 135 0
133 141 0
130 139 0
125 136 0
130 139 0
131 141 0
131 137 0
138 146 0
141 151 0
142 150 0
125 130 16
76 73 19
89 81 25
84 78 0
89 83 16
77 72 0
86 83 0
88 85 16
89 83 0
86 80 0
81 77 0
93 89 8
91 87 8
99 94 0
92 87 0
100 93 8
89 84 8
91 88 8
97 93 0
111 105 11
99 93 0
105 101 0
97 91 0
90 86 0
100 95 0
102 98 0
108 102 0
109 105 0
114 109 0
114 110 0
107 102 14
112 108 11
124 118 19
107 104 0
112 108 0
123 118 11
115 112 0
120 116 16
114 110 11
126 119 19
121 115 16
110 104 16
130 126 16
125 119 11
124 119 22
123 117 11
127 122 11
126 120 25
137 130 32
123 117 16
132 125 16
122 117 11
129 125 22
122 116 22
126 119 22
131 126 19
130 125 16
132 126 22
137 130 30
128 123 30
134 128 30
121 116 28
131 125 25
141 134 34
131 127 34
132 127 25
138 133 25
137 132 36
125 118 30
126 121 25
131 125 36
139 132 42
137 130 32
132 126 32
138 131 45
134 128 36
130 125 22
128 123 30
136 129 37
132 127 34
137 130 39
136 131 42
140 134 41
130 125 34
143 136 42
136 131 30
132 126 39
141 135 41
144 137 48
136 132 34
127 122 22
141 133 39
141 135 48
130 124 42
148 140 45
128 123 32
137 130 48
138 132 51
133 128 36
142 135 49
135 130 37
142 135 47
124 118 34
138 132 47
142 135 48
135 128 42
139 131 48
134 128 37
132 127 37
130 124 34
133 127 30
139 132 49
128 123 36
128 122 32
141 135 41
131 124 36
138 131 47
134 127 42
133 127 47
136 128 44
120 114 36
128 122 37
129 122 44
135 128 51
131 125 44
149 170 0
152 171 0
151 172 0
151 172 0
151 171 0
151 171 0
151 170 0
153 173 0
153 173 0
149 169 0
152 172 0
149 169 0
148 168 0
153 173 0
145 165 0
149 168 0
149 169 0
151 169 0
149 169 0
149 169 0
150 170 0
150 170 0
148 167 0
148 168 0
148 167 0
153 172 0
149 168 0
143 162 0
148 168 0
148 168 0
152 171 0
147 165 0
148 167 0
150 169 0
149 169 0
145 164 0
148 168 0
145 163 0
149 168 0
148 167 0
147 166 0
145 165 0
144 163 0
143 162 0
146 165 0
146 165 0
144 164 0
140 159 0
143 162 0
145 164 0
143 161 0
146 165 0
141 159 0
145 164 0
140 160 0
140 159 0
141 160 0
144 163 0
140 159 0
143 162 0
147 166 0
140 159 0
143 161 0
137 156 0
144 163 0
142 161 0
136 155 0
135 153 0
136 155 0
140 158 0
138 155 0
135 154 0
137 155 0
140 158 0
141 160 0
141 159 0
133 151 0
137 155 0
132 151 0
137 155 0
131 148 0
134 152 0
130 147 0
137 154 0
129 147 0
130 147 0
133 149 0
130 147 0
129 147 0
130 146 0
125 141 0
127 144 0
125 142 0
123 140 0
128 145 0
125 141 0
116 132 0
129 146 0
123 140 0
127 143 0
120 135 0
119 135 0
121 137 0
122 137 0
121 136 0
115 130 0
117 131 0
115 131 0
120 135 0
112 126 0
113 127 0
113 128 0
115 129 0
112 125 0
113 128 0
113 127 0
111 125 0
100 115 0
99 111 0
95 107 0
85 98 0
102 115 0
93 104 0
133 149 0
134 150 0
137 154 0
137 154 0
141 159 0
133 149 0
138 155 0
127 144 0
131 147 0
139 157 0
130 147 0
133 150 0
142 160 0
133 151 0
122 140 0
134 151 0
130 148 0
138 157 0
134 152 0
127 145 0
130 148 0
128 146 0
135 153 0
131 149 0
122 140 0
132 150 0
138 156 0
132 152 0
124 142 0
119 137 0
129 148 0
125 143 0
121 139 0
121 139 0
113 131 0
130 149 0
124 142 0
123 142 0
115 133 0
124 143 0
118 136 0
116 134 0
118 136 0
114 131 0
115 131 0
97 115 0
114 131 0
104 121 0
111 127 0
105 121 25
66 86 50
40 64 54
46 74 67
49 77 84
47 75 62
49 77 84
49 78 78
50 80 84
50 80 82
48 76 77
48 76 80
46 75 74
49 78 76
49 77 92
51 81 82
47 75 78
48 76 67
49 79 82
50 79 80
51 82 84
50 80 82
48 77 70
48 76 92
50 79 76
54 85 108
51 81 84
50 80 80
47 76 72
51 82 80
52 82 94
48 77 74
51 80 94
48 77 80
51 82 90
47 75 70
47 74 74
50 80 80
48 77 78
48 77 74
49 77 78
50 79 77
48 77 74
46 72 76
47 74 72
46 74 67
49 77 88
46 73 67
46 73 67
49 78 81
45 71 70
47 75 70
45 71 70
42 66 57
70 88 54
93 107 18
98 110 0
93 106 0
101 114 0
107 121 0
104 118 0
125 141 0
110 123 0
113 128 0
118 131 0
123 137 0
115 130 0
120 135 0
122 136 0
118 131 0
114 128 0
122 136 0
120 136 0
119 134 0
115 129 0
122 133 0
123 137 0
134 148 0
120 135 0
126 141 0
118 131 0
121 132 0
133 146 0
123 135 0
130 142 0
124 134 0
121 131 0
131 143 0
129 137 0
128 139 0
135 148 0
118 129 0
124 136 0
128 139 0
126 135 0
132 139 0
129 139 0
137 148 0
132 141 0
133 140 0
128 135 0
130 136 0
132 141 0
130 137 0
117 121 0
100 97 16
90 81 16
83 78 11
75 70 11
84 79 0
84 77 11
92 87 14
97 91 14
90 86 0
99 93 11
88 81 8
99 94 0
99 93 0
104 99 0
104 97 0
99 93 8
105 100 8
94 91 2
94 88 8
102 98 0
114 108 0
101 98 0
107 103 0
103 98 0
104 99 11
116 110 0
112 106 0
106 99 11
115 112 16
106 101 14
113 109 8
112 106 11
107 103 11
120 113 16
108 104 0
123 117 22
115 110 11
117 112 11
125 120 11
117 111 11
118 114 16
121 115 11
120 115 22
118 113 16
119 114 22
121 116 19
126 121 22
119 114 19
128 122 19
132 127 0
125 118 22
132 125 19
127 121 16
136 129 36
122 117 16
135 129 19
138 130 28
134 128 19
124 118 30
126 120 19
130 124 28
130 124 25
129 124 34
129 123 16
140 135 28
132 126 22
130 125 19
138 131 22
131 126 22
133 128 34
139 133 28
134 127 37
137 130 34
129 124 25
145 138 34
131 127 34
126 121 32
134 127 32
127 122 25
131 125 34
137 129 25
135 128 37
130 124 34
135 128 34
136 130 36
132 125 39
136 130 41
136 131 37
130 125 37
134 127 34
138 131 47
134 128 37
139 133 39
131 125 41
135 129 39
128 122 32
131 126 39
134 128 28
137 131 47
131 125 32
127 123 25
136 128 42
139 134 42
142 137 53
133 126 42
139 133 45
137 131 44
129 123 37
135 130 41
138 132 45
136 129 48
119 115 37
137 132 42
134 127 45
129 123 41
130 124 39
124 118 47
126 120 39
133 126 49
137 132 52
124 118 42
128 122 45
137 131 48
150 169 0
151 171 0
152 172 0
151 172 0
152 172 0
148 170 0
150 170 0
151 170 0
150 170 0
151 171 0
152 172 0
148 168 0
151 172 0
153 172 0
149 168 0
147 167 0
151 170 0
146 165 0
152 171 0
148 167 0
149 169 0
149 169 0
148 167 0
147 167 0
150 169 0
147 166 0
152 171 0
146 166 0
143 161 0
146 165 0
148 167 0
148 167 0
147 166 0
149 168 0
147 166 0
145 164 0
145 165 0
144 164 0
142 161 0
142 162 0
147 166 0
141 160 0
144 164 0
143 163 0
146 166 0
145 164 0
143 161 0
140 158 0
142 161 0
142 160 0
137 155 0
145 163 0
141 160 0
142 161 0
144 161 0
142 161 0
140 160 0
142 160 0
141 159 0
141 159 0
137 155 0
141 160 0
139 157 0
132 150 0
137 154 0
138 157 0
136 154 0
138 157 0
137 155 0
142 160 0
142 160 0
133 150 0
135 153 0
137 155 0
141 157 0
136 153 0
138 155 0
132 150 0
131 149 0
135 152 0
135 153 0
124 142 0
135 153 0
126 144 0
128 146 0
133 150 0
125 143 0
133 151 0
129 145 0
133 150 0
123 140 0
119 134 0
126 143 0
127 143 0
128 145 0
116 132 0
125 141 0
121 136 0
124 141 0
114 129 0
125 140 0
127 143 0
114 130 0
122 138 0
115 131 0
113 128 0
115 131 0
115 129 0
104 119 0
109 124 0
118 132 0
104 120 0
99 113 0
104 117 0
106 119 0
103 116 0
92 104 0
98 111 0
89 101 0
91 102 0
92 102 0
111 124 0
133 149 0
136 152 0
131 147 0
141 159 0
139 156 0
129 146 0
131 147 0
137 154 0
135 152 0
131 148 0
125 142 0
136 152 0
131 148 0
128 145 0
136 152 0
131 149 0
129 146 0
124 141 0
121 138 0
131 149 0
125 143 0
128 146 0
128 147 0
138 156 0
123 141 0
128 147 0
127 145 0
124 142 0
125 143 0
114 131 0
126 145 0
128 147 0
123 141 0
142 161 0
121 139 0
118 135 0
124 143 0
126 145 0
124 142 0
102 119 0
112 130 0
130 149 0
112 130 0
104 120 0
119 136 0
105 122 0
94 110 0
112 129 0
101 116 0
103 120 0
95 110 0
98 114 0
74 91 40
56 76 40
46 74 54
47 75 71
50 78 76
46 74 62
50 80 78
49 78 70
46 73 67
49 78 78
49 77 65
50 80 84
48 76 70
48 77 78
50 79 74
49 78 78
45 73 65
49 78 78
49 79 72
48 77 74
49 78 82
49 77 84
48 76 70
47 76 67
51 81 72
49 79 72
52 82 90
48 76 78
48 76 72
51 80 92
48 77 70
48 77 84
50 79 92
51 81 88
50 80 84
49 77 84
46 73 74
48 77 72
49 77 72
45 72 67
48 76 80
49 76 74
46 73 67
46 73 78
49 78 65
47 74 70
43 68 60
45 72 67
45 71 63
42 67 62
61 82 57
91 105 26
104 116 0
89 102 0
109 124 0
104 117 0
104 118 0
109 122 0
102 114 0
122 135 0
103 116 0
107 119 0
115 130 0
114 129 0
108 123 0
116 132 0
118 132 0
122 131 0
120 132 0
118 132 0
120 133 0
126 139 0
120 132 0
128 141 0
120 133 0
128 141 0
119 133 0
122 134 0
125 140 0
121 135 0
128 140 0
109 120 0
116 125 0
119 131 0
122 132 0
128 140 0
124 136 0
121 131 0
129 139 0
116 123 0
109 117 0
129 140 0
126 133 0
127 135 0
129 135 0
135 142 0
128 135 0
125 130 0
132 137 0
130 137 0
130 136 0
131 138 0
128 134 0
122 129 0
100 103 0
89 81 19
74 69 16
91 83 16
103 96 16
67 63 0
82 77 0
100 95 16
86 81 0
89 83 0
86 81 0
90 86 0
82 79 8
104 100 0
95 90 8
99 94 0
97 92 0
101 95 0
106 100 8
95 90 8
100 97 0
107 102 0
111 106 0
102 98 0
105 101 8
113 107 0
108 102 11
114 108 11
110 105 0
113 108 0
112 109 0
111 107 0
124 117 0
111 107 14
114 109 16
123 117 16
111 106 16
111 105 11
115 109 11
118 113 16
119 114 11
113 107 16
122 117 0
121 115 16
116 109 0
123 118 19
120 114 19
130 125 22
127 122 16
128 122 11
127 122 19
115 110 11
128 122 22
123 117 19
132 126 25
120 115 16
126 120 11
124 119 25
127 121 16
127 121 19
124 118 25
138 133 32
130 125 22
136 130 30
128 122 30
133 128 32
126 120 30
136 130 32
138 132 25
131 125 30
129 123 32
140 135 37
135 128 34
134 126 32
138 131 34
133 126 36
133 127 22
143 136 51
136 129 37
135 130 32
134 127 34
134 127 37
131 123 39
141 135 32
135 129 30
123 117 28
128 122 39
133 128 32
138 133 41
130 125 28
134 129 30
134 130 36
142 137 34
137 131 41
127 122 25
146 137 51
140 133 47
137 130 44
130 122 41
140 135 30
139 134 44
134 128 42
135 127 42
139 132 49
140 134 47
138 131 45
127 123 32
132 126 45
134 129 45
129 124 45
134 128 44
135 130 37
128 123 36
131 125 37
130 124 39
127 122 39
124 119 36
134 127 42
132 125 44
127 120 49
133 127 49
131 125 37
149 169 0
146 165 0
146 166 0
150 170 0
152 172 0
150 169 0
151 170 0
152 172 0
148 168 0
149 168 0
146 165 0
152 172 0
148 167 0
148 168 0
149 169 0
149 169 0
150 170 0
150 170 0
152 171 0
149 169 0
148 167 0
152 171 0
148 168 0
146 166 0
150 170 0
148 167 0
148 167 0
146 164 0
147 166 0
146 164 0
146 166 0
149 167 0
144 162 0
145 164 0
150 169 0
147 166 0
144 162 0
147 166 0
146 165 0
150 169 0
147 166 0
146 165 0
142 161 0
149 168 0
147 166 0
145 164 0
145 165 0
140 158 0
144 163 0
140 158 0
143 162 0
143 161 0
146 164 0
138 155 0
140 159 0
140 158 0
143 162 0
138 157 0
145 163 0
144 162 0
142 161 0
133 150 0
139 158 0
138 157 0
140 158 0
141 160 0
138 156 0
135 152 0
136 153 0
138 156 0
139 157 0
140 157 0
133 151 0
136 153 0
136 153 0
137 155 0
137 156 0
125 142 0
134 151 0
132 149 0
133 151 0
134 151 0
136 154 0
128 146 0
128 145 0
133 150 0
135 151 0
124 141 0
134 150 0
121 136 0
128 145 0
122 139 0
131 148 0
127 144 0
132 148 0
130 146 0
123 139 0
113 128 0
127 144 0
121 136 0
116 132 0
124 139 0
105 120 0
126 141 0
110 124 0
112 127 0
114 129 0
117 131 0
118 131 0
111 124 0
111 126 0
105 118 0
108 121 0
113 127 0
98 111 0
100 112 0
93 104 0
91 103 0
95 106 0
101 112 0
126 141 0
135 151 0
125 140 0
126 142 0
123 138 0
130 146 0
123 138 0
132 149 0
131 147 0
130 146 0
121 138 0
133 150 0
125 142 0
126 142 0
127 143 0
133 151 0
135 152 0
127 145 0
113 129 0
139 157 0
128 145 0
132 149 0
125 143 0
139 157 0
133 150 0
129 148 0
121 139 0
127 144 0
119 136 0
126 143 0
125 142 0
124 142 0
118 136 0
123 139 0
118 136 0
118 135 0
122 140 0
119 137 0
121 139 0
111 128 0
117 134 0
123 142 0
105 122 0
114 131 0
125 144 0
115 134 0
105 122 0
108 125 0
112 129 0
104 121 0
96 111 0
103 119 0
93 109 0
93 108 0
99 114 0
90 104 0
76 91 31
46 71 67
44 70 64
46 74 67
45 72 72
45 72 67
47 75 67
47 76 65
46 74 70
47 76 67
47 75 74
49 77 86
47 75 70
45 73 60
49 78 80
48 76 74
48 77 78
48 76 80
48 77 65
50 80 82
50 80 82
47 75 74
48 77 80
48 76 77
50 79 76
48 77 70
48 77 74
51 81 76
48 77 84
46 74 65
48 78 70
44 71 54
51 81 78
44 71 67
44 70 62
46 72 78
48 77 75
46 72 74
46 74 74
47 73 76
46 73 65
46 73 75
44 69 51
44 71 67
41 65 60
44 70 54
48 68 51
73 86 25
90 101 0
96 109 0
92 104 0
88 100 0
95 108 0
112 126 0
97 109 0
107 120 0
120 135 0
111 124 0
120 133 0
116 130 0
119 133 0
122 138 0
109 119 0
126 139 0
109 122 0
125 139 0
119 134 0
105 118 0
110 122 0
131 143 0
116 130 0
125 138 0
130 145 0
131 146 0
118 132 0
124 135 0
120 131 0
117 129 0
123 135 0
120 128 0
115 126 0
121 132 0
114 126 0
115 129 0
123 134 0
127 138 0
124 133 0
123 134 0
128 137 0
115 124 0
129 139 0
122 131 0
123 131 0
113 118 0
114 120 0
124 132 0
119 123 0
132 139 0
124 130 0
124 131 0
120 125 0
123 130 0
133 136 0
111 111 0
95 92 11
91 84 16
78 72 19
100 92 18
85 80 0
94 85 0
91 85 11
97 92 8
85 80 0
97 91 0
85 79 0
102 98 0
91 86 0
91 83 11
97 90 0
96 90 0
101 94 0
96 90 0
90 87 0
109 104 0
97 90 0
102 97 0
95 90 0
98 92 0
107 100 0
110 105 0
111 107 0
114 108 0
104 98 0
115 108 0
108 102 0
110 105 0
113 106 0
117 112 0
113 108 0
118 111 0
117 113 16
121 116 0
120 112 11
122 116 11
112 108 11
115 110 0
117 111 16
121 116 19
118 112 0
128 123 0
130 125 19
115 108 16
128 121 0
125 118 16
121 116 11
136 130 25
133 126 19
131 123 16
128 123 25
134 128 22
122 115 25
124 119 25
133 127 28
136 130 19
131 124 22
128 123 19
124 118 25
129 121 28
137 130 32
122 117 28
128 123 30
120 114 22
124 118 22
132 127 25
134 128 34
124 119 30
122 116 22
140 132 22
125 120 28
131 126 32
126 121 28
142 135 48
135 128 36
138 129 36
127 121 30
140 134 30
133 127 32
133 127 41
132 126 28
133 128 37
134 129 37
131 126 36
130 124 34
135 128 44
142 136 44
123 118 30
137 131 30
120 114 30
130 124 25
137 133 34
139 135 32
134 128 37
129 125 30
134 126 39
128 123 30
132 125 39
132 125 39
134 128 36
122 117 30
128 121 37
133 128 36
121 116 32
133 126 37
128 121 41
132 127 34
129 123 42
130 124 44
128 124 37
130 123 39
126 120 41
130 125 41
133 127 41
127 122 37
139 132 47
148 167 0
144 164 0
151 170 0
146 165 0
150 170 0
148 167 0
149 169 0
150 169 0
151 171 0
152 172 0
150 170 0
149 168 0
148 169 0
150 169 0
152 171 0
146 165 0
148 169 0
149 168 0
147 166 0
149 169 0
151 170 0
150 169 0
148 167 0
150 169 0
144 163 0
146 165 0
143 162 0
146 165 0
148 167 0
146 165 0
149 168 0
147 166 0
144 163 0
146 166 0
146 164 0
149 168 0
147 166 0
144 162 0
144 163 0
145 164 0
147 166 0
142 161 0
143 161 0
138 156 0
146 166 0
142 161 0
142 162 0
143 161 0
138 156 0
141 160 0
141 159 0
139 157 0
144 162 0
145 164 0
143 161 0
141 158 0
138 155 0
140 158 0
141 159 0
135 152 0
139 157 0
142 161 0
138 157 0
138 157 0
141 159 0
138 155 0
138 156 0
135 152 0
137 155 0
137 155 0
136 154 0
138 155 0
135 152 0
135 153 0
130 148 0
135 152 0
134 152 0
138 155 0
132 149 0
134 151 0
134 152 0
134 151 0
130 147 0
130 146 0
128 146 0
125 142 0
129 146 0
133 148 0
131 148 0
122 138 0
123 139 0
122 138 0
127 143 0
124 141 0
121 135 0
117 131 0
120 136 0
117 132 0
119 134 0
116 131 0
121 136 0
118 134 0
109 124 0
114 128 0
106 120 0
110 124 0
115 130 0
112 125 0
117 131 0
97 110 0
95 108 0
94 107 0
103 116 0
92 104 0
98 110 0
95 107 0
86 96 0
100 111 0
113 126 0
127 142 0
122 136 0
121 136 0
123 138 0
132 148 0
132 148 0
121 137 0
127 142 0
128 143 0
125 141 0
123 139 0
117 134 0
121 137 0
119 135 0
120 137 0
127 145 0
125 141 0
127 144 0
133 150 0
117 133 0
119 136 0
120 136 0
118 135 0
123 139 0
127 145 0
118 135 0
135 152 0
121 139 0
115 133 0
118 136 0
121 139 0
112 130 0
129 147 0
125 142 0
122 140 0
126 144 0
123 142 0
116 134 0
114 131 0
118 135 0
124 143 0
117 135 0
102 118 0
90 107 0
105 123 0
95 111 0
106 122 0
105 121 0
109 125 0
102 117 0
114 131 0
95 110 0
110 126 0
93 109 0
102 117 0
93 109 0
90 106 0
88 102 0
92 107 0
83 100 18
60 82 57
42 68 60
45 71 67
41 67 59
47 74 74
45 73 65
42 68 51
43 69 51
46 75 65
46 74 57
48 77 67
45 72 59
45 72 78
46 75 76
46 73 70
44 71 65
44 71 44
45 72 65
46 73 60
47 75 70
46 73 70
51 81 74
46 73 80
47 75 60
48 76 65
46 74 65
50 78 82
46 73 72
50 80 92
45 72 65
47 75 67
48 76 90
45 72 72
47 74 80
48 76 76
48 76 79
45 72 67
42 67 57
45 71 63
44 70 57
42 67 54
56 74 44
71 84 36
96 108 18
89 99 0
83 95 0
87 97 0
80 92 0
103 115 0
107 120 0
104 117 0
102 115 0
98 110 0
107 120 0
105 118 0
114 129 0
106 119 0
110 123 0
111 126 0
115 128 0
114 127 0
111 124 0
115 129 0
110 123 0
115 128 0
121 134 0
123 134 0
106 119 0
123 135 0
115 124 0
117 129 0
112 121 0
130 144 0
108 120 0
121 134 0
121 134 0
116 127 0
127 141 0
120 131 0
117 128 0
122 133 0
123 134 0
115 126 0
121 132 0
121 131 0
116 119 0
119 126 0
112 118 0
120 128 0
117 123 0
119 125 0
121 128 0
124 130 0
117 116 0
113 119 0
120 124 0
103 108 0
116 119 0
121 126 0
117 119 0
124 126 0
115 119 0
111 110 11
89 80 16
71 65 11
81 74 0
78 73 0
86 80 11
84 76 0
90 83 0
88 83 0
90 84 0
103 97 0
92 87 0
87 81 0
97 91 0
98 90 0
101 95 0
99 92 0
89 86 0
103 96 0
105 98 0
107 101 0
109 102 0
95 91 0
94 90 0
117 111 0
101 96 0
106 99 0
110 103 0
114 109 0
111 108 0
106 100 0
119 113 0
110 104 0
110 105 0
117 111 11
118 113 11
116 110 0
118 112 11
124 117 16
123 118 0
131 125 19
114 106 0
119 115 0
116 110 11
123 115 16
125 118 11
115 111 16
126 118 22
123 117 32
121 115 25
130 126 16
133 126 22
125 117 25
122 115 16
125 119 32
128 121 22
121 115 25
129 122 19
131 124 25
120 116 16
128 121 22
124 119 19
126 121 19
124 118 25
130 125 22
125 119 16
124 117 30
134 129 25
122 116 25
129 122 25
134 130 37
129 125 28
130 125 22
126 121 22
128 123 30
130 124 30
131 125 32
133 126 28
141 135 36
123 116 32
122 117 19
124 119 22
135 128 36
129 122 34
135 127 28
128 122 28
131 126 28
133 126 34
131 125 34
132 124 42
132 125 32
123 118 30
129 124 19
130 125 30
124 119 32
133 126 37
127 121 36
129 121 41
138 132 44
139 133 45
132 126 34
136 129 41
126 120 39
121 115 36
130 124 39
136 129 41
126 121 34
133 127 49
137 129 48
134 127 47
134 128 41
131 124 47
130 123 44
129 124 44
131 125 36
125 120 32
129 122 44
134 127 49
135 128 48
146 166 0
147 166 0
148 167 0
150 170 0
146 165 0
149 168 0
149 169 0
151 171 0
147 166 0
150 169 0
149 168 0
149 169 0
149 169 0
148 169 0
146 165 0
152 171 0
148 168 0
148 168 0
152 171 0
148 167 0
149 168 0
150 168 0
153 173 0
144 163 0
146 166 0
148 167 0
151 169 0
147 166 0
147 166 0
147 166 0
151 170 0
144 163 0
145 163 0
146 165 0
142 161 0
147 166 0
145 165 0
140 158 0
140 158 0
146 164 0
144 163 0
145 164 0
146 164 0
141 159 0
145 164 0
142 161 0
140 158 0
143 162 0
140 158 0
140 158 0
141 159 0
141 159 0
140 158 0
139 157 0
143 161 0
145 163 0
138 156 0
141 160 0
140 159 0
144 163 0
141 159 0
132 150 0
139 156 0
143 161 0
134 151 0
139 157 0
134 152 0
137 154 0
138 155 0
139 156 0
141 160 0
133 150 0
142 161 0
128 144 0
140 157 0
131 148 0
138 156 0
134 151 0
132 149 0
127 144 0
136 152 0
124 140 0
132 148 0
127 143 0
130 147 0
126 143 0
132 149 0
125 140 0
128 144 0
131 147 0
123 140 0
120 136 0
122 137 0
125 140 0
119 134 0
123 138 0
120 135 0
121 136 0
122 138 0
122 137 0
127 142 0
114 129 0
117 131 0
109 123 0
116 130 0
107 121 0
113 127 0
109 123 0
102 115 0
108 122 0
97 109 0
103 114 0
104 117 0
80 91 0
86 96 0
86 96 0
93 104 0
123 136 0
116 130 0
126 141 0
127 143 0
125 139 0
132 148 0
122 137 0
126 142 0
119 134 0
122 137 0
129 144 0
104 118 0
118 133 0
115 130 0
135 151 0
126 143 0
116 132 0
127 143 0
122 138 0
117 133 0
126 142 0
121 137 0
130 148 0
129 146 0
114 130 0
111 125 0
132 150 0
113 130 0
134 152 0
133 151 0
129 146 0
124 141 0
115 132 0
113 129 0
112 129 0
124 142 0
123 141 0
123 140 0
113 131 0
121 137 0
103 120 0
113 129 0
109 127 0
117 134 0
118 135 0
116 134 0
109 125 0
101 117 0
112 129 0
113 128 0
100 115 0
107 124 0
99 114 0
101 115 0
93 109 0
101 116 0
86 101 0
98 111 0
100 115 0
81 95 0
76 89 0
88 101 0
70 83 0
66 80 18
50 69 51
43 70 62
42 68 51
44 71 56
42 68 70
46 73 76
44 71 44
41 66 60
43 69 74
45 72 65
48 77 72
46 73 78
50 80 90
45 73 54
47 75 62
46 74 76
44 72 67
45 72 74
46 74 70
45 73 70
45 72 62
46 74 80
43 68 67
46 74 74
45 71 72
45 73 65
45 71 70
45 72 67
42 67 65
45 72 72
44 70 67
45 71 62
47 74 72
39 62 57
41 65 54
45 71 77
42 64 47
62 78 44
69 79 25
74 85 0
87 98 0
68 78 0
75 85 0
83 96 0
92 103 0
88 101 0
85 96 0
102 115 0
104 115 0
100 112 0
88 99 0
99 110 0
98 112 0
102 112 0
111 123 0
106 119 0
118 133 0
104 115 0
110 122 0
115 129 0
118 131 0
114 126 0
120 134 0
125 138 0
108 121 0
120 132 0
121 135 0
129 143 0
109 123 0
118 132 0
119 132 0
126 139 0
121 132 0
121 133 0
113 124 0
106 117 0
121 132 0
122 133 0
113 122 0
125 133 0
108 119 0
130 142 0
107 113 0
125 135 0
116 124 0
126 134 0
124 130 0
123 132 0
119 127 0
120 125 0
108 113 0
123 129 0
127 131 0
119 124 0
119 125 0
123 127 0
106 110 0
116 119 0
119 122 0
125 125 0
119 119 0
113 113 0
93 88 11
82 74 11
79 72 0
85 78 11
81 76 8
86 81 0
93 86 0
95 89 14
89 84 0
88 81 8
91 83 0
94 90 0
98 92 0
92 86 0
91 85 0
103 97 0
94 88 0
95 90 0
104 97 0
105 99 0
104 98 0
106 101 0
97 93 0
110 103 0
106 101 0
108 104 0
104 99 0
123 117 0
120 113 0
110 104 0
116 108 0
116 109 0
117 112 16
105 99 0
110 104 11
119 114 0
114 109 11
128 121 16
120 115 11
108 102 0
123 117 11
125 119 0
132 124 22
123 116 19
122 116 16
124 118 11
124 118 16
121 116 16
124 118 22
117 113 16
120 114 19
130 123 16
129 122 25
128 122 22
119 115 16
122 117 22
124 117 22
128 122 25
131 126 19
124 118 30
133 129 30
134 127 32
131 124 19
128 121 32
131 125 30
120 114 19
133 128 36
129 124 19
130 125 25
134 128 36
134 128 34
133 127 25
127 121 32
133 128 34
128 121 30
138 132 39
127 122 30
140 133 30
126 120 16
134 126 34
132 125 32
132 126 34
139 130 42
135 128 44
130 124 30
132 126 37
131 125 32
132 126 39
135 128 37
132 125 39
133 127 30
125 120 30
138 132 36
128 123 28
132 126 37
134 127 37
130 124 37
128 123 41
125 119 34
128 122 44
131 124 36
126 120 41
135 128 39
129 122 41
132 125 47
131 123 37
130 123 42
134 127 41
139 133 53
133 127 42
129 124 42
124 118 41
125 120 39
130 123 52
122 116 34
135 129 37
123 115 45
139 157 0
141 160 0
143 160 0
145 164 0
144 163 0
148 167 0
141 159 0
147 166 0
145 163 0
148 167 0
149 169 0
151 170 0
147 166 0
147 166 0
146 164 0
150 170 0
152 171 0
149 168 0
148 167 0
149 167 0
149 168 0
150 168 0
151 170 0
147 167 0
146 165 0
146 165 0
147 165 0
144 161 0
146 166 0
144 163 0
146 164 0
143 162 0
143 161 0
147 165 0
146 165 0
144 163 0
149 167 0
141 159 0
148 167 0
142 161 0
144 163 0
144 162 0
141 160 0
137 155 0
145 164 0
147 165 0
145 163 0
139 157 0
145 163 0
141 159 0
140 157 0
143 162 0
134 152 0
138 156 0
142 160 0
136 153 0
140 158 0
134 154 0
141 159 0
136 154 0
139 156 0
137 155 0
133 151 0
137 155 0
138 156 0
139 157 0
139 156 0
127 143 0
139 157 0
134 151 0
139 157 0
134 151 0
136 152 0
131 147 0
133 149 0
132 149 0
136 153 0
134 151 0
136 152 0
126 142 0
129 145 0
128 145 0
131 148 0
127 143 0
129 144 0
120 136 0
129 146 0
127 143 0
121 137 0
130 147 0
121 136 0
125 141 0
117 133 0
118 132 0
121 137 0
122 137 0
118 133 0
116 131 0
122 136 0
116 131 0
121 136 0
118 133 0
123 137 0
113 127 0
110 124 0
109 122 0
105 118 0
99 112 0
97 110 0
101 113 0
95 107 0
84 95 0
90 101 0
91 102 0
86 97 0
115 128 0
116 130 0
125 138 0
124 139 0
123 137 0
128 142 0
117 131 0
124 139 0
124 140 0
119 134 0
117 132 0
123 139 0
122 139 0
125 140 0
121 136 0
122 138 0
119 134 0
133 149 0
121 137 0
117 133 0
128 145 0
130 146 0
114 131 0
120 136 0
123 139 0
127 145 0
123 140 0
127 145 0
109 125 0
123 140 0
126 144 0
116 132 0
122 138 0
122 140 0
119 135 0
126 144 0
119 137 0
118 135 0
117 135 0
124 141 0
105 120 0
118 136 0
118 135 0
118 136 0
122 139 0
121 138 0
110 126 0
115 132 0
102 117 0
112 129 0
91 106 0
88 103 0
104 119 0
102 117 0
99 115 0
105 121 0
105 120 0
84 98 0
80 94 0
96 111 0
91 105 0
85 100 0
95 109 0
82 96 0
85 98 0
82 94 0
77 89 0
63 74 25
56 70 31
50 69 40
39 63 47
38 62 47
42 68 60
42 67 64
44 69 70
48 76 78
40 65 74
48 77 74
45 72 65
44 71 67
43 70 60
41 66 44
46 74 67
41 67 47
43 68 65
44 71 72
43 69 65
47 75 67
45 73 72
45 72 74
43 68 51
45 72 72
45 72 72
42 68 47
46 73 60
42 68 65
45 72 65
44 69 72
41 67 54
48 71 60
54 71 41
54 67 25
74 82 18
61 72 0
64 74 0
71 80 0
79 89 0
80 92 0
86 96 0
73 82 0
88 99 0
87 99 0
86 97 0
105 117 0
100 111 0
88 100 0
106 118 0
108 118 0
92 104 0
120 132 0
105 117 0
100 111 0
100 114 0
116 131 0
106 119 0
114 128 0
104 118 0
114 128 0
117 131 0
115 126 0
123 136 0
100 114 0
121 134 0
118 129 0
119 132 0
118 132 0
119 133 0
108 120 0
116 128 0
120 131 0
112 125 0
105 114 0
125 137 0
122 133 0
115 125 0
122 133 0
116 124 0
112 119 0
114 120 0
122 132 0
112 122 0
123 129 0
120 127 0
116 124 0
129 136 0
109 116 0
112 117 0
114 121 0
119 124 0
129 136 0
113 118 0
107 109 0
117 122 0
111 114 0
107 107 0
123 124 0
109 108 0
119 122 0
102 101 0
99 100 0
87 83 16
74 65 0
91 87 16
86 77 11
76 69 14
83 75 0
81 74 16
87 79 0
91 86 0
105 97 0
97 89 0
82 76 0
81 75 0
97 90 0
104 96 0
83 77 8
96 90 8
98 91 0
98 92 0
100 94 0
111 104 0
111 104 0
110 104 0
112 106 0
100 94 0
108 101 0
109 103 0
99 93 0
113 107 11
113 106 11
116 110 0
113 108 0
104 98 0
121 116 0
112 104 0
118 111 0
117 110 0
114 110 0
122 116 11
125 118 22
123 117 11
122 116 11
121 114 16
114 108 0
123 117 19
118 113 16
120 114 25
112 108 11
111 104 16
122 118 25
126 120 25
127 121 22
121 113 16
126 121 19
128 123 22
130 124 25
129 123 22
131 125 22
119 115 16
120 112 25
124 119 25
126 119 28
123 117 16
136 128 22
128 123 30
123 115 22
134 126 34
127 121 25
129 124 22
126 121 25
137 129 37
127 121 32
128 121 34
125 119 36
128 122 34
133 127 28
125 119 16
118 112 16
128 122 32
127 121 28
129 123 34
133 128 25
125 120 30
122 117 34
127 121 28
131 125 37
130 123 39
129 123 37
119 113 32
126 122 36
130 124 30
137 130 37
128 122 41
124 119 34
127 122 25
125 119 30
129 123 30
130 124 37
126 119 45
124 118 37
131 124 39
119 113 30
124 119 37
126 120 32
135 128 44
130 124 44
132 127 39
128 120 41
128 123 36
113 108 34
129 123 41
121 116 37
126 117 39
138 130 51
136 129 41
136 153 0
136 155 0
140 158 0
139 157 0
148 168 0
143 162 0
148 167 0
145 164 0
146 164 0
148 167 0
146 166 0
149 169 0
147 167 0
150 169 0
147 166 0
150 170 0
148 167 0
148 167 0
151 170 0
151 170 0
146 165 0
147 166 0
145 165 0
148 167 0
144 163 0
141 159 0
145 163 0
141 160 0
144 163 0
147 165 0
147 166 0
146 163 0
145 162 0
148 168 0
140 158 0
143 163 0
147 166 0
142 160 0
143 161 0
139 156 0
143 161 0
143 162 0
147 166 0
145 164 0
140 158 0
142 160 0
144 162 0
142 160 0
137 156 0
137 154 0
142 161 0
144 163 0
134 151 0
135 152 0
136 154 0
139 158 0
141 159 0
139 156 0
138 154 0
137 153 0
139 156 0
135 153 0
139 157 0
136 154 0
136 154 0
140 158 0
135 152 0
135 153 0
139 157 0
135 152 0
131 148 0
133 151 0
134 151 0
131 148 0
129 145 0
133 150 0
135 152 0
128 144 0
127 144 0
128 144 0
127 143 0
132 147 0
126 142 0
129 146 0
132 148 0
127 144 0
127 143 0
137 153 0
112 128 0
127 143 0
129 145 0
121 135 0
118 134 0
114 129 0
128 142 0
115 130 0
121 135 0
115 130 0
119 133 0
118 132 0
109 123 0
117 132 0
109 123 0
108 121 0
103 117 0
100 112 0
98 110 0
100 113 0
100 112 0
92 102 0
87 97 0
90 100 0
83 93 0
100 112 0
108 120 0
119 133 0
118 132 0
112 125 0
115 128 0
114 126 0
118 132 0
117 131 0
108 123 0
125 139 0
111 126 0
118 133 0
116 131 0
120 135 0
116 132 0
111 128 0
125 141 0
126 141 0
125 141 0
125 142 0
119 136 0
134 151 0
122 138 0
129 146 0
111 127 0
132 149 0
121 137 0
116 133 0
113 130 0
121 136 0
120 139 0
126 143 0
127 144 0
134 153 0
123 141 0
125 142 0
121 139 0
113 131 0
130 147 0
104 121 0
123 140 0
105 123 0
113 130 0
122 138 0
111 127 0
110 127 0
125 142 0
109 126 0
115 132 0
104 120 0
93 110 0
106 122 0
101 117 0
102 119 0
103 119 0
100 115 0
99 115 0
98 114 0
90 105 0
87 102 0
89 102 0
88 102 0
88 101 0
92 107 0
77 91 0
91 105 0
81 94 0
74 85 0
67 80 0
71 82 0
75 88 0
72 85 18
62 73 18
48 66 40
55 73 40
40 64 60
39 64 47
42 67 57
40 64 57
43 69 44
44 71 50
40 65 60
42 68 67
43 69 64
38 62 44
44 70 80
45 73 60
43 70 65
41 66 51
41 65 51
43 68 62
45 72 65
42 67 60
43 69 65
38 61 51
36 59 45
39 63 45
44 64 54
45 61 48
70 82 25
73 82 0
54 66 0
72 81 0
62 72 0
64 75 0
78 87 0
72 82 0
75 87 0
74 85 0
87 98 0
91 103 0
94 104 0
97 109 0
91 104 0
94 106 0
95 106 0
99 113 0
113 127 0
103 115 0
92 104 0
104 115 0
93 105 0
108 120 0
123 138 0
109 121 0
104 118 0
117 131 0
101 113 0
113 125 0
104 116 0
115 129 0
107 122 0
119 131 0
105 116 0
120 133 0
104 117 0
114 124 0
112 126 0
109 119 0
124 137 0
121 132 0
118 129 0
129 141 0
126 136 0
113 125 0
121 130 0
111 121 0
109 118 0
115 126 0
110 119 0
110 115 0
116 123 0
117 124 0
118 127 0
112 119 0
111 116 0
108 112 0
112 116 0
118 123 0
116 124 0
118 123 0
115 121 0
107 112 0
108 114 0
98 101 0
103 106 0
115 119 0
103 104 0
102 103 0
110 113 0
108 110 0
109 106 0
90 87 11
87 80 11
81 73 11
84 78 0
74 68 11
88 80 0
89 82 11
102 94 0
100 91 11
88 82 0
87 80 0
98 90 0
91 84 0
107 99 0
100 93 0
100 95 0
104 96 0
106 98 0
95 88 0
115 108 0
104 98 0
102 94 0
105 98 0
97 90 0
102 96 0
102 95 0
107 101 0
113 106 0
109 101 0
111 104 0
108 103 0
106 101 0
109 104 0
110 104 0
119 113 0
115 107 0
113 106 0
115 110 0
118 111 11
117 112 0
115 110 16
116 112 11
114 107 16
124 118 16
125 117 19
119 112 0
120 114 11
125 121 16
119 112 11
117 111 16
117 112 0
126 119 30
115 109 19
122 116 11
120 115 16
133 126 28
126 118 19
125 117 22
129 124 25
127 120 28
126 119 25
125 119 34
125 120 30
134 128 25
128 120 28
125 119 28
128 122 22
124 118 16
125 117 32
126 120 30
133 126 32
131 125 37
123 117 28
125 119 28
121 115 19
133 127 22
126 119 32
129 122 30
136 129 41
132 125 25
134 128 34
113 107 16
129 123 22
126 120 34
128 123 22
120 115 16
132 127 19
122 115 34
129 123 32
136 130 30
124 118 32
128 122 28
127 121 34
125 119 37
133 126 37
130 124 19
125 119 34
130 124 32
134 127 41
129 123 36
140 133 42
130 125 44
117 112 37
123 118 32
121 114 32
125 119 28
132 125 45
138 130 44
119 114 28
122 116 34
116 111 32
127 120 42
133 126 42
139 132 45
138 156 0
137 156 0
139 156 0
139 156 0
147 166 0
140 159 0
139 156 0
140 157 0
141 158 0
147 165 0
142 161 0
141 159 0
148 168 0
146 164 0
152 171 0
148 167 0
146 165 0
149 167 0
147 166 0
149 168 0
146 165 0
143 161 0
142 160 0
145 163 0
145 162 0
147 166 0
146 165 0
148 166 0
144 162 0
145 163 0
143 162 0
144 162 0
146 164 0
144 162 0
148 167 0
143 162 0
147 165 0
143 162 0
146 165 0
147 166 0
145 164 0
143 161 0
140 159 0
142 161 0
141 159 0
143 161 0
141 159 0
136 154 0
139 157 0
143 160 0
146 163 0
138 155 0
141 159 0
138 156 0
143 161 0
138 156 0
139 157 0
135 152 0
142 159 0
137 155 0
131 148 0
139 157 0
133 150 0
136 153 0
138 155 0
138 154 0
134 151 0
135 152 0
132 150 0
133 149 0
134 150 0
134 150 0
135 151 0
138 155 0
133 149 0
128 144 0
125 141 0
130 146 0
132 148 0
125 141 0
131 147 0
125 140 0
130 146 0
132 148 0
128 144 0
124 140 0
132 147 0
126 141 0
126 141 0
123 138 0
128 143 0
125 140 0
120 135 0
122 138 0
122 136 0
117 131 0
114 128 0
112 126 0
122 137 0
114 128 0
112 125 0
107 121 0
102 114 0
100 112 0
92 104 0
102 113 0
95 107 0
91 103 0
74 84 0
83 93 0
84 94 0
97 108 0
108 120 0
114 126 0
107 119 0
110 124 0
107 120 0
120 134 0
117 131 0
103 116 0
108 121 0
105 119 0
103 118 0
126 141 0
116 132 0
115 130 0
122 137 0
120 135 0
127 142 0
111 127 0
119 135 0
119 135 0
119 136 0
123 140 0
124 140 0
124 141 0
123 140 0
115 131 0
127 144 0
116 133 0
119 136 0
130 148 0
116 133 0
121 138 0
121 138 0
131 148 0
126 143 0
125 143 0
114 132 0
110 127 0
121 139 0
126 144 0
124 141 0
113 130 0
109 126 0
134 152 0
112 128 0
125 142 0
118 135 0
108 125 0
110 127 0
102 118 0
110 126 0
105 122 0
114 130 0
109 125 0
107 122 0
98 115 0
96 111 0
106 121 0
95 112 0
104 119 0
88 101 0
83 97 0
83 97 0
84 98 0
87 101 0
90 103 0
78 92 0
87 101 0
72 83 0
81 94 0
65 78 0
78 93 0
71 83 0
81 92 0
63 73 0
81 92 0
62 72 0
53 61 18
67 79 18
45 60 36
45 61 31
38 56 47
41 62 40
43 63 57
42 63 47
38 61 40
40 65 54
38 62 60
41 65 54
39 62 60
35 57 31
38 61 51
37 59 47
46 65 54
46 63 36
44 62 51
47 60 31
47 58 18
39 49 0
59 68 0
68 78 0
61 72 0
59 70 0
70 81 0
61 72 0
68 77 0
64 72 0
72 83 0
82 92 0
77 90 0
90 101 0
93 104 0
83 94 0
88 97 0
87 98 0
91 103 0
91 103 0
98 109 0
104 117 0
101 113 0
111 124 0
101 114 0
99 110 0
115 129 0
104 118 0
105 118 0
117 129 0
105 118 0
111 120 0
110 120 0
112 122 0
116 131 0
117 130 0
107 119 0
119 133 0
120 132 0
109 122 0
113 123 0
108 119 0
112 126 0
124 136 0
108 120 0
113 122 0
116 128 0
123 135 0
120 130 0
113 119 0
114 125 0
123 135 0
112 121 0
120 133 0
107 118 0
114 124 0
116 124 0
125 134 0
120 128 0
114 122 0
120 127 0
117 121 0
112 118 0
110 114 0
115 123 0
108 110 0
113 118 0
99 103 0
101 104 0
105 107 0
114 119 0
105 106 0
101 103 0
103 106 0
102 105 0
97 98 0
94 92 0
107 106 0
105 104 0
96 92 16
71 65 0
77 69 11
84 76 0
88 81 11
80 70 0
88 80 11
89 81 0
88 81 0
94 85 11
92 83 0
98 93 0
89 81 0
104 97 0
102 92 0
96 89 0
106 98 0
92 84 0
108 101 0
103 97 0
105 98 0
103 97 0
95 88 0
108 101 0
109 103 0
104 98 0
111 104 0
109 103 0
111 105 0
112 105 0
110 102 0
109 103 0
108 101 0
116 109 0
110 104 11
122 114 16
111 106 11
113 105 0
122 116 0
122 114 19
107 100 0
122 116 11
105 99 11
128 121 11
118 112 16
126 121 19
126 120 22
120 115 11
127 119 16
115 109 16
122 114 0
123 116 19
122 117 0
124 118 28
125 118 16
132 125 28
127 120 19
129 123 22
127 122 16
126 121 16
118 113 19
124 118 25
129 123 16
134 128 19
124 118 34
115 110 22
119 115 16
130 122 28
115 109 11
122 114 25
132 126 32
122 117 25
129 122 30
125 118 30
125 120 37
127 121 30
123 116 19
134 128 28
132 126 25
125 119 28
129 123 34
134 127 34
126 120 32
128 121 39
132 126 39
125 118 19
124 118 37
125 120 30
131 125 42
122 115 34
132 123 37
123 116 32
129 122 39
124 117 39
121 114 36
120 114 36
126 120 36
131 125 45
125 118 36
123 118 41
127 121 41
123 118 37
125 118 30
124 119 34
126 120 44
121 114 34
130 124 34
127 122 36
126 119 42
123 119 37
124 118 37
127 120 32
136 153 0
136 153 0
138 155 0
137 154 0
139 156 0
142 161 0
141 159 0
143 162 0
140 158 0
143 162 0
144 163 0
145 163 0
147 166 0
140 159 0
142 160 0
146 165 0
148 166 0
147 166 0
149 167 0
149 168 0
145 163 0
150 169 0
148 167 0
149 168 0
148 167 0
147 165 0
144 162 0
146 164 0
143 162 0
148 166 0
149 167 0
149 168 0
142 161 0
144 163 0
144 162 0
141 159 0
144 162 0
146 164 0
141 159 0
139 157 0
137 155 0
145 164 0
140 157 0
143 161 0
146 164 0
143 161 0
144 162 0
134 151 0
140 157 0
140 158 0
143 161 0
141 159 0
140 157 0
139 156 0
140 157 0
138 156 0
140 157 0
139 157 0
138 155 0
137 155 0
139 157 0
138 154 0
137 153 0
129 146 0
135 153 0
130 146 0
141 158 0
136 153 0
133 149 0
137 153 0
132 149 0
138 155 0
127 142 0
134 151 0
128 144 0
133 149 0
124 139 0
127 142 0
132 147 0
129 146 0
125 141 0
121 137 0
127 143 0
122 138 0
124 139 0
128 144 0
117 132 0
126 142 0
128 144 0
118 133 0
125 140 0
127 141 0
118 133 0
114 129 0
119 134 0
115 131 0
116 130 0
116 130 0
114 127 0
115 128 0
112 125 0
100 112 0
102 115 0
107 119 0
99 111 0
95 106 0
91 101 0
86 96 0
82 91 0
86 96 0
103 115 0
100 111 0
109 121 0
107 120 0
114 127 0
104 116 0
122 136 0
110 123 0
112 125 0
119 132 0
111 126 0
116 130 0
113 127 0
113 128 0
124 139 0
112 126 0
116 130 0
126 142 0
120 135 0
116 132 0
119 135 0
122 137 0
128 144 0
121 137 0
123 140 0
118 134 0
120 136 0
114 130 0
119 135 0
123 140 0
114 130 0
114 131 0
116 133 0
128 145 0
115 133 0
115 132 0
123 140 0
121 139 0
122 139 0
112 129 0
124 143 0
114 131 0
121 139 0
113 130 0
125 141 0
112 130 0
111 129 0
115 133 0
117 134 0
106 123 0
114 130 0
118 134 0
115 131 0
104 121 0
103 120 0
109 126 0
113 129 0
98 113 0
103 118 0
99 115 0
94 109 0
98 114 0
108 124 0
90 105 0
83 98 0
93 109 0
82 96 0
85 98 0
81 95 0
78 92 0
86 100 0
72 85 0
68 81 0
81 93 0
80 93 0
68 79 0
67 79 0
62 72 0
68 77 0
74 85 0
65 74 0
44 53 0
54 63 0
53 63 0
36 45 0
62 71 0
56 63 0
40 46 0
62 72 0
43 54 18
48 56 0
46 55 0
30 37 0
46 56 0
65 75 0
58 67 0
58 68 0
46 54 0
46 54 0
58 68 0
53 62 0
60 68 0
57 67 0
50 60 0
81 91 0
70 79 0
79 90 0
90 101 0
84 92 0
59 70 0
81 91 0
74 87 0
85 97 0
95 106 0
82 92 0
76 87 0
83 94 0
89 101 0
93 105 0
83 97 0
105 118 0
101 112 0
113 127 0
102 114 0
103 115 0
113 126 0
109 123 0
104 117 0
115 129 0
106 118 0
107 117 0
104 114 0
111 123 0
117 129 0
123 137 0
106 119 0
123 133 0
113 128 0
108 119 0
119 131 0
118 130 0
116 128 0
118 130 0
108 120 0
117 129 0
126 137 0
113 124 0
122 133 0
123 133 0
124 135 0
119 129 0
117 128 0
113 122 0
117 125 0
116 125 0
115 123 0
126 135 0
113 119 0
118 128 0
111 117 0
108 116 0
117 124 0
117 120 0
111 116 0
111 115 0
115 118 0
120 126 0
99 103 0
103 106 0
105 107 0
116 118 0
105 107 0
106 105 0
108 108 0
103 102 0
90 87 0
96 95 0
91 89 0
101 101 0
94 90 0
81 73 11
64 58 0
73 66 0
72 63 11
86 77 0
82 78 0
83 73 0
91 82 11
90 83 0
89 82 0
89 82 0
91 84 0
85 79 0
100 93 0
98 91 0
92 83 0
105 98 0
92 84 0
99 91 0
106 100 0
109 102 0
111 104 0
100 91 0
104 98 0
106 101 0
118 111 0
110 102 0
109 101 0
107 101 0
111 104 0
109 104 0
121 115 11
111 105 11
109 102 0
124 115 11
105 98 11
123 116 11
119 113 19
113 107 16
125 117 0
114 108 0
114 108 11
119 112 11
109 103 0
127 120 16
121 113 28
117 111 16
121 115 16
117 110 16
125 117 30
119 113 11
119 112 19
123 118 16
113 107 16
129 123 25
122 117 16
121 115 16
122 115 11
123 116 11
120 113 16
124 119 22
125 119 32
125 119 28
126 119 16
125 118 30
123 117 16
118 112 25
116 109 19
120 114 22
127 120 28
118 112 22
124 117 28
125 119 34
125 119 25
123 116 32
129 122 25
127 121 34
125 118 36
132 126 39
125 118 28
130 124 22
131 124 32
116 110 25
121 114 22
125 117 32
134 128 41
135 129 36
131 125 25
124 118 32
118 113 22
133 128 32
125 118 30
125 117 39
122 115 37
125 120 41
131 124 39
126 118 36
128 121 42
130 123 37
111 104 25
121 113 37
134 127 41
127 119 36
121 115 37
118 113 22
118 112 30
134 127 42
125 117 37
129 121 42
118 112 28
132 150 0
125 142 0
137 155 0
138 156 0
138 156 0
133 152 0
143 161 0
137 155 0
140 158 0
138 155 0
139 157 0
140 158 0
140 157 0
146 165 0
144 163 0
147 165 0
141 160 0
141 159 0
144 162 0
147 166 0
148 167 0
144 162 0
147 165 0
149 166 0
149 167 0
145 163 0
143 162 0
145 163 0
150 169 0
144 162 0
142 160 0
141 159 0
143 161 0
146 165 0
137 155 0
141 158 0
144 162 0
143 160 0
143 161 0
145 163 0
142 160 0
141 159 0
141 158 0
140 157 0
142 159 0
144 162 0
142 159 0
138 154 0
144 162 0
141 159 0
141 159 0
145 162 0
140 157 0
136 153 0
138 154 0
138 155 0
134 151 0
134 150 0
142 158 0
142 158 0
137 154 0
132 149 0
130 146 0
130 146 0
138 154 0
131 148 0
126 142 0
134 150 0
130 145 0
127 143 0
130 147 0
131 147 0
126 141 0
129 146 0
135 151 0
136 152 0
140 156 0
121 136 0
128 143 0
129 144 0
132 147 0
124 139 0
119 133 0
116 131 0
133 148 0
125 140 0
121 136 0
120 134 0
125 140 0
119 134 0
124 139 0
116 130 0
117 130 0
110 125 0
115 129 0
114 127 0
107 120 0
98 111 0
95 107 0
106 119 0
95 107 0
99 111 0
103 114 0
102 113 0
85 96 0
79 89 0
83 93 0
87 97 0
102 112 0
104 115 0
105 117 0
104 116 0
103 115 0
108 120 0
105 116 0
112 125 0
116 128 0
116 129 0
113 127 0
111 125 0
118 132 0
104 117 0
110 124 0
110 124 0
117 130 0
117 132 0
112 126 0
113 127 0
119 134 0
134 150 0
111 125 0
128 144 0
114 130 0
122 138 0
120 137 0
117 134 0
127 146 0
122 139 0
122 139 0
123 140 0
124 141 0
124 140 0
123 139 0
121 138 0
118 135 0
110 127 0
123 141 0
117 133 0
113 131 0
122 139 0
124 142 0
122 140 0
110 126 0
109 126 0
111 129 0
120 137 0
120 138 0
116 134 0
109 126 0
120 138 0
100 116 0
106 123 0
109 128 0
109 126 0
103 118 0
113 128 0
98 114 0
114 130 0
94 110 0
109 125 0
96 111 0
92 108 0
101 116 0
89 104 0
95 111 0
101 116 0
89 104 0
93 106 0
95 109 0
88 102 0
71 84 0
84 96 0
81 94 0
80 92 0
72 84 0
62 74 0
70 83 0
85 97 0
61 73 0
77 88 0
55 67 0
76 88 0
59 70 0
66 77 0
61 70 0
44 53 0
72 81 0
72 82 0
56 66 0
66 75 0
46 55 0
63 72 0
74 82 0
57 66 0
49 58 0
49 59 0
64 73 0
62 70 0
72 83 0
66 76 0
59 69 0
71 81 0
66 74 0
75 85 0
73 82 0
69 83 0
75 84 0
81 92 0
86 95 0
81 93 0
94 105 0
102 115 0
79 89 0
88 99 0
86 98 0
89 100 0
90 101 0
92 105 0
98 110 0
88 98 0
95 107 0
100 111 0
107 118 0
117 129 0
113 127 0
115 127 0
111 123 0
105 118 0
116 129 0
103 116 0
106 120 0
106 121 0
110 123 0
115 127 0
117 127 0
106 119 0
125 137 0
118 132 0
123 135 0
107 120 0
122 136 0
115 128 0
120 131 0
117 129 0
117 131 0
111 123 0
109 121 0
111 123 0
119 127 0
106 116 0
119 129 0
125 136 0
106 115 0
114 122 0
111 119 0
128 139 0
131 137 0
117 125 0
106 116 0
110 114 0
124 130 0
115 120 0
118 123 0
113 117 0
112 117 0
121 127 0
111 116 0
105 109 0
112 116 0
111 117 0
99 100 0
98 100 0
106 108 0
107 106 0
98 95 0
102 99 0
94 93 0
86 85 0
96 95 0
96 94 0
110 108 0
87 83 0
80 78 0
79 73 0
80 71 11
80 70 0
85 78 0
78 71 0
88 79 0
85 77 0
87 78 0
79 70 0
95 88 0
99 91 0
91 83 0
87 79 0
107 99 0
94 88 0
100 93 0
106 96 0
99 92 0
109 101 0
101 95 0
97 91 0
98 91 0
104 96 0
103 95 0
122 114 0
109 100 0
105 98 0
100 94 0
101 97 0
114 106 0
105 98 0
110 102 0
119 111 0
112 105 0
114 108 0
108 101 0
111 103 11
104 98 11
113 107 0
111 104 0
116 108 22
117 109 16
126 117 22
116 109 16
115 109 11
116 109 16
119 111 19
113 106 16
122 113 16
119 112 22
120 112 19
124 117 11
121 115 22
117 109 16
122 116 11
118 112 16
127 120 28
125 118 25
120 112 22
124 117 28
121 113 22
126 119 32
126 121 25
127 120 22
126 120 22
135 128 41
125 118 22
126 120 22
124 118 25
129 122 34
105 100 25
130 122 42
117 110 28
125 119 30
123 118 32
129 121 34
121 114 34
130 124 34
124 117 30
128 121 32
134 128 34
124 117 28
127 122 28
125 119 37
130 123 44
126 117 36
131 126 32
122 116 30
130 124 34
126 120 36
131 123 36
127 121 36
125 118 30
127 120 34
123 117 28
122 116 36
116 112 34
124 121 30
125 119 42
123 116 39
131 123 41
137 129 45
121 115 36
125 117 42
130 123 44
113 107 37
120 114 37
122 138 22
128 145 0
133 150 0
136 153 0
137 155 0
140 158 0
137 155 0
136 154 0
137 155 0
135 152 0
142 161 0
139 157 0
146 164 0
137 155 0
140 159 0
133 150 0
144 162 0
143 160 0
143 161 0
144 162 0
145 162 0
144 162 0
146 164 0
145 163 0
142 161 0
148 165 0
144 164 0
143 161 0
149 166 0
146 165 0
142 160 0
144 162 0
147 165 0
142 159 0
144 161 0
142 159 0
144 162 0
147 165 0
142 159 0
141 159 0
142 160 0
140 158 0
146 163 0
146 165 0
138 156 0
138 156 0
141 159 0
144 160 0
137 154 0
140 156 0
137 154 0
139 157 0
136 153 0
139 155 0
138 155 0
136 153 0
135 152 0
140 157 0
139 156 0
134 150 0
135 152 0
136 153 0
138 155 0
137 152 0
138 154 0
134 150 0
135 152 0
131 147 0
135 152 0
136 152 0
140 157 0
126 141 0
130 145 0
126 141 0
135 151 0
133 149 0
123 139 0
126 141 0
124 139 0
130 145 0
128 144 0
124 139 0
121 135 0
121 137 0
121 135 0
126 141 0
119 134 0
127 140 0
122 135 0
112 125 0
126 140 0
120 133 0
104 117 0
112 125 0
109 120 0
98 110 0
112 125 0
92 104 0
101 113 0
94 104 0
96 106 0
89 99 0
81 91 0
66 75 0
85 94 0
89 98 0
102 112 0
100 111 0
104 115 0
104 115 0
108 120 0
102 113 0
110 122 0
118 130 0
96 108 0
107 120 0
118 132 0
116 131 0
111 125 0
113 127 0
109 123 0
123 137 0
118 133 0
124 140 0
119 134 0
120 135 0
127 143 0
118 133 0
120 135 0
132 149 0
125 140 0
125 141 0
124 140 0
125 142 0
130 148 0
125 141 0
126 143 0
120 137 0
120 137 0
122 139 0
116 133 0
124 141 0
136 154 0
98 115 0
133 152 0
115 133 0
119 136 0
115 132 0
127 143 0
124 141 0
125 142 0
125 143 0
114 131 0
115 133 0
116 133 0
128 146 0
119 136 0
114 131 0
125 144 0
109 126 0
106 123 0
106 123 0
120 137 0
111 128 0
106 123 0
113 130 0
103 119 0
107 123 0
113 130 0
86 103 0
105 120 0
104 118 0
93 108 0
92 107 0
100 115 0
102 117 0
116 132 0
95 111 0
83 98 0
89 102 0
95 109 0
80 94 0
81 96 0
73 87 0
81 96 0
73 86 0
76 90 0
82 96 0
80 93 0
70 83 0
71 84 0
70 80 0
73 85 0
86 98 0
63 74 0
63 72 0
59 70 0
81 92 0
65 77 0
74 84 0
74 86 0
69 80 0
63 71 0
71 82 0
79 90 0
78 89 0
59 69 0
65 76 0
78 89 0
63 74 0
80 93 0
74 83 0
83 94 0
85 96 0
82 93 0
86 98 0
77 89 0
65 76 0
96 108 0
101 114 0
86 98 0
96 108 0
93 106 0
98 111 0
91 102 0
96 109 0
92 105 0
90 101 0
93 106 0
101 112 0
90 101 0
107 119 0
95 107 0
97 110 0
97 108 0
105 118 0
109 123 0
109 121 0
101 115 0
108 119 0
118 131 0
110 122 0
110 123 0
105 119 0
119 131 0
106 119 0
114 126 0
126 139 0
114 125 0
111 124 0
115 128 0
112 126 0
121 133 0
120 133 0
110 122 0
123 133 0
117 126 0
121 135 0
125 136 0
124 135 0
122 135 0
110 121 0
114 119 0
112 119 0
125 136 0
115 126 0
116 122 0
111 122 0
103 110 0
113 121 0
104 110 0
120 129 0
120 128 0
115 122 0
117 124 0
105 111 0
115 119 0
109 114 0
101 103 0
109 115 0
99 101 0
107 110 0
112 113 0
91 93 0
100 103 0
109 108 0
106 105 0
101 102 0
104 104 0
89 89 0
97 94 0
91 87 0
100 96 0
89 84 0
71 66 0
67 60 0
73 66 11
75 66 0
90 82 11
78 68 0
92 82 0
79 73 0
100 92 0
88 81 0
88 79 0
91 83 0
90 82 0
93 84 0
99 91 0
106 98 0
98 89 0
102 94 0
105 98 0
101 95 11
98 91 0
106 98 0
106 99 0
108 101 0
109 100 0
99 92 0
104 97 0
110 102 11
98 91 0
119 111 11
111 104 0
114 106 0
106 99 0
118 109 0
112 104 0
113 107 11
110 102 11
111 106 0
112 104 0
117 108 0
122 116 16
126 119 19
118 112 0
116 109 0
118 111 22
112 107 0
115 107 11
121 115 22
119 114 16
121 113 11
117 109 0
127 120 16
121 114 25
131 122 30
122 115 25
122 113 22
120 112 25
121 112 25
120 115 16
125 117 19
121 114 22
116 109 19
107 101 16
107 103 22
127 120 30
117 111 11
121 115 19
120 115 22
124 118 34
135 127 32
125 117 32
122 115 30
122 116 30
118 113 22
119 114 22
116 109 34
126 118 37
122 117 32
120 114 30
124 118 25
126 118 34
130 124 30
122 114 28
126 119 32
128 121 41
127 121 36
118 112 22
119 112 41
124 116 32
121 114 32
124 119 36
128 121 36
124 116 34
118 111 36
121 114 39
126 120 39
116 109 36
128 122 39
112 106 39
111 104 32
120 114 42
120 116 32
116 110 32
117 109 25
126 119 37
119 112 32
121 136 39
129 145 51
122 139 22
126 142 22
132 149 22
127 144 0
131 149 0
130 147 0
133 151 0
136 153 0
138 155 0
142 160 0
135 152 0
136 154 0
143 161 0
141 157 0
133 149 0
138 155 0
141 159 0
138 156 0
138 154 0
138 155 0
143 161 0
142 160 0
144 162 0
145 164 0
148 165 0
141 158 0
147 166 0
144 162 0
147 165 0
142 160 0
143 161 0
144 162 0
146 165 0
141 160 0
138 156 0
139 158 0
141 159 0
140 157 0
142 160 0
140 157 0
141 159 0
137 154 0
141 158 0
140 157 0
138 156 0
137 155 0
138 155 0
138 156 0
140 158 0
136 153 0
136 151 0
141 157 0
134 150 0
138 154 0
140 157 0
140 156 0
136 152 0
141 158 0
139 156 0
135 150 0
128 142 0
135 151 0
132 148 0
138 155 0
133 149 0
127 141 0
129 144 0
127 142 0
130 146 0
130 146 0
128 144 0
128 144 0
128 142 0
135 149 0
125 141 0
126 141 0
124 138 0
117 131 0
123 137 0
123 138 0
128 142 0
122 136 0
125 140 0
120 134 0
118 132 0
122 136 0
126 140 0
110 123 0
112 125 0
105 117 0
113 126 0
112 124 0
115 128 0
109 121 0
93 104 0
95 106 0
93 104 0
85 95 0
89 99 0
82 91 0
82 91 0
88 96 0
97 108 0
101 111 0
95 105 0
101 112 0
104 115 0
105 116 0
103 114 0
116 129 0
103 116 0
107 120 0
106 119 0
112 126 0
105 119 0
123 137 0
109 123 0
117 131 0
112 126 0
112 127 0
110 126 0
120 135 0
111 125 0
122 136 0
125 141 0
116 133 0
124 140 0
122 138 0
119 134 0
129 146 0
121 136 0
114 129 0
122 139 0
123 140 0
130 146 0
129 146 0
117 133 0
121 138 0
119 136 0
123 141 0
125 141 0
122 140 0
116 133 0
119 136 0
122 139 0
121 139 0
117 134 0
120 139 0
122 141 0
112 129 0
123 141 0
121 138 0
120 137 0
124 141 0
112 129 0
123 140 0
110 128 0
118 136 0
111 129 0
103 120 0
110 128 0
118 135 0
115 132 0
99 116 0
99 116 0
114 130 0
100 116 0
109 126 0
108 125 0
104 119 0
97 113 0
93 108 0
105 121 0
98 113 0
100 114 0
96 111 0
101 117 0
97 111 0
93 108 0
74 90 0
93 107 0
80 94 0
90 105 0
82 97 0
87 100 0
84 97 0
74 87 0
81 95 0
76 89 0
75 87 0
76 88 0
76 89 0
73 85 0
73 85 0
84 96 0
75 87 0
87 99 0
74 86 0
71 82 0
71 83 0
73 83 0
77 88 0
79 91 0
61 72 0
58 69 0
80 92 0
80 93 0
75 85 0
81 93 0
79 90 0
75 87 0
86 98 0
80 93 0
94 104 0
83 94 0
89 102 0
97 110 0
87 100 0
93 104 0
80 93 0
92 106 0
90 101 0
88 100 0
95 106 0
97 112 0
110 124 0
107 120 0
90 104 0
106 121 0
97 110 0
117 130 0
101 114 0
109 121 0
110 124 0
109 123 0
114 126 0
114 127 0
109 122 0
119 130 0
111 124 0
110 124 0
112 123 0
106 119 0
118 133 0
117 129 0
110 122 0
118 131 0
122 138 0
116 129 0
122 135 0
118 129 0
120 133 0
115 128 0
115 127 0
116 129 0
122 134 0
112 123 0
109 119 0
124 134 0
125 137 0
119 128 0
118 127 0
104 114 0
108 115 0
122 131 0
123 130 0
118 128 0
118 126 0
115 125 0
107 113 0
116 124 0
113 122 0
104 108 0
108 116 0
111 118 0
116 124 0
112 115 0
117 121 0
121 124 0
101 102 0
101 99 0
112 116 0
101 105 0
107 108 0
104 106 0
103 104 0
96 95 0
83 80 0
90 87 0
105 107 0
93 95 0
79 74 0
92 87 0
90 85 0
88 85 0
78 70 0
89 80 0
66 57 0
86 79 0
83 75 0
87 77 0
83 74 0
97 88 0
86 79 0
101 92 0
88 81 0
94 87 0
95 86 0
94 87 0
95 88 0
93 87 0
95 87 0
105 96 11
107 101 0
97 90 0
104 95 0
107 98 0
109 100 0
102 96 0
107 99 0
103 94 0
111 105 11
104 96 0
109 103 0
102 95 0
108 101 11
107 101 11
117 110 0
107 100 0
111 103 0
109 103 11
119 109 11
114 106 11
116 108 11
111 103 0
116 109 11
107 99 0
118 112 16
116 109 11
117 109 0
112 103 22
112 106 16
118 112 16
115 108 19
117 110 0
121 113 16
105 99 19
122 116 19
124 118 25
115 107 22
122 116 11
117 108 25
112 106 16
118 111 22
117 110 0
124 117 0
118 111 19
113 106 16
115 109 19
112 104 22
114 109 22
118 112 22
126 120 30
127 121 19
118 112 16
122 114 28
113 107 22
114 108 0
128 122 32
122 115 32
123 116 28
116 109 22
125 119 28
132 125 34
113 107 25
122 117 22
118 112 28
125 119 34
115 107 30
123 116 32
123 116 41
129 123 39
106 100 19
127 120 37
125 120 30
130 122 41
124 117 34
130 123 42
125 120 36
111 107 22
117 112 30
125 119 34
122 115 44
129 123 48
114 107 36
128 121 45
118 112 41
118 113 39
129 145 32
122 137 45
122 138 22
138 154 39
129 145 22
122 138 22
131 147 0
129 145 0
132 149 0
132 149 0
134 151 0
135 152 0
137 154 0
137 154 0
133 150 0
136 153 0
140 158 0
141 158 0
138 155 0
135 152 0
136 153 0
136 153 0
140 158 0
142 159 0
139 157 0
139 156 0
137 154 0
140 158 0
148 166 0
141 159 0
142 159 0
142 160 0
139 156 0
142 160 0
134 151 0
143 161 0
139 155 0
140 157 0
142 160 0
141 158 0
139 156 0
143 161 0
140 157 0
138 156 0
144 161 0
139 155 0
139 156 0
135 151 0
137 153 0
143 160 0
138 155 0
138 154 0
136 153 0
137 153 0
136 151 0
136 151 0
130 146 0
138 153 0
138 155 0
132 148 0
132 148 0
133 149 0
134 149 0
127 143 0
131 147 0
131 147 0
131 147 0
123 138 0
127 143 0
126 142 0
133 150 0
126 141 0
125 140 0
125 140 0
130 146 0
122 137 0
122 136 0
124 140 0
129 144 0
124 139 0
121 135 0
113 127 0
121 136 0
119 133 0
118 132 0
115 128 0
118 131 0
112 125 0
111 124 0
112 124 0
106 119 0
97 108 0
102 113 0
102 113 0
99 110 0
85 95 0
93 104 0
77 85 0
82 92 0
79 87 0
77 86 0
88 96 0
92 101 0
86 96 0
96 107 0
105 115 0
103 114 0
112 124 0
99 111 0
113 125 0
102 114 0
97 109 0
102 114 0
120 133 0
118 132 0
118 132 0
101 114 0
118 132 0
118 133 0
106 120 0
106 120 0
122 137 0
119 134 0
121 135 0
107 121 0
124 140 0
128 144 0
107 123 0
124 140 0
112 128 0
129 146 0
110 126 0
117 134 0
118 134 0
130 148 0
123 139 0
122 138 0
115 132 0
121 137 0
127 146 0
120 138 0
121 138 0
131 149 0
122 139 0
120 138 0
125 142 0
127 144 0
121 139 0
123 140 0
129 147 0
121 139 0
106 122 0
124 142 0
113 130 0
110 128 0
124 142 0
117 135 0
110 127 0
127 145 0
113 130 0
111 129 0
112 130 0
113 129 0
126 143 0
97 114 0
112 130 0
105 121 0
109 126 0
120 138 0
109 124 0
107 123 0
88 104 0
111 128 0
107 124 0
94 111 0
110 128 0
89 105 0
89 103 0
95 110 0
104 120 0
78 93 0
85 100 0
87 103 0
87 103 0
85 100 0
85 100 0
81 94 0
86 100 0
86 99 0
78 93 0
70 84 0
70 84 0
89 104 0
84 97 0
80 94 0
71 84 0
71 84 0
70 83 0
82 95 0
83 96 0
85 97 0
78 90 0
93 105 0
84 95 0
80 92 0
73 85 0
79 93 0
80 95 0
88 100 0
71 82 0
82 93 0
82 95 0
90 101 0
89 102 0
81 93 0
91 104 0
83 96 0
92 106 0
89 102 0
89 102 0
105 119 0
92 107 0
97 107 0
103 117 0
92 106 0
93 106 0
102 115 0
104 118 0
98 111 0
108 120 0
94 107 0
108 121 0
93 108 0
84 98 0
96 109 0
109 124 0
113 128 0
110 121 0
100 114 0
117 130 0
113 125 0
96 110 0
114 127 0
115 127 0
118 130 0
115 128 0
112 126 0
123 138 0
128 141 0
121 135 0
127 141 0
125 139 0
109 122 0
117 130 0
119 131 0
126 138 0
124 137 0
125 137 0
121 133 0
118 129 0
119 131 0
123 132 0
113 123 0
118 132 0
113 123 0
118 127 0
128 140 0
117 126 0
112 120 0
120 129 0
117 125 0
130 139 0
110 119 0
106 115 0
107 114 0
114 118 0
105 111 0
119 124 0
115 120 0
112 117 0
106 109 0
104 104 0
106 108 0
96 98 0
113 115 0
109 110 0
100 104 0
99 99 0
104 106 0
103 101 0
102 103 0
99 99 0
97 94 0
86 88 0
94 89 0
89 85 0
94 89 0
96 94 0
78 73 0
74 68 0
70 65 0
83 74 0
88 78 0
78 68 0
79 69 0
86 73 0
82 74 0
92 83 0
88 78 0
97 87 0
89 82 0
97 90 0
90 83 0
99 90 0
100 91 0
94 85 0
105 96 0
88 81 0
98 90 0
104 99 11
105 92 0
101 93 0
113 104 0
109 100 0
100 92 0
113 105 0
108 98 11
92 87 0
113 105 0
107 99 0
122 114 22
118 112 11
119 109 0
103 94 0
116 108 11
118 108 11
111 105 11
110 104 11
106 99 16
114 107 16
118 110 11
112 104 0
112 105 19
107 100 11
110 104 16
105 98 0
115 109 16
117 111 22
111 104 16
110 103 16
111 104 19
119 111 19
115 109 16
125 119 22
124 116 28
117 111 19
120 111 19
117 109 19
123 115 30
121 114 30
127 118 30
117 111 28
124 118 19
118 111 30
112 106 22
118 111 25
128 121 28
122 115 19
128 119 34
132 125 32
111 105 16
120 112 25
112 107 28
126 116 32
121 115 28
118 112 16
132 125 39
123 115 22
117 111 28
122 115 28
132 125 37
127 121 30
116 110 22
114 108 34
118 112 28
124 117 28
125 117 25
115 109 36
123 116 41
119 113 28
116 110 37
120 113 37
107 103 30
123 114 41
119 113 28
127 119 37
122 116 36
110 105 19
118 110 42
125 123 32
171 193 0
165 187 0
133 151 22
126 142 39
113 128 32
118 131 45
121 136 22
119 135 0
127 143 0
130 146 0
127 144 0
140 157 0
132 149 0
126 141 0
134 151 0
131 148 0
138 155 0
133 150 0
131 147 0
134 151 0
131 148 0
134 151 0
136 153 0
137 153 0
140 158 0
135 152 0
135 151 0
134 152 0
134 150 0
137 154 0
135 152 0
138 156 0
136 153 0
142 160 0
140 158 0
139 156 0
136 152 0
141 158 0
139 156 0
138 155 0
140 157 0
140 157 0
143 160 0
135 151 0
140 156 0
142 159 0
143 159 0
141 158 0
140 157 0
138 154 0
135 151 0
141 158 0
128 143 0
135 150 0
135 150 0
134 149 0
139 155 0
133 150 0
133 149 0
135 151 0
132 148 0
134 149 0
135 151 0
133 147 0
129 144 0
135 150 0
133 149 0
136 152 0
128 143 0
130 145 0
130 145 0
124 140 0
126 141 0
123 138 0
132 147 0
123 136 0
125 139 0
115 128 0
126 140 0
120 134 0
114 126 0
112 125 0
120 133 0
112 124 0
113 126 0
106 118 0
108 120 0
107 119 0
103 114 0
94 105 0
104 116 0
94 105 0
93 104 0
92 102 0
85 93 0
75 83 0
77 85 0
78 87 0
77 85 0
92 102 0
94 103 0
93 103 0
100 111 0
100 111 0
101 112 0
92 102 0
103 115 0
91 102 0
104 116 0
113 126 0
119 132 0
109 122 0
109 121 0
114 127 0
112 126 0
118 132 0
120 134 0
119 134 0
116 131 0
120 134 0
115 130 0
120 135 0
124 139 0
120 134 0
128 143 0
117 133 0
111 127 0
118 134 0
115 131 0
122 139 0
123 139 0
118 134 0
117 135 0
128 145 0
130 148 0
125 143 0
127 144 0
134 151 0
119 136 0
125 143 0
127 144 0
132 150 0
110 127 0
135 152 0
128 145 0
127 144 0
121 139 0
118 135 0
121 138 0
110 127 0
135 153 0
129 146 0
122 141 0
100 116 0
126 146 0
121 138 0
120 138 0
121 138 0
124 141 0
109 125 0
109 128 0
114 130 0
120 138 0
116 133 0
123 141 0
120 138 0
112 130 0
119 135 0
105 122 0
107 123 0
112 128 0
115 131 0
111 128 0
111 127 0
109 127 0
107 124 0
108 125 0
96 111 0
94 110 0
95 110 0
112 129 0
98 115 0
94 110 0
92 108 0
77 91 0
91 106 0
90 105 0
92 107 0
93 109 0
90 104 0
78 92 0
94 108 0
78 91 0
87 101 0
76 90 0
98 112 0
85 98 0
84 97 0
80 95 0
85 97 0
82 96 0
72 87 0
83 96 0
71 84 0
94 107 0
83 95 0
80 92 0
76 89 0
86 99 0
78 90 0
83 96 0
69 82 0
91 103 0
100 114 0
108 122 0
91 105 0
93 107 0
107 119 0
69 83 0
102 116 0
108 122 0
100 113 0
101 115 0
88 101 0
104 118 0
95 106 0
105 118 0
91 103 0
98 111 0
107 122 0
109 123 0
102 115 0
112 125 0
101 114 0
120 134 0
106 121 0
101 113 0
123 136 0
103 117 0
111 123 0
105 119 0
110 123 0
119 132 0
122 136 0
119 135 0
118 134 0
116 129 0
116 128 0
118 133 0
131 142 0
117 128 0
107 119 0
121 135 0
124 137 0
120 134 0
124 136 0
128 141 0
126 141 0
114 124 0
119 131 0
116 125 0
121 129 0
111 122 0
125 136 0
124 133 0
116 127 0
120 131 0
116 126 0
116 127 0
114 122 0
114 122 0
114 120 0
125 133 0
124 129 0
117 123 0
120 128 0
122 130 0
111 118 0
118 124 0
110 115 0
110 112 0
104 109 0
106 108 0
115 121 0
110 112 0
109 112 0
105 108 0
101 100 0
111 113 0
103 103 0
97 92 0
111 112 0
106 104 0
103 103 0
104 102 0
86 85 0
90 86 0
86 85 0
86 83 0
80 74 0
81 76 0
80 73 0
71 64 0
83 73 0
80 72 0
79 70 0
65 57 0
87 76 0
86 75 0
87 76 0
89 82 0
92 82 0
89 79 0
93 81 0
88 79 0
88 81 0
107 99 0
105 97 0
100 90 0
99 90 0
100 91 0
101 94 0
97 89 0
109 101 0
94 85 0
107 100 11
107 97 11
102 95 11
104 97 11
115 106 0
104 96 0
95 87 0
101 95 0
109 101 0
109 101 0
112 106 0
108 100 0
108 102 11
114 106 11
113 106 11
108 103 0
105 95 16
111 104 11
112 102 19
106 100 0
113 105 11
114 106 16
115 107 11
113 105 16
112 104 19
112 106 16
122 114 25
115 109 25
127 119 28
122 115 16
112 103 22
113 105 16
119 112 32
124 116 25
115 110 19
124 116 28
126 119 36
121 113 28
126 121 28
112 103 22
123 116 16
118 112 30
107 100 19
116 108 32
110 103 16
112 106 22
118 112 28
116 109 28
115 109 22
121 114 30
117 110 28
115 110 30
105 100 22
123 116 25
129 122 32
124 117 34
116 109 32
124 117 37
122 114 30
122 115 28
116 110 34
113 107 28
118 112 28
115 108 30
117 113 30
118 111 36
111 106 30
115 110 32
119 112 37
105 98 32
112 106 30
121 122 36
147 156 28
160 178 0
167 188 0
170 194 0
170 193 0
168 191 0
172 194 0
160 180 32
138 156 32
122 137 22
118 133 22
118 133 0
120 134 22
126 142 0
128 144 0
127 143 0
121 136 0
124 138 0
124 138 0
129 144 0
124 140 0
131 147 0
136 153 0
134 150 0
138 155 0
138 155 0
129 145 0
134 151 0
140 157 0
128 144 0
136 153 0
137 154 0
134 152 0
142 159 0
138 155 0
139 156 0
138 155 0
135 151 0
143 160 0
139 156 0
140 157 0
137 154 0
137 154 0
139 156 0
137 154 0
131 147 0
136 152 0
139 156 0
138 154 0
139 156 0
135 152 0
132 148 0
133 148 0
131 147 0
136 152 0
133 149 0
133 149 0
139 154 0
132 148 0
135 151 0
138 153 0
131 147 0
136 152 0
131 146 0
131 146 0
136 151 0
128 142 0
130 145 0
130 145 0
127 141 0
138 154 0
122 136 0
135 150 0
120 134 0
119 133 0
125 139 0
121 135 0
113 125 0
114 127 0
119 133 0
116 129 0
115 127 0
112 125 0
110 122 0
110 123 0
106 118 0
105 118 0
102 113 0
116 129 0
104 115 0
95 105 0
98 109 0
98 109 0
88 97 0
90 99 0
87 96 0
93 102 0
84 92 0
87 95 0
91 100 0
91 99 0
91 100 0
90 99 0
89 99 0
94 103 0
95 106 0
101 112 0
104 116 0
100 111 0
103 115 0
119 133 0
116 128 0
104 116 0
121 136 0
119 134 0
112 126 0
113 127 0
119 133 0
118 132 0
122 137 0
121 136 0
125 140 0
131 146 0
109 124 0
123 139 0
125 141 0
117 132 0
119 135 0
134 151 0
129 145 0
124 140 0
125 141 0
129 146 0
117 135 0
125 142 0
127 145 0
132 149 0
130 149 0
128 146 0
130 148 0
126 143 0
122 140 0
122 139 0
129 148 0
119 136 0
110 128 0
132 149 0
112 129 0
138 157 0
131 149 0
132 150 0
121 139 0
119 138 0
127 146 0
122 139 0
120 139 0
122 140 0
112 130 0
124 142 0
116 133 0
117 134 0
109 127 0
107 124 0
109 127 0
111 127 0
113 130 0
115 133 0
120 138 0
106 124 0
113 130 0
115 133 0
107 123 0
114 130 0
99 116 0
115 132 0
106 123 0
99 115 0
106 123 0
108 125 0
109 125 0
94 109 0
105 121 0
89 104 0
91 107 0
87 104 0
96 110 0
93 108 0
89 103 0
103 119 0
86 103 0
116 133 0
95 109 0
81 96 0
87 101 0
93 107 0
95 109 0
81 96 0
86 102 0
99 114 0
83 96 0
91 105 0
93 105 0
87 102 0
85 100 0
102 117 0
70 85 0
79 94 0
95 109 0
88 102 0
82 95 0
91 106 0
96 109 0
93 107 0
90 105 0
94 109 0
92 106 0
93 108 0
90 104 0
89 102 0
95 109 0
108 122 0
89 104 0
91 106 0
103 117 0
97 113 0
96 107 0
103 117 0
88 104 0
100 114 0
98 112 0
107 119 0
101 117 0
113 127 0
112 126 0
101 115 0
111 125 0
106 118 0
104 118 0
106 121 0
117 131 0
120 136 0
117 133 0
106 117 0
113 125 0
114 128 0
112 126 0
97 109 0
117 128 0
119 132 0
113 129 0
105 120 0
115 129 0
102 115 0
117 131 0
124 136 0
128 140 0
121 136 0
121 134 0
119 133 0
112 125 0
116 128 0
117 128 0
126 139 0
115 127 0
117 126 0
113 124 0
121 133 0
134 146 0
132 142 0
129 141 0
121 132 0
122 132 0
126 137 0
124 134 0
119 128 0
112 119 0
127 136 0
114 119 0
112 121 0
114 121 0
115 125 0
113 121 0
120 126 0
118 121 0
102 105 0
107 112 0
107 110 0
107 108 0
109 113 0
112 115 0
108 111 0
101 103 0
103 103 0
100 102 0
109 108 0
107 107 0
98 96 0
91 90 0
98 97 0
88 86 0
80 75 0
85 81 0
89 85 0
92 86 0
81 76 0
88 86 0
79 74 0
87 78 0
82 74 0
76 68 0
83 72 0
82 73 0
76 65 0
84 73 0
82 72 0
86 78 0
89 80 0
95 85 0
92 82 0
82 74 0
93 83 0
97 86 0
96 86 0
86 79 0
84 80 0
94 85 0
96 87 0
89 83 0
103 92 0
102 94 0
115 107 0
102 90 0
97 89 0
111 104 0
102 92 0
104 97 0
115 107 11
110 103 11
107 98 11
109 103 11
105 97 0
112 104 11
112 103 16
113 104 16
107 99 19
115 108 0
121 113 11
109 100 11
121 114 16
117 108 19
114 106 22
114 108 11
120 111 19
118 112 16
118 110 19
115 107 19
113 105 22
118 110 19
113 104 22
107 100 11
123 114 19
116 110 19
108 100 19
116 109 19
120 113 25
121 111 22
120 113 19
127 119 34
117 111 25
108 102 16
120 114 25
117 111 25
117 111 25
113 106 19
106 100 16
120 112 22
109 104 22
120 115 30
124 119 30
113 107 36
121 117 25
120 114 22
127 119 36
108 102 19
110 104 25
115 108 28
122 116 32
108 101 28
112 106 32
113 108 25
115 108 37
118 112 28
110 104 28
106 98 34
102 98 34
105 99 28
113 114 28
140 146 28
151 165 11
168 189 0
169 189 0
168 187 0
169 189 0
171 194 0
173 195 0
171 193 0
168 191 0
169 192 0
169 192 0
170 192 0
158 179 0
148 167 0
127 143 22
125 140 0
121 136 0
116 130 0
119 133 0
127 143 0
126 141 0
125 140 0
126 140 0
131 146 0
135 152 0
129 145 0
120 135 0
127 143 0
130 145 0
134 150 0
135 151 0
134 151 0
138 154 0
133 148 0
135 152 0
133 149 0
127 143 0
132 148 0
138 155 0
139 155 0
135 151 0
133 150 0
138 155 0
130 146 0
137 153 0
131 146 0
135 150 0
132 147 0
136 151 0
132 147 0
135 150 0
138 154 0
135 151 0
135 150 0
132 147 0
135 151 0
128 143 0
136 151 0
133 150 0
135 150 0
129 144 0
126 140 0
132 147 0
138 154 0
125 141 0
135 150 0
129 144 0
128 143 0
123 137 0
122 136 0
125 140 0
127 143 0
123 137 0
129 144 0
128 142 0
119 133 0
124 138 0
120 133 0
124 137 0
124 138 0
114 127 0
115 128 0
103 114 0
111 124 0
114 126 0
117 130 0
110 122 0
99 109 0
98 109 0
108 119 0
99 110 0
99 109 0
84 94 0
90 100 0
84 93 0
84 92 0
72 79 0
79 88 0
92 101 0
96 105 0
92 101 0
94 103 0
101 112 0
108 119 0
101 112 0
102 113 0
109 121 0
105 116 0
108 121 0
103 115 0
116 129 0
112 125 0
101 114 0
112 124 0
115 129 0
117 132 0
108 122 0
121 136 0
115 128 0
119 134 0
119 135 0
126 142 0
119 134 0
123 139 0
115 132 0
116 133 0
108 123 0
129 145 0
131 147 0
124 141 0
139 155 0
113 129 0
122 138 0
128 145 0
121 137 0
134 152 0
131 148 0
118 136 0
131 147 0
124 141 0
125 143 0
130 148 0
124 142 0
123 141 0
132 150 0
125 144 0
127 146 0
124 141 0
129 147 0
117 135 0
122 139 0
132 150 0
123 142 0
126 143 0
130 148 0
117 135 0
115 133 0
125 143 0
125 144 0
115 134 0
119 136 0
119 137 0
122 140 0
114 131 0
113 131 0
119 138 0
121 140 0
132 151 0
114 132 0
116 133 0
110 128 0
123 141 0
119 137 0
111 129 0
120 138 0
105 123 0
112 129 0
109 127 0
112 129 0
111 129 0
103 121 0
100 116 0
98 114 0
104 121 0
98 115 0
102 118 0
112 130 0
95 111 0
113 130 0
96 112 0
107 123 0
105 119 0
92 108 0
100 115 0
90 105 0
83 99 0
90 104 0
94 109 0
100 116 0
99 113 0
81 96 0
84 99 0
101 116 0
88 103 0
86 101 0
91 104 0
85 100 0
89 103 0
94 108 0
99 113 0
103 117 0
97 113 0
93 106 0
91 104 0
99 115 0
94 109 0
105 121 0
101 113 0
94 110 0
98 112 0
102 116 0
97 111 0
98 112 0
104 120 0
90 105 0
101 118 0
90 103 0
100 114 0
97 110 0
101 115 0
98 112 0
100 115 0
106 121 0
99 115 0
106 119 0
117 131 0
111 126 0
103 117 0
108 122 0
105 119 0
107 123 0
94 108 0
105 118 0
115 129 0
125 138 0
117 133 0
114 130 0
109 125 0
112 126 0
117 132 0
121 137 0
116 132 0
115 129 0
115 129 0
120 134 0
99 113 0
121 135 0
125 140 0
129 144 0
121 134 0
122 135 0
131 145 0
124 138 0
128 139 0
126 139 0
127 138 0
116 128 0
127 139 0
121 132 0
118 129 0
113 125 0
123 136 0
117 128 0
127 135 0
126 137 0
117 126 0
118 125 0
118 127 0
128 139 0
119 129 0
114 121 0
119 127 0
123 131 0
107 112 0
110 117 0
110 118 0
117 123 0
109 112 0
121 127 0
112 119 0
114 120 0
111 114 0
114 117 0
103 103 0
108 111 0
111 112 0
116 119 0
106 105 0
104 107 0
102 104 0
101 101 0
95 93 0
97 95 0
107 107 0
89 88 0
83 83 0
90 86 0
86 81 0
79 76 0
91 85 0
83 75 0
79 75 0
67 61 0
76 66 0
68 59 0
71 61 0
89 81 0
87 77 0
80 69 0
89 78 0
89 80 0
88 78 0
84 75 0
89 81 0
91 82 0
81 72 0
96 86 0
92 83 0
94 83 0
99 90 0
103 94 0
90 82 11
100 91 0
106 97 0
102 94 11
102 93 0
96 87 0
112 100 0
97 89 11
110 99 0
111 101 11
104 96 11
99 90 0
105 95 0
113 103 11
110 102 11
114 105 16
113 105 0
106 98 0
111 103 16
114 104 11
112 102 16
120 110 19
98 92 11
111 104 11
114 106 25
111 105 11
120 111 16
107 102 19
114 103 19
120 111 16
105 99 11
106 98 16
105 98 0
111 103 19
120 112 19
106 101 11
109 101 22
114 108 25
118 113 22
120 113 22
112 105 28
112 107 22
106 98 19
121 114 30
123 115 32
112 105 11
110 104 16
117 111 32
122 114 32
109 102 30
116 109 28
101 95 25
111 105 28
109 102 30
126 119 39
116 110 30
115 108 28
113 106 34
116 109 34
124 115 34
103 96 28
115 108 36
115 107 34
110 103 34
128 131 34
141 150 19
156 170 11
167 187 0
169 188 0
169 190 0
167 185 0
168 188 0
172 191 0
171 193 0
167 190 0
169 192 0
170 192 0
169 190 0
171 194 0
168 191 0
167 189 0
168 190 0
169 191 0
168 189 0
166 187 0
151 170 0
138 156 0
117 132 0
117 131 22
120 134 0
118 134 0
123 138 0
121 136 0
113 128 0
126 141 0
128 143 0
123 139 0
125 140 0
125 139 0
123 138 0
136 152 0
130 146 0
131 147 0
131 147 0
131 146 0
128 144 0
133 149 0
133 148 0
129 145 0
128 143 0
128 143 0
129 144 0
128 143 0
132 148 0
130 145 0
129 144 0
129 144 0
133 148 0
139 155 0
136 151 0
128 142 0
126 142 0
129 145 0
128 144 0
127 141 0
127 142 0
135 151 0
134 149 0
136 151 0
123 138 0
128 143 0
122 136 0
125 139 0
123 137 0
120 134 0
123 137 0
123 137 0
117 131 0
123 137 0
116 129 0
120 134 0
127 140 0
113 126 0
124 137 0
116 130 0
114 127 0
102 115 0
118 132 0
113 126 0
121 135 0
101 113 0
109 121 0
99 110 0
102 113 0
100 111 0
99 110 0
102 113 0
102 112 0
95 105 0
88 97 0
90 99 0
81 89 0
85 92 0
76 84 0
87 95 0
86 94 0
86 95 0
94 103 0
91 101 0
109 120 0
102 113 0
104 115 0
106 117 0
117 128 0
112 125 0
107 118 0
111 123 0
106 118 0
110 123 0
106 118 0
114 128 0
119 133 0
113 127 0
115 130 0
119 134 0
123 137 0
117 132 0
118 134 0
125 140 0
116 130 0
115 130 0
126 141 0
120 135 0
116 132 0
123 138 0
123 139 0
132 149 0
122 139 0
117 132 0
124 141 0
121 137 0
128 145 0
125 142 0
134 151 0
129 146 0
109 126 0
135 152 0
115 132 0
125 142 0
129 147 0
132 150 0
123 141 0
127 144 0
127 145 0
124 143 0
124 141 0
131 149 0
135 153 0
119 136 0
128 146 0
121 139 0
120 137 0
119 137 0
124 142 0
122 140 0
121 139 0
130 147 0
124 144 0
118 137 0
120 138 0
122 141 0
122 140 0
117 136 0
117 135 0
121 138 0
128 146 0
120 138 0
120 137 0
117 136 0
122 140 0
113 130 0
117 134 0
120 139 0
110 128 0
121 139 0
116 133 0
112 130 0
102 119 0
123 142 0
115 134 0
106 122 0
99 115 0
118 134 0
106 122 0
104 120 0
93 110 0
113 130 0
122 138 0
98 115 0
115 133 0
103 119 0
96 111 0
101 117 0
100 117 0
96 112 0
89 105 0
105 122 0
103 118 0
111 125 0
105 121 0
98 115 0
88 104 0
88 101 0
99 115 0
87 102 0
101 116 0
97 114 0
101 115 0
89 105 0
91 106 0
105 119 0
100 116 0
96 114 0
98 113 0
104 119 0
85 100 0
92 107 0
106 119 0
98 114 0
90 103 0
115 129 0
99 114 0
104 119 0
100 112 0
95 111 0
108 124 0
111 126 0
109 124 0
113 129 0
116 129 0
107 123 0
119 134 0
118 134 0
114 129 0
107 122 0
105 120 0
113 126 0
116 130 0
111 127 0
121 136 0
121 135 0
111 126 0
119 133 0
107 122 0
128 144 0
119 134 0
125 141 0
122 134 0
112 126 0
116 128 0
118 132 0
121 136 0
123 138 0
120 133 0
112 126 0
128 142 0
130 146 0
125 138 0
120 135 0
133 147 0
117 130 0
111 124 0
118 131 0
135 146 0
120 132 0
127 138 0
120 130 0
121 133 0
129 142 0
127 139 0
125 135 0
121 133 0
125 136 0
122 131 0
122 133 0
125 135 0
117 127 0
130 139 0
130 142 0
130 137 0
123 134 0
122 130 0
111 120 0
109 118 0
126 134 0
107 115 0
125 132 0
118 126 0
114 119 0
117 123 0
118 122 0
106 111 0
114 118 0
109 112 0
112 112 0
115 116 0
110 115 0
110 113 0
103 101 0
114 116 0
106 105 0
102 102 0
104 105 0
108 108 0
97 95 0
95 92 0
95 92 0
84 78 0
94 90 0
101 97 0
89 85 0
86 78 0
79 71 0
83 78 0
74 66 0
82 76 0
78 69 0
81 70 0
75 65 0
78 69 0
87 76 0
89 79 0
90 80 0
85 75 0
85 75 0
98 88 0
83 72 0
93 84 11
96 85 0
96 88 0
86 78 0
98 90 0
105 96 0
101 92 0
103 94 0
100 92 11
95 88 0
98 89 11
97 90 11
101 93 0
101 91 0
113 105 11
99 89 0
104 96 11
104 96 11
107 96 0
116 107 11
107 97 0
99 92 22
113 104 16
107 99 16
108 100 19
117 109 22
118 109 22
106 96 16
99 93 0
122 113 19
106 98 16
117 111 22
110 101 11
115 108 16
118 111 19
121 113 30
109 101 19
105 99 0
119 110 16
112 105 25
111 103 16
118 111 16
112 105 25
116 110 19
121 113 22
119 112 25
106 101 22
122 112 32
123 115 22
111 104 25
110 102 25
130 122 28
119 113 36
115 109 28
116 110 30
109 102 16
115 108 25
114 107 28
122 115 30
115 107 32
106 100 30
109 103 28
113 107 32
115 111 36
134 140 25
146 158 0
164 181 11
165 183 0
168 186 0
166 183 0
164 183 0
169 186 0
167 186 0
169 190 0
168 187 0
169 189 0
166 185 0
172 194 0
168 191 0
169 191 0
169 192 0
171 192 0
166 187 0
168 189 0
170 192 0
168 189 0
168 189 0
168 190 0
170 193 0
164 186 0
167 188 0
163 183 0
142 162 0
139 156 0
119 134 0
114 128 0
120 135 0
118 133 0
117 132 0
122 136 0
117 132 0
122 137 0
123 137 0
124 139 0
123 137 0
124 140 0
126 140 0
127 142 0
126 141 0
115 129 0
133 149 0
131 146 0
133 148 0
130 146 0
129 143 0
132 146 0
124 138 0
125 139 0
128 142 0
130 145 0
118 131 0
128 142 0
122 136 0
131 146 0
130 146 0
129 143 0
126 140 0
119 134 0
123 137 0
129 143 0
123 138 0
119 132 0
129 143 0
117 130 0
126 139 0
121 134 0
122 136 0
117 131 0
121 135 0
117 129 0
125 139 0
114 127 0
113 125 0
111 124 0
118 131 0
117 129 0
112 125 0
111 123 0
113 125 0
110 122 0
98 108 0
101 112 0
99 110 0
98 108 0
100 110 0
100 110 0
87 96 0
98 108 0
91 100 0
83 92 0
87 95 0
84 92 0
78 85 0
93 102 0
101 111 0
97 106 0
96 105 0
95 105 0
100 109 0
104 115 0
106 116 0
111 123 0
108 119 0
109 120 0
110 122 0
110 122 0
113 125 0
112 124 0
124 137 0
116 129 0
111 125 0
120 134 0
110 122 0
123 138 0
126 141 0
126 140 0
130 145 0
127 143 0
126 142 0
137 153 0
127 143 0
120 136 0
126 142 0
118 132 0
114 129 0
127 143 0
128 144 0
116 132 0
129 145 0
127 142 0
132 149 0
130 147 0
120 135 0
128 144 0
135 153 0
128 145 0
124 142 0
119 136 0
122 138 0
130 147 0
133 151 0
120 137 0
132 151 0
133 151 0
136 153 0
127 145 0
116 133 0
138 156 0
132 151 0
122 140 0
131 150 0
124 142 0
128 147 0
117 135 0
131 151 0
114 132 0
131 150 0
128 148 0
124 142 0
122 140 0
122 142 0
119 136 0
114 132 0
127 146 0
133 151 0
122 140 0
119 137 0
128 147 0
118 136 0
124 143 0
111 129 0
111 130 0
113 131 0
119 137 0
123 142 0
107 124 0
102 119 0
108 126 0
122 138 0
122 142 0
119 136 0
104 122 0
114 131 0
116 133 0
109 126 0
121 138 0
106 123 0
94 111 0
101 118 0
102 118 0
100 117 0
110 127 0
98 114 0
112 130 0
95 111 0
104 119 0
97 115 0
105 121 0
103 120 0
90 107 0
87 104 0
114 130 0
99 117 0
94 110 0
98 114 0
92 107 0
104 120 0
88 102 0
105 121 0
101 116 0
95 112 0
103 119 0
110 126 0
100 116 0
103 118 0
111 127 0
99 114 0
105 121 0
109 124 0
85 100 0
94 108 0
105 120 0
103 120 0
105 120 0
94 110 0
109 124 0
107 121 0
110 125 0
110 126 0
101 114 0
100 114 0
103 117 0
102 117 0
106 121 0
108 123 0
102 117 0
102 117 0
110 125 0
113 127 0
110 124 0
132 147 0
120 134 0
115 130 0
112 128 0
117 131 0
121 137 0
113 128 0
107 121 0
121 135 0
139 155 0
126 139 0
120 136 0
120 136 0
114 129 0
124 140 0
110 125 0
123 136 0
113 126 0
128 143 0
133 148 0
126 141 0
120 133 0
122 137 0
127 141 0
126 140 0
126 139 0
118 130 0
130 144 0
121 134 0
120 133 0
125 136 0
119 132 0
127 139 0
116 129 0
114 124 0
126 137 0
125 137 0
122 131 0
117 127 0
124 134 0
118 128 0
112 123 0
125 136 0
120 128 0
110 117 0
123 132 0
112 120 0
112 119 0
126 139 0
120 128 0
121 128 0
106 111 0
111 113 0
119 125 0
107 112 0
111 113 0
119 125 0
102 108 0
116 118 0
123 126 0
116 119 0
117 119 0
106 105 0
119 124 0
103 102 0
101 98 0
120 119 0
99 95 0
99 97 0
95 91 0
94 95 0
104 100 0
104 101 0
107 103 0
93 90 0
93 89 0
88 85 0
97 94 0
83 77 0
98 94 0
89 87 0
97 91 0
66 56 0
61 53 0
85 73 0
84 74 0
80 68 0
81 71 0
82 72 0
93 80 0
84 72 0
87 75 0
94 87 0
91 82 0
101 92 0
85 76 0
96 87 11
84 74 11
102 93 0
100 89 0
106 95 16
95 86 0
96 86 11
100 93 0
99 90 16
109 100 16
103 92 16
111 102 16
104 98 16
112 101 0
102 93 11
107 99 22
107 98 19
108 100 11
102 94 0
108 98 19
112 102 19
115 108 22
104 97 16
116 107 32
110 102 16
108 101 16
115 109 16
113 105 28
119 112 28
110 103 22
115 107 19
115 107 11
119 112 28
107 100 11
108 99 22
118 109 25
108 102 19
104 94 22
104 96 22
100 95 19
123 116 25
116 109 22
105 98 22
112 103 22
107 100 19
114 105 16
108 101 25
109 102 32
120 112 32
117 109 32
101 93 22
115 107 36
121 115 30
115 113 34
130 134 28
142 152 0
164 178 11
166 182 0
164 180 0
167 184 0
168 184 0
165 183 0
165 183 0
168 186 0
168 186 0
166 184 0
161 179 0
169 187 0
166 183 0
171 192 0
168 186 0
167 189 0
168 191 0
171 193 0
167 189 0
167 190 0
167 190 0
169 190 0
169 190 0
167 188 0
167 188 0
168 190 0
164 184 0
166 188 0
166 188 0
167 188 0
165 185 0
166 185 0
163 183 0
165 186 0
157 174 22
142 160 0
130 146 0
117 130 0
111 124 0
120 133 0
125 139 0
111 125 0
109 123 0
124 138 0
124 139 0
115 129 0
122 136 0
121 134 0
111 124 0
118 132 0
120 134 0
124 138 0
116 130 0
116 130 0
126 141 0
123 137 0
125 139 0
122 137 0
121 135 0
103 115 0
125 140 0
118 131 0
123 137 0
120 133 0
122 136 0
113 126 0
115 128 0
115 127 0
119 132 0
123 136 0
118 131 0
122 135 0
115 129 0
120 133 0
114 127 0
113 126 0
106 119 0
115 127 0
111 122 0
112 124 0
102 112 0
105 116 0
106 117 0
100 111 0
104 115 0
115 127 0
96 107 0
104 116 0
97 108 0
94 104 0
86 96 0
90 99 0
83 91 0
88 96 0
84 92 0
90 99 0
80 87 0
86 94 0
87 96 0
87 96 0
99 108 0
99 109 0
103 114 0
102 112 0
101 111 0
111 122 0
102 113 0
107 117 0
118 130 0
102 114 0
114 125 0
113 125 0
103 115 0
109 122 0
108 122 0
107 119 0
121 134 0
112 125 0
128 142 0
120 135 0
121 135 0
120 134 0
127 142 0
119 134 0
105 120 0
131 146 0
126 142 0
133 150 0
129 145 0
123 139 0
128 143 0
118 135 0
123 139 0
114 130 0
128 145 0
128 146 0
125 140 0
123 139 0
125 140 0
130 147 0
131 148 0
124 142 0
129 147 0
127 145 0
135 154 0
125 144 0
123 140 0
137 155 0
132 149 0
125 143 0
125 143 0
128 145 0
130 148 0
133 151 0
140 159 0
134 153 0
131 148 0
121 138 0
123 142 0
122 140 0
124 142 0
135 155 0
119 137 0
136 154 0
125 143 0
116 134 0
122 140 0
132 152 0
116 135 0
128 147 0
125 144 0
121 141 0
130 149 0
126 145 0
120 138 0
119 137 0
122 141 0
128 148 0
120 139 0
113 132 0
121 140 0
114 131 0
119 137 0
126 144 0
112 129 0
106 122 0
119 136 0
114 131 0
119 138 0
106 123 0
119 136 0
112 128 0
113 132 0
111 130 0
111 127 0
119 137 0
108 125 0
116 135 0
100 117 0
115 131 0
113 130 0
94 112 0
96 112 0
109 126 0
103 120 0
93 110 0
107 123 0
91 110 0
108 124 0
112 127 0
115 131 0
110 127 0
105 123 0
108 126 0
113 129 0
101 119 0
107 123 0
93 107 0
106 123 0
108 123 0
104 122 0
107 125 0
109 126 0
98 115 0
98 113 0
94 107 0
104 120 0
112 127 0
121 137 0
115 132 0
105 121 0
112 128 0
97 113 0
108 123 0
96 112 0
104 120 0
113 129 0
114 130 0
108 123 0
108 122 0
106 120 0
100 116 0
115 129 0
105 120 0
108 123 0
113 129 0
125 141 0
125 141 0
110 125 0
115 129 0
105 122 0
119 134 0
117 132 0
119 135 0
117 130 0
116 129 0
122 137 0
124 139 0
124 140 0
125 140 0
123 138 0
114 128 0
116 130 0
127 141 0
119 132 0
124 138 0
119 133 0
124 139 0
120 135 0
124 137 0
123 136 0
123 136 0
122 136 0
119 131 0
131 146 0
125 140 0
130 146 0
133 146 0
139 154 0
111 119 0
122 133 0
115 126 0
121 133 0
128 141 0
120 131 0
127 139 0
117 127 0
120 132 0
124 134 0
117 124 0
113 125 0
126 137 0
123 130 0
126 132 0
118 127 0
116 125 0
110 117 0
111 117 0
120 125 0
120 124 0
123 128 0
120 125 0
126 131 0
122 126 0
122 125 0
112 115 0
125 130 0
113 117 0
110 112 0
112 113 0
118 119 0
109 109 0
100 102 0
107 110 0
118 118 0
105 104 0
110 109 0
104 103 0
108 109 0
106 103 0
103 99 0
106 103 0
89 81 0
89 81 0
84 79 0
104 101 0
96 93 0
90 88 0
95 88 0
83 80 0
75 66 0
84 78 0
86 81 0
88 79 0
83 72 0
83 74 0
75 63 0
87 79 0
74 63 0
87 76 0
83 73 11
93 82 0
91 79 16
93 83 0
96 85 0
95 85 0
90 81 0
93 84 0
97 87 0
97 87 0
94 86 16
94 84 0
105 96 11
103 92 11
104 96 11
88 83 0
111 104 11
109 99 19
102 94 25
112 104 11
108 101 11
88 82 0
106 97 16
110 102 11
104 95 16
114 104 16
109 103 19
120 109 16
112 103 11
100 91 11
108 101 11
111 103 19
101 93 16
104 97 16
102 94 22
105 96 25
110 102 22
107 102 16
118 109 22
113 106 16
117 109 25
110 102 16
117 109 25
107 100 19
101 94 11
112 105 22
108 101 28
113 104 30
106 99 25
105 98 22
106 99 28
111 102 25
110 106 25
126 128 22
130 136 16
136 144 11
154 168 11
157 170 0
162 177 0
167 183 0
165 182 0
154 169 0
162 178 0
164 180 0
162 178 0
165 185 0
162 181 0
164 181 0
165 181 0
167 185 0
165 183 0
169 187 0
168 185 0
166 184 0
166 185 0
168 190 0
167 189 0
168 190 0
169 191 0
170 192 0
167 189 0
171 193 0
166 187 0
167 189 0
166 186 0
166 187 0
163 185 0
169 190 0
163 184 0
165 185 0
165 186 0
166 187 0
169 189 0
166 186 0
163 184 0
165 184 0
166 187 0
165 186 0
160 179 0
156 175 0
145 163 0
135 150 0
130 144 0
107 119 0
109 121 0
112 126 0
107 119 0
115 128 0
108 120 0
113 126 0
115 128 0
112 125 0
118 132 0
114 127 0
117 130 0
118 132 0
113 125 0
120 133 0
123 136 0
119 132 0
118 131 0
110 124 0
103 114 0
119 132 0
122 136 0
111 123 0
114 127 0
118 132 0
111 123 0
113 124 0
109 120 0
103 114 0
107 119 0
113 125 0
114 127 0
112 123 0
103 114 0
107 119 0
109 121 0
102 112 0
110 120 0
98 109 0
106 117 0
94 104 0
96 106 0
89 97 0
82 90 0
95 104 0
96 105 0
92 100 0
96 106 0
95 103 0
100 109 0
91 100 0
89 98 0
105 115 0
108 118 0
96 106 0
97 107 0
109 119 0
100 110 0
105 116 0
107 116 0
120 133 0
112 124 0
107 119 0
114 127 0
108 120 0
117 129 0
129 142 0
108 120 0
123 137 0
120 134 0
116 129 0
122 135 0
124 138 0
117 130 0
120 136 0
112 127 0
133 148 0
125 140 0
127 142 0
124 140 0
119 135 0
128 144 0
122 136 0
126 143 0
132 148 0
127 142 0
128 144 0
121 137 0
132 148 0
141 158 0
132 150 0
136 153 0
133 150 0
124 141 0
124 141 0
122 139 0
124 142 0
138 155 0
128 145 0
126 144 0
127 144 0
131 149 0
132 150 0
139 158 0
130 148 0
130 149 0
133 152 0
136 155 0
131 149 0
133 151 0
132 150 0
123 141 0
131 150 0
122 140 0
139 157 0
130 149 0
131 151 0
129 147 0
132 152 0
131 151 0
127 145 0
127 146 0
119 138 0
120 139 0
118 136 0
134 153 0
120 139 0
131 150 0
127 144 0
120 139 0
137 157 0
131 149 0
123 142 0
124 142 0
113 132 0
122 140 0
119 138 0
119 138 0
115 134 0
123 142 0
125 144 0
125 144 0
126 145 0
124 141 0
110 127 0
114 133 0
120 137 0
113 131 0
124 142 0
97 115 0
104 121 0
102 119 0
122 139 0
113 131 0
111 130 0
104 121 0
102 119 0
101 117 0
112 129 0
102 119 0
98 115 0
94 111 0
103 121 0
95 110 0
106 124 0
106 125 0
109 126 0
111 127 0
108 123 0
96 114 0
104 120 0
108 125 0
115 132 0
108 124 0
109 125 0
107 123 0
121 138 0
112 128 0
103 119 0
104 121 0
108 126 0
99 117 0
95 109 0
106 122 0
113 128 0
117 134 0
116 133 0
115 131 0
108 124 0
116 132 0
115 130 0
113 130 0
114 130 0
104 119 0
117 133 0
109 127 0
104 121 0
114 129 0
118 134 0
112 128 0
122 139 0
104 119 0
108 123 0
120 137 0
110 125 0
114 128 0
120 136 0
121 134 0
118 132 0
123 138 0
119 135 0
114 128 0
120 137 0
113 128 0
127 142 0
125 142 0
131 147 0
122 137 0
123 139 0
123 137 0
113 126 0
136 153 0
130 146 0
117 130 0
127 140 0
124 139 0
120 133 0
134 148 0
118 130 0
127 140 0
123 137 0
131 146 0
136 149 0
111 125 0
119 131 0
119 134 0
127 142 0
130 142 0
128 140 0
121 133 0
125 137 0
132 144 0
112 125 0
131 144 0
124 136 0
133 142 0
124 136 0
129 139 0
129 139 0
126 135 0
119 124 0
125 134 0
115 123 0
121 131 0
121 129 0
126 137 0
115 121 0
108 118 0
115 120 0
117 124 0
128 136 0
120 126 0
116 123 0
123 126 0
118 122 0
114 120 0
112 114 0
113 115 0
117 118 0
119 123 0
112 114 0
117 119 0
116 117 0
112 114 0
110 108 0
113 112 0
102 101 0
110 109 0
101 99 0
104 100 0
101 97 0
102 101 0
103 100 0
106 104 0
87 79 0
93 89 0
87 83 0
99 95 0
97 90 0
79 73 0
104 97 0
101 96 0
93 83 0
96 92 0
84 75 0
77 70 0
95 87 0
77 66 0
72 68 0
78 70 0
82 72 0
79 72 0
85 76 0
74 66 0
94 82 11
94 86 11
86 75 0
88 79 0
91 82 11
90 81 11
86 76 11
95 85 0
98 89 11
96 87 16
102 92 11
104 93 19
100 88 11
95 85 16
95 87 11
102 92 16
107 95 22
102 93 22
109 102 16
107 98 19
103 94 11
104 94 19
100 91 16
95 89 11
112 103 28
103 97 11
99 92 16
112 106 19
106 96 25
103 95 19
103 97 11
102 94 16
108 100 11
109 102 25
102 94 22
100 94 22
107 100 22
101 94 30
110 104 36
99 94 16
127 128 28
130 133 22
140 148 19
147 157 0
150 161 11
156 169 0
160 171 0
162 179 0
165 178 0
158 173 0
163 178 0
160 178 0
167 181 0
161 176 0
167 185 0
164 179 0
162 177 0
162 179 0
164 178 0
162 177 0
161 178 0
165 181 0
167 184 0
166 182 0
163 182 0
166 183 0
168 187 0
166 183 0
167 189 0
168 189 0
168 190 0
166 187 0
165 186 0
165 186 0
166 187 0
166 188 0
166 188 0
168 190 0
164 184 0
162 183 0
167 188 0
166 187 0
166 187 0
162 182 0
164 184 0
167 187 0
164 184 0
160 180 0
163 183 0
165 185 0
158 178 0
163 182 0
163 183 0
158 177 0
158 178 0
165 185 0
162 181 0
154 172 0
147 165 0
143 160 0
140 156 0
134 150 0
116 129 0
125 139 0
113 127 0
111 124 0
99 110 0
109 122 0
117 130 0
104 116 0
109 121 0
107 120 0
111 123 0
101 112 0
106 117 0
104 115 0
108 120 0
101 112 0
108 120 0
111 122 0
102 113 0
107 118 0
106 118 0
116 129 0
102 113 0
95 105 0
95 106 0
100 110 0
92 102 0
96 105 0
101 112 0
98 109 0
99 109 0
102 113 0
102 112 0
111 121 0
100 109 0
112 123 0
94 103 0
120 131 0
99 108 0
111 122 0
114 124 0
105 114 0
100 110 0
113 123 0
102 112 0
107 117 0
110 121 0
115 126 0
114 125 0
112 123 0
118 129 0
112 123 0
111 123 0
116 127 0
114 126 0
115 127 0
116 128 0
122 136 0
113 127 0
118 131 0
113 127 0
111 124 0
116 129 0
123 137 0
133 148 0
121 136 0
123 137 0
134 149 0
129 143 0
117 132 0
131 147 0
136 151 0
123 138 0
126 143 0
124 140 0
133 150 0
138 154 0
137 153 0
135 152 0
128 144 0
118 134 0
134 150 0
135 152 0
128 146 0
132 149 0
132 150 0
133 150 0
136 153 0
127 145 0
132 150 0
133 152 0
138 156 0
136 153 0
128 145 0
131 148 0
128 146 0
130 149 0
128 147 0
132 150 0
132 149 0
135 155 0
121 140 0
134 154 0
139 157 0
132 151 0
135 153 0
134 153 0
129 148 0
131 148 0
133 152 0
127 147 0
124 143 0
132 151 0
124 143 0
134 153 0
130 148 0
100 119 0
119 137 0
129 148 0
116 135 0
119 138 0
120 137 0
131 150 0
129 148 0
130 149 0
126 144 0
126 146 0
135 152 0
124 143 0
114 133 0
116 135 0
131 149 0
121 139 0
128 146 0
121 141 0
111 127 0
129 148 0
119 138 0
118 138 0
116 134 0
119 138 0
123 140 0
110 129 0
115 132 0
113 131 0
125 144 0
108 128 0
102 119 0
115 133 0
120 137 0
105 122 0
99 117 0
113 130 0
113 132 0
111 127 0
110 127 0
118 135 0
117 135 0
104 123 0
101 117 0
107 123 0
119 137 0
120 138 0
99 115 0
121 139 0
114 132 0
103 121 0
120 137 0
104 121 0
113 131 0
108 126 0
114 129 0
106 124 0
113 130 0
108 125 0
114 130 0
115 132 0
104 120 0
122 138 0
106 123 0
107 123 0
117 134 0
107 124 0
110 127 0
100 117 0
100 117 0
107 123 0
116 132 0
120 136 0
114 129 0
119 137 0
122 137 0
118 134 0
120 136 0
115 133 0
107 120 0
114 131 0
109 121 0
121 136 0
110 125 0
116 133 0
122 139 0
116 132 0
119 136 0
117 134 0
119 135 0
121 136 0
120 136 0
119 136 0
131 146 0
125 141 0
119 135 0
138 155 0
130 145 0
130 146 0
127 143 0
120 135 0
129 144 0
125 140 0
114 128 0
129 142 0
130 145 0
126 141 0
140 154 0
121 132 0
115 130 0
126 140 0
129 143 0
127 141 0
122 136 0
114 126 0
124 138 0
130 144 0
122 132 0
116 126 0
122 136 0
118 130 0
121 131 0
126 138 0
131 144 0
120 133 0
119 130 0
120 131 0
128 138 0
118 125 0
126 137 0
123 132 0
117 125 0
118 127 0
123 131 0
118 128 0
119 125 0
118 125 0
118 126 0
125 128 0
120 130 0
115 122 0
118 123 0
116 124 0
120 124 0
124 127 0
115 120 0
114 117 0
103 103 0
124 128 0
125 128 0
123 126 0
111 110 0
119 122 0
110 109 0
105 106 0
112 115 0
117 121 0
103 100 0
106 107 0
107 105 0
114 114 0
107 105 0
96 93 0
98 94 0
99 97 0
96 92 0
98 93 0
96 91 0
91 86 0
86 76 0
101 96 0
103 96 0
98 91 0
92 82 0
95 86 0
96 90 0
99 91 0
106 100 0
100 96 0
102 96 0
92 86 0
100 94 0
90 86 0
90 84 0
97 87 0
85 75 0
99 88 11
89 81 11
97 88 11
85 74 0
91 82 0
91 79 16
90 80 11
91 79 19
96 87 16
99 90 11
106 95 19
102 93 11
91 84 0
97 88 16
109 100 16
99 90 16
94 84 11
107 97 25
98 89 19
97 89 19
93 87 19
115 104 22
95 89 19
104 95 11
108 99 22
94 87 22
98 91 11
107 100 19
119 114 19
120 120 19
123 126 0
140 141 22
136 141 11
145 153 11
152 161 11
157 168 0
153 162 0
160 171 0
163 177 0
160 170 0
161 173 0
162 175 0
157 169 0
160 173 0
161 176 0
154 167 0
160 175 0
168 183 0
158 172 0
160 176 0
161 175 0
162 177 0
162 177 0
167 182 0
164 183 0
160 174 0
165 184 0
165 182 0
168 186 0
168 186 0
164 182 0
166 183 0
170 189 0
166 183 0
169 191 0
170 191 0
168 189 0
169 190 0
170 192 0
167 189 0
168 190 0
168 190 0
160 181 0
168 188 0
162 183 0
162 183 0
170 190 0
166 187 0
167 188 0
163 184 0
165 186 0
166 187 0
167 187 0
162 181 0
161 181 0
164 184 0
168 188 0
161 181 0
162 181 0
159 178 0
161 180 0
163 181 0
158 175 0
156 174 0
156 175 0
158 177 0
153 171 0
158 176 0
158 176 0
154 170 0
155 172 0
153 170 0
156 173 0
156 173 0
147 163 0
142 157 0
143 159 0
138 153 0
135 149 0
132 146 0
121 134 0
124 137 0
118 130 0
126 140 0
116 128 0
124 136 0
119 130 0
124 137 0
132 144 0
119 132 0
113 125 0
129 141 0
114 125 0
121 133 0
119 130 0
121 133 0
125 138 0
120 132 0
113 124 0
119 131 0
121 132 0
117 129 0
118 129 0
113 123 0
110 120 0
113 124 0
110 120 0
111 121 0
109 119 0
113 124 0
111 122 0
104 114 0
108 120 0
109 120 0
111 123 0
104 115 0
117 129 0
118 130 0
116 128 0
119 132 0
116 128 0
119 131 0
127 141 0
111 124 0
119 133 0
122 135 0
127 140 0
120 134 0
120 134 0
123 138 0
116 129 0
130 145 0
118 132 0
128 144 0
123 137 0
130 146 0
123 138 0
134 150 0
128 144 0
136 151 0
125 140 0
127 144 0
129 145 0
124 140 0
129 145 0
119 134 0
132 149 0
124 140 0
137 155 0
126 143 0
128 144 0
123 140 0
135 153 0
126 143 0
129 147 0
124 142 0
121 138 0
142 161 0
133 152 0
126 144 0
133 151 0
132 151 0
126 144 0
140 158 0
131 149 0
123 140 0
135 155 0
140 158 0
134 153 0
132 151 0
128 146 0
137 156 0
131 150 0
131 150 0
126 145 0
126 145 0
135 155 0
127 145 0
124 142 0
128 147 0
135 154 0
120 138 0
117 135 0
128 148 0
109 128 0
131 151 0
131 151 0
128 146 0
127 146 0
129 147 0
125 143 0
123 142 0
132 151 0
113 132 0
126 144 0
121 140 0
130 148 0
130 149 0
130 150 0
123 142 0
121 139 0
120 139 0
124 143 0
123 141 0
121 140 0
117 135 0
121 139 0
122 139 0
115 134 0
116 133 0
121 141 0
111 128 0
116 134 0
125 144 0
122 142 0
109 128 0
116 134 0
114 134 0
108 126 0
107 124 0
109 126 0
102 121 0
112 131 0
100 116 0
110 128 0
113 130 0
120 138 0
125 144 0
114 131 0
114 132 0
116 133 0
112 130 0
96 115 0
101 118 0
112 126 0
121 139 0
101 119 0
111 128 0
108 125 0
100 117 0
109 127 0
119 136 0
114 132 0
115 134 0
111 126 0
120 137 0
117 134 0
114 132 0
115 132 0
118 135 0
122 139 0
115 132 0
119 136 0
117 133 0
122 139 0
120 137 0
116 134 0
109 126 0
114 130 0
108 125 0
124 142 0
117 134 0
120 137 0
119 136 0
122 139 0
119 133 0
112 128 0
124 142 0
112 127 0
122 138 0
119 136 0
113 127 0
112 127 0
131 146 0
117 132 0
130 147 0
127 144 0
128 143 0
117 135 0
134 151 0
123 137 0
127 141 0
119 133 0
135 151 0
127 143 0
129 146 0
125 138 0
129 146 0
128 143 0
126 141 0
129 144 0
120 134 0
125 140 0
128 145 0
129 142 0
127 142 0
130 145 0
125 139 0
118 130 0
126 142 0
124 135 0
138 152 0
130 143 0
132 145 0
135 148 0
117 131 0
129 142 0
134 147 0
130 141 0
132 142 0
128 140 0
125 137 0
123 134 0
126 135 0
129 139 0
127 136 0
129 138 0
123 132 0
125 131 0
123 132 0
118 126 0
128 138 0
130 139 0
130 136 0
124 130 0
116 123 0
102 105 0
119 123 0
107 111 0
125 132 0
114 116 0
112 117 0
121 126 0
115 117 0
118 124 0
112 111 0
117 119 0
115 117 0
121 125 0
119 120 0
107 108 0
119 119 0
112 113 0
123 124 0
114 112 0
104 101 0
107 107 0
105 102 0
116 117 0
112 110 0
102 99 0
105 104 0
92 89 0
106 104 0
115 112 0
104 98 0
108 104 0
98 91 0
100 94 0
100 96 0
91 85 0
101 96 0
106 102 0
109 106 0
98 92 0
110 108 0
104 98 0
103 94 0
105 98 0
120 115 0
111 105 0
111 104 0
117 113 0
107 101 0
112 112 16
123 118 0
115 110 0
115 110 11
115 109 0
119 114 11
124 120 11
117 113 11
116 113 11
127 123 0
109 108 0
124 122 11
117 112 11
122 121 0
130 128 11
122 122 11
128 127 11
127 130 0
126 129 0
138 143 16
140 146 0
145 151 0
142 144 0
146 153 0
151 158 0
144 150 0
148 157 0
150 160 0
149 155 0
153 161 0
149 156 0
157 165 0
152 162 0
159 169 0
159 170 0
153 163 0
153 162 0
161 172 0
163 177 0
164 178 0
158 168 0
154 166 0
163 179 0
156 168 0
164 178 0
163 178 0
163 176 0
159 173 0
158 173 0
161 174 0
164 181 0
165 181 0
159 175 0
163 178 0
165 182 0
160 176 0
167 186 0
167 184 0
163 181 0
164 181 0
167 188 0
166 188 0
168 189 0
163 185 0
166 187 0
168 190 0
170 191 0
165 187 0
165 186 0
162 182 0
169 189 0
164 185 0
168 189 0
164 184 0
164 184 0
168 188 0
166 186 0
164 184 0
165 184 0
165 185 0
163 182 0
163 181 0
161 180 0
160 179 0
159 177 0
159 178 0
161 179 0
161 179 0
158 175 0
159 178 0
161 179 0
155 173 0
157 175 0
156 172 0
153 170 0
151 166 0
154 171 0
148 164 0
154 171 0
143 159 0
148 164 0
156 173 0
143 158 0
148 164 0
145 160 0
144 159 0
145 160 0
145 159 0
148 163 0
140 155 0
138 152 0
142 156 0
132 146 0
137 151 0
132 146 0
130 143 0
138 152 0
125 136 0
125 138 0
128 140 0
126 138 0
123 135 0
127 138 0
128 140 0
120 131 0
115 125 0
117 129 0
124 136 0
120 132 0
125 137 0
115 125 0
106 117 0
127 139 0
122 134 0
114 125 0
114 125 0
117 129 0
122 134 0
121 132 0
118 129 0
116 129 0
117 129 0
124 136 0
111 124 0
115 127 0
125 138 0
123 136 0
123 135 0
122 136 0
125 139 0
128 142 0
116 129 0
122 136 0
125 139 0
120 134 0
129 144 0
130 144 0
121 136 0
133 149 0
132 147 0
122 137 0
128 143 0
131 147 0
130 145 0
129 146 0
143 160 0
130 146 0
134 150 0
138 155 0
124 140 0
130 147 0
136 154 0
123 141 0
131 148 0
129 147 0
138 155 0
124 142 0
129 147 0
140 158 0
132 151 0
133 152 0
138 155 0
125 142 0
124 141 0
124 141 0
134 152 0
143 161 0
135 153 0
130 148 0
117 135 0
127 145 0
141 161 0
128 145 0
135 154 0
128 147 0
132 152 0
136 155 0
131 150 0
127 146 0
130 149 0
137 156 0
128 147 0
144 164 0
128 146 0
130 149 0
120 139 0
123 143 0
127 146 0
129 150 0
135 155 0
134 153 0
133 153 0
130 149 0
130 150 0
128 147 0
126 145 0
126 145 0
112 129 0
136 155 0
126 145 0
124 143 0
133 153 0
118 137 0
131 150 0
126 146 0
131 150 0
120 138 0
131 149 0
122 140 0
116 134 0
117 136 0
124 144 0
120 140 0
132 152 0
124 143 0
128 148 0
117 136 0
120 138 0
114 132 0
116 135 0
114 132 0
115 134 0
121 140 0
118 137 0
104 123 0
121 139 0
116 135 0
121 137 0
115 134 0
118 136 0
108 126 0
119 138 0
127 146 0
120 137 0
130 149 0
115 133 0
111 130 0
112 129 0
108 127 0
121 138 0
107 124 0
129 148 0
102 119 0
118 134 0
117 135 0
114 130 0
112 130 0
125 142 0
115 133 0
108 127 0
116 133 0
109 126 0
115 133 0
116 133 0
122 138 0
115 132 0
112 129 0
113 131 0
111 129 0
114 131 0
123 140 0
114 130 0
118 134 0
129 146 0
120 137 0
123 141 0
125 142 0
126 142 0
125 142 0
127 141 0
117 135 0
122 138 0
120 137 0
125 141 0
125 144 0
111 127 0
122 140 0
115 129 0
121 137 0
136 153 0
129 146 0
119 135 0
133 152 0
137 154 0
119 136 0
122 139 0
119 136 0
124 140 0
127 143 0
124 137 0
135 153 0
126 142 0
125 138 0
128 144 0
132 148 0
133 148 0
128 145 0
131 148 0
124 138 0
128 145 0
113 127 0
132 148 0
134 147 0
126 141 0
127 139 0
123 138 0
134 151 0
122 136 0
123 136 0
128 141 0
126 140 0
119 134 0
123 135 0
129 141 0
123 137 0
132 146 0
113 125 0
131 142 0
129 138 0
135 146 0
110 119 0
125 134 0
128 138 0
132 143 0
121 128 0
127 137 0
124 134 0
120 129 0
123 128 0
130 138 0
131 142 0
118 128 0
123 130 0
113 117 0
123 126 0
123 129 0
116 121 0
115 119 0
122 125 0
123 129 0
128 131 0
122 125 0
120 123 0
117 121 0
124 128 0
111 114 0
125 127 0
110 114 0
111 112 0
115 115 0
114 115 0
108 107 0
110 108 0
109 109 0
123 121 0
115 114 0
100 94 0
116 113 0
106 104 0
108 106 0
117 111 0
121 121 0
104 99 0
105 102 0
110 104 0
111 106 0
105 101 0
108 105 0
106 103 0
104 101 0
99 94 0
110 107 0
105 102 0
110 104 0
110 105 0
113 107 0
114 110 0
105 96 0
115 112 0
115 111 0
117 112 0
116 113 0
114 112 0
117 113 0
129 129 0
124 120 0
125 126 0
120 118 0
126 125 0
136 136 0
128 128 0
125 124 0
134 134 0
130 132 0
140 140 0
136 137 0
139 139 0
139 142 0
137 142 0
142 147 0
148 152 0
149 154 0
147 153 0
142 146 0
146 149 0
151 156 0
152 160 0
145 152 0
146 152 0
157 168 0
153 162 0
151 156 0
151 160 0
153 162 0
157 168 0
154 162 0
158 170 0
164 176 0
156 168 0
153 165 0
159 172 0
165 177 0
156 169 0
158 170 0
157 169 0
156 169 0
162 174 0
158 173 0
156 168 0
165 179 0
163 178 0
168 183 0
164 181 0
160 175 0
158 171 0
157 170 0
165 180 0
166 181 0
162 178 0
167 183 0
170 191 0
164 185 0
163 183 0
168 190 0
167 188 0
167 188 0
166 187 0
164 184 0
164 185 0
165 187 0
165 185 0
166 186 0
164 184 0
159 178 0
168 187 0
160 179 0
165 184 0
162 182 0
163 182 0
162 181 0
160 178 0
162 181 0
157 175 0
163 182 0
158 177 0
161 179 0
159 178 0
160 179 0
160 178 0
154 171 0
152 171 0
153 171 0
155 173 0
153 170 0
155 172 0
149 166 0
150 166 0
150 167 0
151 167 0
150 167 0
147 165 0
151 167 0
144 159 0
150 166 0
149 164 0
146 161 0
139 153 0
141 155 0
145 160 0
138 153 0
139 153 0
135 149 0
137 151 0
134 148 0
134 148 0
137 152 0
131 145 0
130 143 0
125 137 0
131 143 0
121 133 0
123 135 0
118 130 0
122 134 0
125 137 0
132 146 0
124 136 0
123 135 0
115 127 0
117 130 0
118 130 0
118 130 0
119 131 0
122 135 0
122 135 0
124 137 0
126 139 0
125 138 0
116 128 0
117 129 0
121 134 0
127 141 0
126 139 0
116 130 0
131 145 0
124 137 0
131 144 0
126 141 0
135 150 0
122 137 0
133 148 0
132 146 0
139 155 0
124 139 0
135 151 0
126 141 0
134 150 0
129 145 0
127 143 0
128 143 0
129 144 0
136 153 0
128 144 0
125 141 0
133 149 0
138 155 0
122 138 0
128 145 0
133 150 0
129 145 0
133 150 0
136 154 0
130 147 0
138 156 0
139 158 0
132 149 0
133 150 0
132 148 0
137 154 0
124 142 0
128 145 0
129 147 0
135 154 0
138 157 0
122 140 0
129 145 0
140 159 0
137 156 0
138 158 0
132 150 0
127 145 0
117 135 0
134 153 0
132 152 0
131 151 0
136 155 0
132 152 0
132 151 0
130 148 0
134 154 0
136 155 0
135 154 0
133 153 0
136 155 0
130 147 0
128 148 0
135 155 0
132 149 0
122 141 0
126 146 0
125 144 0
120 140 0
133 153 0
122 141 0
136 156 0
117 136 0
130 149 0
130 149 0
131 151 0
130 150 0
125 145 0
121 139 0
134 153 0
130 149 0
130 150 0
121 141 0
120 139 0
126 145 0
139 160 0
125 145 0
119 138 0
117 137 0
111 129 0
131 150 0
121 139 0
127 146 0
121 140 0
123 141 0
122 141 0
126 145 0
114 132 0
119 138 0
122 141 0
113 133 0
126 145 0
129 148 0
100 116 0
133 151 0
113 131 0
118 137 0
114 132 0
116 133 0
119 138 0
122 142 0
113 130 0
120 138 0
115 133 0
109 127 0
109 127 0
116 134 0
119 136 0
111 129 0
123 140 0
120 139 0
106 124 0
114 133 0
119 137 0
119 137 0
126 144 0
127 145 0
121 139 0
115 132 0
115 135 0
113 130 0
121 138 0
114 131 0
127 144 0
130 150 0
118 133 0
122 138 0
105 122 0
110 128 0
126 143 0
128 146 0
120 137 0
100 116 0
128 145 0
122 141 0
118 134 0
118 133 0
121 139 0
120 138 0
119 137 0
120 137 0
116 133 0
118 134 0
109 126 0
125 142 0
125 142 0
125 141 0
124 139 0
117 133 0
130 146 0
123 138 0
117 132 0
116 130 0
132 147 0
132 149 0
120 137 0
129 146 0
128 144 0
138 156 0
128 143 0
133 148 0
140 157 0
122 138 0
118 135 0
128 142 0
135 151 0
130 146 0
137 152 0
132 146 0
135 150 0
131 145 0
126 140 0
135 150 0
137 152 0
122 136 0
136 149 0
127 142 0
123 134 0
128 139 0
131 143 0
127 140 0
134 148 0
128 137 0
129 141 0
130 141 0
123 132 0
132 145 0
123 134 0
125 134 0
126 136 0
126 135 0
136 149 0
136 150 0
131 141 0
130 141 0
119 130 0
135 146 0
128 137 0
125 130 0
117 124 0
120 127 0
131 140 0
127 132 0
136 143 0
119 124 0
127 133 0
126 134 0
115 120 0
117 123 0
122 127 0
131 136 0
120 121 0
114 117 0
114 117 0
130 134 0
116 120 0
109 109 0
119 123 0
123 126 0
120 120 0
112 113 0
122 122 0
124 123 0
113 111 0
112 109 0
106 101 0
117 116 0
111 108 0
115 108 0
106 104 0
119 119 0
117 115 0
114 112 0
108 105 0
111 108 0
111 107 0
108 104 0
108 104 0
106 102 0
116 112 0
104 99 0
112 108 0
119 119 0
99 94 0
111 107 0
115 111 0
124 121 0
121 116 0
129 128 0
122 121 0
121 118 0
118 114 0
124 123 0
130 129 0
122 120 0
125 121 0
131 129 0
135 136 0
133 134 0
139 141 0
130 131 0
139 139 0
138 137 0
144 146 0
134 134 0
138 140 0
141 146 0
143 151 0
150 155 0
145 151 0
143 151 0
145 149 0
147 154 0
145 151 0
145 150 0
150 158 0
144 149 0
155 167 0
150 159 0
146 154 0
153 163 0
157 167 0
148 156 0
154 164 0
157 166 0
158 170 0
153 162 0
162 172 0
162 175 0
156 166 0
158 171 0
160 175 0
153 163 0
162 175 0
160 175 0
161 176 0
163 180 0
161 176 0
160 174 0
164 178 0
157 173 0
166 181 0
164 178 0
161 176 0
161 178 0
164 178 0
162 179 0
163 184 0
168 188 0
170 191 0
164 185 0
163 184 0
167 188 0
163 184 0
167 188 0
159 179 0
166 187 0
162 183 0
164 183 0
166 186 0
163 183 0
163 182 0
163 183 0
162 181 0
161 180 0
161 180 0
162 181 0
162 181 0
165 185 0
159 176 0
156 174 0
162 181 0
161 178 0
162 180 0
162 181 0
154 172 0
155 172 0
158 175 0
157 174 0
157 174 0
158 174 0
158 176 0
158 175 0
153 170 0
154 170 0
153 170 0
150 167 0
147 164 0
146 162 0
146 161 0
153 169 0
145 160 0
137 150 0
139 154 0
137 152 0
135 149 0
142 156 0
142 156 0
132 146 0
138 152 0
134 148 0
135 149 0
124 137 0
128 141 0
132 145 0
132 145 0
129 142 0
131 144 0
131 145 0
134 147 0
123 135 0
127 140 0
130 144 0
121 134 0
123 135 0
126 138 0
120 132 0
124 136 0
129 142 0
123 137 0
123 136 0
125 138 0
122 134 0
123 135 0
135 149 0
125 139 0
118 131 0
119 133 0
132 145 0
129 142 0
131 145 0
142 157 0
128 142 0
122 136 0
117 130 0
133 148 0
120 135 0
134 150 0
137 153 0
137 153 0
139 154 0
130 146 0
146 162 0
136 153 0
137 153 0
130 146 0
128 144 0
128 144 0
135 152 0
133 150 0
136 152 0
137 154 0
138 155 0
135 152 0
135 152 0
129 147 0
128 145 0
140 157 0
130 146 0
136 154 0
128 146 0
134 152 0
138 156 0
127 145 0
135 153 0
130 147 0
143 162 0
137 157 0
122 141 0
131 150 0
141 159 0
135 154 0
137 156 0
133 152 0
143 162 0
133 152 0
140 160 0
140 159 0
140 159 0
136 155 0
135 154 0
132 151 0
129 148 0
134 153 0
139 159 0
135 154 0
124 143 0
126 145 0
134 155 0
126 145 0
133 153 0
134 153 0
129 149 0
134 153 0
130 150 0
130 149 0
125 144 0
124 144 0
144 165 0
130 149 0
129 148 0
131 152 0
131 150 0
134 153 0
117 136 0
134 154 0
128 148 0
131 151 0
131 150 0
125 144 0
130 149 0
130 150 0
118 136 0
121 141 0
131 150 0
126 146 0
115 133 0
131 150 0
118 138 0
121 140 0
119 138 0
124 144 0
126 145 0
120 139 0
111 130 0
134 155 0
121 139 0
116 135 0
131 149 0
116 134 0
109 127 0
118 136 0
128 147 0
124 144 0
134 153 0
121 140 0
114 133 0
111 128 0
101 119 0
124 142 0
122 140 0
122 140 0
123 142 0
116 134 0
122 140 0
116 135 0
122 140 0
115 134 0
120 139 0
118 136 0
120 137 0
122 140 0
113 131 0
116 133 0
124 141 0
113 130 0
119 137 0
125 141 0
118 136 0
119 138 0
115 133 0
118 135 0
111 129 0
128 145 0
123 142 0
123 139 0
119 138 0
116 134 0
122 141 0
133 152 0
127 145 0
124 141 0
118 136 0
129 145 0
121 138 0
136 155 0
126 144 0
117 133 0
127 145 0
125 142 0
120 134 0
126 143 0
121 136 0
125 141 0
124 140 0
132 149 0
121 138 0
132 150 0
126 143 0
126 142 0
136 152 0
126 141 0
131 148 0
132 147 0
129 146 0
121 137 0
129 147 0
130 145 0
133 147 0
128 143 0
126 143 0
120 135 0
126 141 0
134 149 0
129 145 0
130 145 0
129 145 0
126 142 0
128 143 0
125 139 0
126 142 0
133 149 0
121 134 0
129 142 0
126 138 0
132 147 0
127 143 0
132 145 0
135 149 0
135 147 0
128 140 0
139 152 0
130 143 0
133 146 0
127 135 0
128 141 0
135 147 0
134 146 0
127 140 0
130 141 0
124 136 0
126 138 0
128 138 0
133 143 0
134 144 0
123 130 0
125 136 0
129 138 0
133 143 0
120 128 0
122 131 0
121 129 0
131 138 0
131 139 0
135 141 0
130 135 0
132 137 0
121 125 0
118 126 0
122 127 0
116 122 0
126 131 0
131 135 0
124 127 0
125 130 0
126 127 0
123 125 0
118 121 0
123 129 0
128 130 0
130 133 0
115 115 0
118 119 0
118 119 0
113 113 0
112 110 0
114 109 0
122 122 0
120 122 0
123 122 0
114 114 0
122 121 0
122 120 0
115 112 0
114 113 0
109 106 0
119 114 0
118 117 0
115 113 0
111 106 0
111 105 0
126 124 0
119 116 0
110 107 0
119 117 0
118 116 0
125 125 0
130 127 0
119 118 0
122 120 0
125 121 0
123 123 0
115 114 0
129 126 0
133 134 0
131 129 0
130 129 0
128 129 0
131 130 0
131 132 0
125 124 0
140 141 0
135 136 0
133 133 0
140 143 0
138 139 0
140 143 0
135 138 0
138 141 0
140 143 0
144 148 0
149 156 0
148 154 0
142 146 0
145 150 0
148 152 0
155 163 0
146 152 0
150 159 0
146 153 0
148 154 0
154 164 0
148 157 0
154 162 0
160 172 0
155 164 0
160 171 0
160 170 0
158 169 0
155 166 0
152 162 0
158 169 0
165 178 0
156 168 0
162 174 0
160 174 0
165 179 0
153 167 0
159 172 0
161 175 0
159 170 0
159 171 0
161 175 0
161 177 0
160 174 0
164 179 0
164 181 0
165 187 0
163 183 0
169 190 0
163 184 0
167 187 0
164 184 0
164 184 0
162 182 0
165 185 0
165 185 0
160 180 0
163 183 0
166 186 0
164 184 0
159 178 0
163 182 0
158 177 0
162 181 0
157 176 0
164 183 0
160 179 0
163 183 0
160 178 0
158 176 0
156 174 0
157 174 0
159 176 0
156 173 0
156 173 0
155 172 0
158 176 0
154 171 0
158 175 0
150 166 0
156 172 0
147 163 0
150 166 0
146 162 0
148 165 0
147 164 0
150 166 0
144 159 0
143 159 0
147 162 0
144 159 0
142 157 0
140 154 0
146 161 0
133 147 0
145 160 0
138 153 0
137 151 0
131 145 0
139 153 0
124 138 0
128 142 0
130 143 0
136 149 0
140 153 0
124 137 0
131 145 0
126 139 0
125 138 0
127 140 0
126 139 0
128 141 0
123 136 0
134 148 0
129 142 0
135 148 0
130 143 0
122 134 0
115 126 0
130 144 0
128 141 0
131 145 0
133 146 0
131 146 0
127 140 0
135 149 0
118 131 0
132 147 0
140 154 0
129 143 0
137 152 0
140 155 0
133 148 0
119 132 0
136 151 0
134 149 0
125 141 0
140 156 0
134 150 0
133 149 0
133 149 0
130 146 0
135 151 0
134 150 0
126 143 0
125 141 0
128 144 0
139 156 0
140 157 0
145 162 0
133 149 0
127 145 0
130 148 0
141 160 0
142 161 0
137 154 0
139 157 0
136 156 0
130 146 0
140 158 0
129 147 0
142 159 0
137 156 0
144 162 0
136 155 0
138 156 0
134 152 0
142 159 0
126 145 0
140 159 0
133 152 0
126 146 0
134 153 0
139 157 0
133 153 0
131 150 0
125 143 0
135 155 0
141 161 0
134 154 0
143 163 0
137 156 0
125 143 0
124 142 0
127 146 0
132 152 0
136 156 0
121 140 0
141 161 0
130 150 0
136 157 0
128 148 0
135 155 0
119 139 0
134 153 0
134 154 0
134 154 0
120 139 0
134 154 0
130 149 0
138 158 0
121 141 0
125 146 0
128 146 0
127 148 0
135 154 0
123 143 0
125 145 0
132 151 0
128 146 0
120 139 0
137 157 0
127 147 0
135 155 0
128 147 0
114 132 0
121 139 0
127 147 0
117 137 0
121 141 0
126 147 0
130 148 0
118 139 0
124 143 0
126 145 0
120 139 0
118 137 0
140 159 0
122 141 0
120 138 0
123 142 0
124 143 0
124 142 0
135 154 0
108 127 0
127 146 0
117 136 0
114 133 0
120 138 0
126 146 0
123 142 0
117 135 0
131 148 0
114 133 0
112 129 0
111 128 0
114 132 0
126 144 0
111 130 0
128 146 0
122 140 0
127 145 0
128 147 0
129 146 0
111 130 0
122 140 0
116 135 0
113 132 0
117 133 0
131 148 0
133 151 0
122 140 0
114 133 0
120 138 0
122 139 0
119 135 0
125 144 0
122 138 0
113 131 0
142 159 0
118 134 0
125 140 0
123 139 0
125 142 0
123 140 0
119 135 0
124 141 0
119 137 0
122 136 0
133 150 0
127 143 0
132 150 0
125 143 0
137 153 0
124 141 0
121 138 0
121 138 0
120 138 0
128 144 0
132 148 0
120 139 0
130 146 0
132 149 0
128 145 0
131 148 0
127 143 0
132 146 0
121 136 0
137 152 0
134 151 0
133 149 0
130 145 0
132 147 0
133 150 0
126 141 0
119 134 0
117 132 0
129 143 0
131 146 0
138 154 0
135 151 0
144 160 0
128 142 0
137 154 0
136 151 0
128 142 0
132 147 0
136 151 0
133 148 0
127 138 0
135 146 0
133 147 0
128 140 0
132 147 0
134 145 0
135 149 0
133 146 0
130 142 0
124 133 0
139 150 0
122 134 0
139 152 0
130 142 0
126 135 0
124 134 0
130 142 0
126 136 0
121 132 0
141 152 0
132 142 0
142 151 0
125 135 0
125 133 0
122 127 0
130 138 0
136 144 0
124 131 0
128 134 0
120 127 0
126 132 0
134 139 0
128 133 0
120 123 0
130 137 0
123 128 0
115 118 0
125 129 0
124 128 0
123 126 0
131 136 0
120 125 0
127 129 0
122 125 0
125 129 0
125 127 0
123 122 0
115 113 0
123 124 0
116 115 0
115 115 0
117 115 0
124 123 0
126 126 0
114 112 0
130 131 0
121 119 0
114 111 0
119 116 0
115 113 0
101 98 0
124 124 0
117 113 0
123 122 0
117 113 0
122 122 0
125 123 0
123 121 0
124 123 0
134 134 0
130 129 0
123 124 0
128 126 0
122 118 0
131 131 0
119 114 0
130 131 0
127 127 0
126 126 0
131 133 0
142 146 0
135 134 0
132 132 0
134 133 0
140 141 0
134 136 0
129 130 0
143 146 0
139 141 0
141 149 0
142 147 0
148 153 0
144 152 0
156 162 0
153 160 0
142 147 0
152 158 0
145 150 0
154 161 0
150 156 0
150 156 0
154 163 0
160 171 0
151 159 0
154 163 0
156 165 0
150 158 0
152 160 0
158 167 0
154 163 0
156 168 0
156 167 0
155 165 0
156 170 0
152 166 0
159 170 0
163 177 0
161 175 0
158 171 0
160 172 0
157 172 0
160 175 0
168 184 0
163 176 0
157 170 0
158 172 0
165 177 0
165 185 0
169 189 0
164 185 0
161 180 0
167 188 0
165 185 0
163 184 0
164 184 0
163 183 0
163 183 0
162 182 0
162 181 0
164 184 0
162 181 0
161 181 0
157 176 0
161 180 0
160 178 0
164 182 0
161 180 0
158 177 0
158 177 0
156 174 0
157 174 0
158 176 0
158 176 0
151 169 0
157 175 0
156 174 0
150 168 0
148 165 0
156 172 0
156 172 0
151 167 0
149 166 0
146 162 0
149 165 0
153 170 0
152 168 0
152 169 0
152 168 0
146 162 0
147 163 0
141 156 0
141 156 0
141 157 0
138 153 0
139 153 0
137 152 0
133 147 0
138 152 0
141 155 0
145 160 0
128 141 0
138 151 0
131 144 0
140 155 0
137 150 0
130 143 0
123 136 0
138 151 0
140 154 0
134 147 0
130 143 0
128 141 0
122 136 0
127 139 0
126 139 0
137 151 0
126 139 0
134 148 0
126 139 0
129 142 0
128 142 0
126 141 0
128 142 0
127 141 0
128 142 0
135 150 0
133 147 0
130 145 0
128 142 0
125 141 0
133 148 0
132 147 0
123 137 0
139 155 0
132 147 0
139 154 0
139 155 0
129 145 0
136 151 0
136 152 0
133 150 0
135 151 0
127 143 0
139 156 0
145 162 0
128 145 0
135 152 0
127 144 0
130 148 0
137 154 0
142 159 0
125 142 0
141 159 0
133 151 0
136 154 0
138 155 0
138 156 0
132 149 0
133 151 0
134 153 0
130 148 0
146 165 0
146 165 0
134 152 0
127 145 0
144 162 0
139 158 0
138 158 0
138 157 0
139 157 0
137 155 0
136 155 0
139 158 0
135 155 0
137 155 0
137 156 0
148 169 0
134 154 0
127 147 0
130 149 0
144 164 0
132 152 0
134 154 0
137 156 0
136 156 0
130 148 0
132 152 0
141 161 0
131 150 0
134 154 0
125 144 0
134 154 0
129 149 0
132 152 0
135 154 0
137 157 0
136 156 0
139 158 0
132 152 0
133 151 0
129 149 0
131 150 0
141 162 0
126 146 0
138 157 0
126 147 0
122 142 0
120 139 0
137 158 0
137 158 0
118 138 0
121 140 0
134 153 0
134 153 0
143 163 0
133 152 0
122 141 0
119 139 0
131 151 0
117 136 0
131 151 0
129 148 0
126 145 0
127 146 0
128 146 0
116 135 0
123 143 0
124 142 0
125 144 0
120 138 0
123 141 0
128 147 0
119 138 0
113 132 0
123 142 0
137 158 0
129 148 0
130 148 0
119 138 0
127 145 0
128 146 0
128 148 0
114 131 0
118 137 0
110 127 0
117 135 0
129 147 0
119 137 0
131 149 0
120 139 0
120 140 0
128 147 0
114 133 0
123 141 0
125 144 0
129 147 0
123 140 0
123 140 0
124 142 0
113 131 0
125 144 0
125 143 0
129 148 0
124 141 0
124 142 0
120 140 0
119 138 0
122 139 0
127 144 0
124 141 0
124 141 0
132 151 0
130 148 0
129 147 0
116 132 0
122 141 0
128 145 0
123 138 0
130 147 0
133 151 0
120 138 0
133 152 0
125 143 0
131 149 0
133 150 0
132 151 0
129 145 0
118 135 0
123 141 0
145 163 0
129 146 0
123 138 0
119 135 0
127 144 0
129 145 0
127 143 0
128 145 0
122 138 0
135 151 0
142 160 0
135 152 0
133 151 0
132 149 0
123 140 0
131 148 0
121 138 0
126 141 0
127 142 0
138 153 0
137 155 0
131 146 0
137 151 0
129 145 0
140 155 0
133 151 0
128 141 0
141 156 0
137 153 0
131 145 0
130 144 0
137 151 0
129 145 0
127 142 0
136 148 0
132 146 0
126 139 0
134 145 0
138 152 0
126 139 0
134 147 0
130 139 0
129 140 0
129 143 0
132 144 0
135 148 0
134 145 0
132 144 0
135 145 0
131 137 0
131 142 0
126 139 0
130 138 0
127 134 0
129 139 0
127 134 0
134 144 0
130 142 0
135 143 0
127 134 0
127 132 0
123 128 0
132 138 0
132 140 0
134 142 0
119 123 0
127 132 0
128 132 0
120 124 0
122 127 0
124 130 0
126 129 0
133 139 0
125 129 0
130 133 0
121 124 0
137 140 0
118 116 0
124 125 0
126 130 0
128 131 0
129 130 0
116 117 0
118 120 0
121 122 0
132 133 0
125 124 0
119 120 0
119 117 0
123 120 0
127 124 0
114 115 0
127 127 0
124 123 0
119 120 0
127 124 0
127 126 0
121 120 0
123 121 0
124 124 0
124 121 0
125 123 0
129 130 0
120 116 0
133 136 0
122 121 0
132 133 0
126 124 0
132 131 0
133 133 0
126 128 0
137 141 0
136 137 0
130 133 0
130 130 0
128 131 0
139 144 0
141 141 0
134 134 0
136 138 0
144 148 0
136 138 0
140 145 0
142 143 0
135 138 0
145 151 0
148 156 0
148 154 0
148 154 0
137 144 0
147 156 0
146 153 0
152 161 0
155 162 0
148 156 0
154 163 0
149 162 0
152 162 0
157 167 0
153 162 0
156 165 0
147 156 0
160 174 0
154 164 0
149 160 0
156 169 0
163 173 0
162 175 0
160 173 0
158 171 0
164 177 0
160 173 0
161 175 0
163 178 0
159 175 0
162 175 0
159 175 0
164 178 0
166 186 0
162 183 0
166 186 0
165 185 0
169 189 0
163 182 0
162 182 0
162 181 0
164 184 0
164 184 0
167 186 0
165 185 0
158 176 0
161 181 0
161 180 0
160 179 0
156 175 0
152 169 0
157 175 0
156 174 0
157 175 0
152 170 0
157 174 0
160 179 0
160 178 0
154 171 0
154 171 0
154 172 0
156 173 0
154 171 0
153 169 0
150 168 0
157 174 0
152 169 0
153 169 0
144 160 0
147 163 0
140 156 0
142 157 0
150 167 0
140 155 0
143 159 0
144 159 0
148 164 0
143 158 0
143 157 0
142 156 0
138 153 0
140 154 0
137 151 0
144 159 0
140 154 0
136 150 0
146 161 0
135 149 0
136 150 0
142 156 0
141 156 0
137 151 0
129 143 0
129 142 0
131 145 0
142 156 0
133 147 0
131 145 0
126 139 0
138 153 0
132 146 0
135 149 0
141 156 0
140 154 0
129 142 0
133 148 0
135 150 0
132 146 0
132 146 0
134 149 0
124 138 0
134 149 0
136 152 0
134 150 0
139 155 0
128 143 0
134 149 0
140 156 0
133 149 0
132 148 0
142 159 0
138 154 0
138 155 0
135 151 0
135 151 0
136 152 0
135 151 0
139 156 0
131 148 0
132 149 0
140 157 0
134 151 0
140 157 0
134 151 0
131 148 0
136 154 0
139 157 0
134 152 0
136 154 0
143 161 0
132 150 0
134 152 0
140 158 0
143 161 0
136 154 0
138 155 0
131 149 0
139 157 0
136 155 0
137 155 0
132 150 0
139 159 0
146 165 0
134 152 0
137 156 0
132 150 0
129 147 0
133 153 0
137 155 0
136 154 0
144 164 0
133 151 0
127 146 0
137 156 0
145 166 0
137 156 0
144 163 0
140 160 0
141 160 0
138 158 0
141 160 0
140 160 0
140 160 0
137 156 0
129 150 0
127 147 0
140 159 0
132 151 0
136 157 0
133 153 0
130 150 0
128 148 0
135 155 0
130 150 0
136 155 0
128 148 0
135 155 0
139 158 0
124 144 0
126 144 0
140 160 0
127 148 0
135 155 0
134 154 0
133 153 0
129 148 0
123 142 0
129 149 0
123 142 0
119 139 0
139 158 0
126 146 0
133 153 0
134 154 0
123 143 0
130 150 0
131 151 0
122 142 0
118 137 0
121 140 0
121 140 0
123 142 0
124 142 0
122 142 0
130 150 0
128 146 0
121 140 0
132 151 0
138 156 0
126 145 0
115 135 0
126 146 0
128 147 0
130 149 0
106 126 0
128 146 0
121 139 0
122 141 0
129 147 0
119 136 0
121 140 0
120 138 0
111 129 0
127 147 0
118 137 0
123 140 0
124 142 0
131 149 0
121 141 0
135 154 0
129 148 0
131 149 0
131 150 0
107 124 0
124 142 0
122 141 0
123 142 0
131 150 0
129 147 0
122 141 0
109 126 0
114 133 0
119 137 0
125 143 0
127 146 0
116 133 0
125 144 0
131 150 0
134 152 0
126 143 0
122 140 0
118 135 0
127 145 0
128 147 0
136 155 0
124 142 0
129 147 0
123 140 0
139 157 0
132 150 0
128 146 0
137 153 0
138 156 0
132 150 0
132 151 0
137 154 0
133 149 0
131 147 0
129 145 0
126 141 0
133 150 0
135 152 0
126 143 0
130 146 0
127 145 0
134 152 0
130 147 0
130 146 0
134 150 0
140 156 0
128 145 0
131 148 0
126 142 0
136 152 0
138 156 0
124 140 0
130 146 0
126 144 0
134 148 0
139 156 0
139 156 0
129 142 0
128 144 0
130 146 0
131 146 0
134 147 0
134 150 0
133 146 0
136 151 0
137 152 0
135 149 0
134 148 0
136 149 0
134 147 0
136 148 0
142 158 0
134 147 0
126 138 0
141 154 0
127 136 0
130 143 0
138 152 0
128 140 0
136 146 0
138 151 0
132 142 0
130 139 0
132 143 0
134 143 0
123 133 0
130 138 0
124 134 0
128 134 0
121 130 0
131 139 0
124 128 0
134 140 0
129 135 0
123 130 0
140 151 0
126 132 0
115 117 0
127 134 0
128 133 0
133 138 0
126 132 0
129 134 0
123 130 0
119 121 0
118 116 0
132 136 0
121 126 0
124 125 0
128 131 0
130 131 0
124 127 0
120 119 0
122 119 0
123 125 0
132 130 0
121 122 0
124 128 0
118 118 0
124 126 0
122 120 0
121 123 0
124 122 0
125 127 0
124 120 0
131 131 0
126 127 0
117 115 0
127 126 0
123 124 0
116 115 0
121 118 0
127 127 0
127 127 0
138 137 0
128 129 0
123 123 0
123 122 0
127 130 0
127 125 0
134 131 0
121 121 0
134 135 0
138 139 0
145 148 0
139 139 0
140 142 0
144 148 0
141 145 0
138 140 0
134 136 0
134 134 0
139 146 0
142 148 0
138 141 0
150 157 0
143 145 0
145 152 0
146 148 0
153 160 0
148 156 0
151 155 0
153 161 0
148 154 0
150 158 0
148 156 0
151 158 0
148 153 0
153 163 0
152 164 0
151 160 0
154 164 0
155 164 0
156 167 0
157 170 0
156 168 0
157 170 0
158 169 0
159 171 0
163 173 0
157 168 0
159 172 0
154 164 0
153 163 0
156 168 0
160 173 0
154 168 0
162 177 0
155 167 0
163 183 0
167 187 0
166 184 0
163 183 0
169 189 0
160 179 0
164 184 0
163 182 0
169 189 0
164 184 0
154 172 0
158 177 0
159 179 0
162 181 0
158 176 0
164 184 0
155 173 0
159 177 0
157 176 0
156 174 0
153 171 0
162 180 0
157 175 0
149 167 0
157 175 0
147 164 0
153 171 0
158 174 0
153 170 0
153 171 0
154 170 0
149 165 0
153 170 0
152 170 0
150 165 0
152 167 0
151 167 0
147 163 0
149 164 0
145 161 0
140 156 0
149 165 0
144 159 0
145 161 0
151 167 0
149 165 0
135 149 0
141 156 0
143 158 0
143 159 0
142 157 0
140 154 0
139 154 0
133 148 0
137 152 0
138 152 0
140 155 0
131 146 0
137 151 0
133 147 0
131 146 0
135 150 0
137 151 0
138 153 0
131 146 0
137 151 0
135 150 0
138 152 0
135 149 0
130 143 0
139 155 0
134 149 0
136 151 0
134 150 0
130 144 0
133 149 0
137 153 0
135 150 0
137 151 0
142 158 0
133 148 0
134 150 0
134 150 0
142 158 0
138 155 0
136 151 0
129 144 0
138 155 0
142 159 0
141 159 0
135 151 0
141 158 0
134 151 0
144 161 0
139 156 0
140 158 0
144 162 0
140 157 0
140 158 0
144 162 0
131 147 0
144 161 0
140 156 0
136 153 0
138 156 0
133 151 0
140 158 0
135 154 0
142 161 0
142 160 0
134 152 0
135 153 0
138 157 0
141 160 0
142 161 0
136 154 0
137 157 0
143 162 0
129 147 0
141 160 0
141 159 0
150 169 0
133 152 0
135 154 0
143 161 0
141 160 0
139 157 0
136 153 0
132 152 0
132 151 0
138 158 0
124 143 0
139 160 0
147 167 0
140 160 0
133 153 0
135 154 0
142 161 0
132 151 0
140 160 0
144 164 0
133 153 0
135 154 0
137 156 0
128 148 0
137 158 0
138 158 0
132 151 0
134 155 0
132 152 0
131 152 0
134 154 0
134 155 0
133 153 0
127 147 0
139 160 0
134 154 0
130 149 0
123 142 0
131 150 0
133 153 0
135 156 0
124 142 0
130 150 0
131 152 0
129 148 0
136 157 0
128 148 0
128 148 0
126 145 0
135 155 0
130 150 0
121 140 0
131 151 0
130 150 0
114 134 0
122 142 0
134 153 0
124 141 0
133 153 0
134 153 0
127 146 0
127 147 0
131 151 0
124 143 0
123 141 0
134 154 0
133 153 0
127 146 0
127 147 0
128 147 0
119 138 0
121 140 0
124 143 0
121 140 0
125 145 0
132 151 0
132 151 0
130 149 0
124 143 0
120 138 0
126 144 0
122 142 0
132 149 0
130 149 0
128 146 0
116 134 0
124 143 0
111 130 0
127 146 0
124 143 0
132 151 0
131 150 0
121 140 0
132 151 0
128 147 0
119 137 0
128 147 0
127 145 0
128 148 0
129 147 0
112 129 0
123 140 0
134 151 0
126 144 0
130 149 0
128 147 0
127 142 0
136 155 0
131 148 0
124 140 0
123 142 0
123 138 0
116 133 0
138 159 0
129 149 0
135 152 0
121 139 0
132 150 0
125 140 0
138 155 0
124 141 0
126 144 0
126 142 0
135 150 0
137 155 0
129 146 0
127 144 0
130 145 0
133 151 0
131 148 0
141 157 0
129 147 0
132 151 0
136 149 0
132 148 0
132 150 0
134 151 0
126 143 0
135 150 0
129 145 0
130 145 0
136 152 0
125 139 0
134 149 0
137 153 0
122 138 0
135 149 0
139 153 0
128 143 0
136 150 0
136 151 0
139 150 0
131 147 0
129 143 0
128 141 0
143 158 0
141 156 0
133 149 0
132 144 0
128 142 0
134 144 0
128 139 0
131 146 0
140 155 0
127 138 0
139 148 0
135 148 0
124 136 0
135 148 0
131 142 0
141 153 0
138 152 0
132 140 0
142 151 0
121 129 0
130 139 0
144 156 0
130 141 0
137 145 0
137 146 0
132 142 0
128 138 0
131 140 0
134 141 0
132 142 0
131 137 0
130 139 0
121 128 0
123 127 0
138 144 0
128 133 0
129 137 0
129 135 0
130 137 0
133 137 0
129 132 0
135 139 0
115 118 0
125 127 0
132 137 0
134 137 0
116 118 0
128 133 0
125 130 0
133 138 0
126 128 0
118 120 0
127 130 0
134 138 0
122 124 0
137 141 0
120 119 0
125 124 0
129 131 0
122 122 0
137 140 0
128 130 0
122 123 0
133 134 0
121 120 0
128 128 0
132 135 0
129 129 0
135 136 0
127 128 0
130 129 0
131 131 0
131 130 0
133 132 0
129 126 0
130 129 0
135 134 0
133 132 0
135 136 0
133 133 0
144 148 0
134 136 0
137 138 0
133 135 0
141 145 0
138 141 0
146 150 0
145 150 0
138 145 0
146 151 0
145 148 0
151 156 0
149 156 0
146 151 0
150 158 0
150 159 0
143 146 0
147 154 0
139 144 0
150 155 0
148 156 0
149 158 0
148 155 0
141 146 0
154 162 0
156 165 0
148 157 0
156 164 0
154 160 0
150 158 0
158 169 0
156 166 0
153 162 0
161 175 0
155 166 0
158 170 0
156 167 0
155 167 0
158 170 0
157 171 0
156 170 0
155 167 0
162 176 0
163 175 0
163 183 0
165 186 0
159 179 0
166 186 0
164 184 0
164 184 0
161 180 0
160 179 0
162 182 0
161 181 0
161 181 0
160 178 0
162 181 0
164 184 0
158 176 0
155 173 0
158 176 0
162 181 0
158 175 0
158 177 0
157 174 0
156 174 0
154 171 0
156 174 0
157 174 0
156 173 0
153 169 0
155 174 0
150 167 0
158 176 0
152 169 0
157 175 0
154 171 0
151 167 0
152 168 0
153 170 0
149 166 0
151 167 0
151 168 0
147 162 0
148 164 0
148 163 0
142 157 0
145 160 0
149 165 0
141 156 0
140 155 0
143 158 0
140 154 0
140 155 0
143 158 0
138 152 0
139 154 0
143 158 0
147 163 0
139 154 0
134 148 0
137 151 0
139 153 0
133 149 0
132 146 0
139 154 0
137 151 0
133 148 0
136 151 0
139 154 0
140 156 0
143 159 0
134 149 0
136 151 0
137 153 0
128 142 0
136 152 0
136 151 0
143 159 0
138 154 0
140 156 0
136 151 0
138 153 0
142 158 0
138 156 0
135 150 0
137 152 0
138 154 0
138 154 0
138 155 0
141 158 0
142 159 0
138 155 0
140 157 0
138 156 0
128 145 0
141 158 0
143 161 0
136 154 0
143 160 0
145 164 0
139 157 0
144 161 0
141 159 0
137 155 0
141 158 0
143 161 0
143 161 0
135 153 0
136 154 0
148 166 0
135 153 0
140 159 0
136 154 0
135 154 0
147 166 0
141 160 0
135 154 0
140 161 0
139 157 0
140 159 0
136 155 0
139 159 0
133 152 0
143 162 0
137 155 0
140 159 0
139 159 0
131 151 0
140 161 0
146 166 0
138 156 0
133 153 0
140 159 0
140 161 0
133 153 0
145 165 0
141 160 0
141 160 0
136 156 0
136 157 0
137 156 0
146 167 0
141 161 0
138 158 0
130 149 0
137 156 0
138 158 0
131 152 0
142 162 0
138 157 0
143 164 0
135 156 0
141 162 0
133 153 0
136 155 0
132 152 0
139 160 0
139 159 0
134 153 0
123 144 0
132 153 0
128 148 0
140 160 0
131 151 0
135 154 0
133 153 0
130 150 0
135 155 0
135 156 0
134 154 0
128 149 0
127 148 0
141 161 0
131 151 0
130 150 0
129 149 0
128 146 0
134 154 0
125 144 0
124 143 0
131 151 0
118 136 0
123 143 0
128 148 0
128 148 0
138 158 0
130 150 0
124 144 0
133 153 0
126 145 0
129 147 0
137 158 0
125 146 0
124 143 0
128 148 0
125 144 0
130 150 0
120 139 0
133 151 0
132 153 0
137 155 0
117 135 0
135 154 0
122 141 0
125 144 0
120 140 0
127 145 0
139 159 0
131 149 0
121 140 0
123 142 0
122 141 0
120 140 0
126 144 0
117 134 0
132 151 0
128 144 0
128 147 0
127 145 0
133 151 0
120 137 0
119 138 0
121 140 0
130 149 0
126 145 0
129 148 0
124 142 0
129 148 0
132 150 0
134 152 0
124 142 0
115 133 0
119 138 0
126 144 0
132 150 0
128 146 0
135 153 0
124 143 0
132 150 0
138 156 0
133 151 0
130 149 0
137 156 0
135 152 0
121 138 0
130 147 0
134 152 0
139 156 0
134 150 0
141 157 0
138 154 0
133 151 0
132 146 0
140 157 0
139 158 0
141 158 0
135 153 0
140 156 0
137 154 0
131 149 0
124 141 0
134 152 0
142 160 0
139 156 0
132 149 0
140 156 0
140 155 0
138 154 0
130 146 0
139 157 0
130 146 0
141 156 0
127 142 0
141 155 0
141 156 0
128 144 0
132 148 0
132 146 0
132 145 0
130 144 0
142 157 0
133 147 0
145 160 0
126 140 0
138 152 0
130 143 0
132 147 0
128 139 0
130 143 0
137 153 0
133 145 0
139 153 0
131 145 0
132 143 0
136 151 0
137 151 0
128 137 0
131 139 0
132 143 0
129 141 0
133 144 0
127 135 0
134 146 0
128 136 0
138 147 0
134 144 0
136 148 0
129 139 0
134 143 0
134 143 0
129 137 0
138 150 0
130 135 0
133 142 0
124 129 0
133 140 0
116 120 0
135 141 0
141 147 0
127 133 0
123 129 0
128 134 0
125 129 0
130 133 0
132 135 0
135 140 0
136 142 0
129 133 0
134 139 0
132 136 0
131 136 0
128 130 0
115 118 0
121 124 0
133 134 0
126 125 0
128 131 0
137 140 0
124 125 0
131 131 0
132 133 0
125 126 0
127 129 0
122 125 0
134 134 0
127 127 0
125 127 0
129 128 0
133 133 0
127 126 0
134 134 0
127 125 0
139 141 0
139 141 0
128 132 0
137 140 0
140 140 0
136 137 0
138 141 0
144 148 0
144 149 0
136 140 0
142 144 0
135 137 0
135 133 0
131 136 0
141 144 0
133 133 0
129 130 0
140 144 0
137 139 0
134 134 0
143 148 0
141 146 0
150 155 0
146 151 0
150 155 0
151 161 0
156 164 0
146 153 0
150 158 0
151 159 0
154 163 0
148 156 0
156 163 0
155 163 0
151 159 0
155 165 0
146 155 0
146 155 0
153 162 0
157 169 0
154 163 0
155 166 0
160 170 0
163 175 0
158 170 0
155 164 0
164 178 0
158 167 0
158 171 0
156 169 0
164 178 0
161 182 0
166 187 0
164 185 0
164 184 0
161 181 0
161 180 0
162 181 0
159 177 0
165 183 0
161 180 0
164 184 0
158 176 0
165 183 0
154 172 0
164 182 0
155 173 0
157 175 0
153 171 0
154 172 0
158 175 0
158 175 0
149 166 0
156 173 0
156 173 0
159 176 0
155 172 0
153 171 0
149 166 0
157 174 0
155 172 0
151 167 0
154 171 0
152 169 0
147 164 0
152 168 0
149 164 0
147 163 0
144 160 0
145 161 0
145 160 0
144 160 0
150 166 0
148 163 0
145 161 0
150 166 0
146 162 0
138 153 0
141 156 0
145 161 0
146 161 0
145 162 0
138 152 0
140 155 0
141 156 0
137 152 0
144 159 0
137 152 0
139 154 0
137 151 0
141 157 0
138 153 0
139 155 0
136 151 0
140 155 0
137 152 0
146 161 0
138 153 0
138 154 0
136 151 0
138 153 0
143 158 0
134 150 0
139 154 0
138 154 0
142 158 0
126 142 0
139 155 0
140 156 0
133 149 0
143 159 0
137 154 0
139 155 0
141 159 0
135 152 0
144 161 0
145 162 0
139 156 0
137 155 0
132 148 0
140 157 0
146 164 0
142 160 0
137 154 0
143 161 0
145 163 0
142 160 0
138 154 0
144 162 0
143 161 0
135 153 0
137 155 0
141 160 0
143 161 0
148 166 0
138 156 0
143 161 0
145 164 0
138 156 0
138 158 0
142 160 0
140 160 0
141 159 0
146 166 0
140 160 0
142 162 0
135 154 0
137 156 0
140 160 0
133 152 0
139 158 0
136 155 0
140 160 0
147 167 0
131 151 0
144 164 0
128 148 0
139 160 0
129 148 0
139 159 0
134 153 0
144 164 0
137 157 0
139 158 0
132 152 0
131 150 0
145 164 0
140 159 0
142 163 0
134 154 0
142 163 0
140 159 0
139 159 0
143 165 0
131 150 0
141 162 0
140 160 0
135 155 0
142 161 0
139 160 0
129 149 0
136 156 0
135 155 0
137 157 0
132 152 0
142 163 0
137 157 0
137 156 0
129 149 0
132 152 0
122 142 0
138 158 0
138 158 0
128 150 0
134 154 0
134 153 0
127 147 0
139 160 0
125 145 0
135 156 0
130 151 0
129 148 0
140 160 0
122 142 0
129 150 0
125 146 0
127 146 0
130 149 0
138 158 0
138 158 0
134 153 0
125 144 0
136 158 0
134 154 0
132 152 0
126 146 0
125 144 0
133 152 0
126 145 0
137 157 0
128 148 0
124 143 0
128 146 0
132 152 0
117 136 0
119 138 0
119 138 0
132 152 0
128 146 0
122 142 0
132 152 0
143 164 0
125 145 0
138 157 0
127 144 0
124 144 0
128 148 0
128 146 0
136 155 0
130 150 0
132 150 0
131 150 0
137 155 0
130 148 0
129 148 0
119 137 0
130 148 0
127 145 0
130 149 0
123 143 0
129 148 0
124 143 0
124 142 0
131 148 0
123 141 0
133 152 0
130 147 0
142 160 0
135 150 0
146 164 0
127 144 0
130 149 0
138 156 0
125 143 0
134 151 0
134 152 0
125 144 0
138 156 0
137 155 0
140 159 0
131 148 0
132 149 0
132 149 0
131 150 0
136 155 0
130 146 0
140 158 0
135 151 0
139 157 0
131 148 0
136 154 0
132 149 0
135 152 0
135 153 0
133 151 0
125 141 0
134 152 0
135 153 0
137 154 0
127 143 0
152 169 0
123 139 0
133 150 0
135 151 0
135 151 0
138 155 0
141 157 0
141 157 0
136 153 0
135 153 0
139 156 0
128 143 0
139 155 0
131 146 0
142 156 0
132 146 0
131 148 0
133 147 0
138 152 0
139 154 0
142 158 0
146 159 0
130 143 0
140 154 0
144 158 0
138 153 0
135 148 0
138 152 0
133 144 0
134 147 0
130 143 0
133 146 0
130 143 0
130 140 0
140 151 0
136 147 0
140 151 0
132 142 0
134 142 0
136 148 0
138 149 0
131 143 0
141 153 0
126 136 0
125 129 0
133 141 0
124 132 0
130 137 0
137 143 0
134 141 0
131 138 0
139 146 0
134 143 0
133 141 0
134 139 0
137 144 0
133 137 0
137 142 0
131 138 0
128 133 0
134 137 0
134 139 0
129 133 0
129 134 0
139 145 0
129 137 0
121 125 0
134 139 0
136 138 0
138 142 0
132 141 0
143 148 0
124 126 0
127 130 0
128 130 0
129 132 0
132 136 0
137 140 0
129 128 0
132 135 0
131 132 0
133 134 0
127 125 0
129 129 0
139 140 0
129 135 0
134 135 0
137 137 0
138 140 0
127 129 0
133 136 0
141 143 0
131 133 0
133 133 0
140 143 0
133 135 0
134 137 0
143 148 0
142 144 0
138 144 0
140 142 0
143 146 0
138 143 0
142 146 0
136 136 0
144 148 0
144 150 0
147 154 0
141 146 0
148 153 0
145 150 0
150 156 0
146 151 0
147 153 0
148 153 0
146 151 0
146 151 0
154 164 0
153 158 0
152 160 0
157 165 0
149 156 0
143 149 0
155 165 0
160 169 0
150 158 0
156 167 0
153 161 0
153 162 0
160 169 0
152 163 0
155 162 0
151 160 0
156 169 0
153 164 0
154 166 0
154 165 0
159 172 0
159 171 0
161 174 0
156 166 0
162 182 0
166 186 0
160 179 0
166 185 0
164 183 0
163 182 0
156 174 0
161 179 0
161 180 0
161 180 0
162 181 0
158 177 0
159 178 0
162 182 0
159 178 0
165 184 0
159 177 0
155 173 0
156 174 0
154 172 0
154 172 0
151 168 0
153 170 0
165 183 0
149 165 0
148 165 0
157 174 0
147 163 0
154 171 0
149 165 0
153 170 0
157 173 0
149 165 0
152 167 0
154 171 0
143 159 0
147 163 0
143 159 0
149 166 0
144 160 0
147 163 0
145 160 0
145 161 0
150 166 0
150 166 0
141 157 0
139 154 0
146 162 0
144 160 0
142 157 0
143 158 0
139 155 0
138 153 0
144 160 0
142 157 0
142 157 0
140 155 0
145 161 0
140 155 0
138 154 0
143 159 0
146 162 0
142 157 0
135 150 0
147 163 0
141 157 0
144 161 0
131 147 0
143 158 0
136 152 0
142 157 0
140 156 0
145 161 0
138 154 0
140 157 0
140 156 0
147 163 0
150 168 0
141 158 0
139 155 0
143 160 0
147 165 0
137 154 0
140 157 0
140 157 0
143 160 0
142 159 0
142 159 0
146 164 0
142 160 0
135 152 0
144 162 0
138 155 0
134 152 0
140 158 0
138 155 0
143 161 0
139 157 0
141 160 0
143 162 0
137 155 0
141 159 0
138 156 0
140 159 0
141 159 0
135 154 0
143 160 0
144 162 0
137 156 0
139 158 0
136 154 0
133 152 0
141 160 0
140 159 0
139 157 0
145 164 0
141 162 0
132 151 0
142 162 0
133 151 0
137 156 0
147 166 0
146 166 0
143 163 0
148 169 0
143 162 0
143 163 0
137 157 0
128 148 0
136 156 0
139 159 0
131 152 0
137 156 0
142 162 0
146 166 0
139 159 0
133 153 0
139 159 0
139 160 0
130 151 0
146 167 0
137 157 0
131 152 0
129 148 0
134 154 0
139 159 0
132 152 0
129 150 0
140 160 0
136 156 0
138 158 0
140 160 0
133 153 0
132 153 0
127 147 0
139 159 0
140 159 0
142 163 0
120 140 0
140 160 0
131 152 0
131 150 0
133 154 0
127 148 0
131 152 0
132 153 0
134 153 0
142 162 0
124 144 0
133 153 0
126 147 0
137 158 0
130 151 0
141 160 0
129 150 0
119 138 0
134 154 0
130 151 0
126 146 0
123 143 0
139 160 0
129 149 0
126 145 0
131 151 0
129 148 0
135 154 0
133 153 0
134 154 0
125 143 0
136 156 0
136 156 0
129 148 0
130 149 0
124 143 0
124 143 0
126 145 0
126 146 0
137 156 0
135 155 0
136 154 0
125 144 0
126 145 0
135 155 0
129 146 0
122 141 0
136 156 0
119 138 0
130 150 0
133 153 0
123 141 0
135 155 0
130 148 0
121 139 0
130 149 0
127 147 0
132 150 0
135 153 0
130 148 0
126 144 0
123 143 0
124 142 0
128 148 0
132 151 0
129 147 0
133 151 0
131 148 0
130 148 0
135 153 0
125 143 0
120 138 0
119 138 0
126 145 0
130 150 0
123 141 0
125 142 0
129 147 0
135 152 0
127 146 0
134 153 0
126 145 0
137 156 0
137 157 0
135 151 0
129 146 0
135 154 0
125 142 0
139 157 0
134 150 0
130 147 0
128 147 0
135 153 0
135 154 0
134 151 0
136 154 0
136 152 0
129 147 0
131 148 0
139 159 0
133 150 0
143 160 0
133 149 0
133 150 0
143 159 0
136 151 0
144 161 0
142 159 0
138 155 0
134 150 0
132 149 0
140 155 0
129 142 0
141 157 0
134 151 0
141 158 0
131 148 0
133 147 0
139 154 0
138 154 0
141 157 0
145 159 0
136 149 0
146 160 0
135 148 0
144 160 0
136 149 0
138 152 0
134 146 0
139 155 0
138 152 0
138 151 0
131 145 0
141 154 0
134 145 0
129 142 0
137 148 0
136 148 0
146 159 0
147 158 0
138 150 0
134 144 0
146 159 0
138 149 0
138 150 0
132 142 0
131 139 0
136 148 0
141 151 0
138 149 0
140 148 0
136 145 0
137 147 0
131 138 0
136 144 0
141 150 0
136 144 0
136 143 0
126 134 0
138 147 0
139 145 0
140 150 0
137 144 0
136 143 0
128 136 0
134 138 0
129 131 0
132 140 0
130 132 0
140 146 0
127 133 0
130 133 0
132 137 0
124 125 0
141 148 0
133 137 0
130 131 0
119 120 0
136 140 0
134 139 0
136 142 0
125 126 0
131 135 0
131 133 0
121 122 0
134 135 0
139 141 0
133 134 0
133 135 0
135 138 0
130 129 0
138 140 0
134 137 0
135 139 0
133 135 0
131 134 0
131 133 0
130 132 0
135 137 0
142 146 0
134 135 0
147 150 0
138 142 0
135 137 0
139 143 0
146 148 0
141 147 0
141 143 0
143 148 0
143 147 0
149 154 0
145 147 0
147 151 0
150 155 0
145 148 0
146 152 0
148 156 0
149 155 0
143 151 0
149 156 0
150 156 0
151 158 0
144 150 0
154 160 0
151 159 0
151 158 0
152 159 0
154 167 0
157 167 0
156 166 0
158 168 0
156 167 0
153 162 0
155 165 0
158 169 0
157 170 0
158 169 0
154 166 0
154 165 0
161 174 0
157 170 0
158 169 0
164 183 0
164 185 0
160 179 0
155 174 0
161 180 0
161 180 0
162 181 0
161 179 0
159 179 0
164 183 0
163 181 0
158 176 0
160 179 0
162 181 0
160 178 0
155 173 0
155 173 0
153 170 0
157 174 0
158 176 0
155 172 0
152 169 0
159 176 0
156 174 0
153 170 0
151 168 0
154 170 0
154 172 0
153 170 0
152 170 0
151 168 0
155 172 0
155 171 0
148 164 0
149 166 0
153 169 0
144 160 0
147 163 0
148 164 0
145 162 0
148 164 0
149 165 0
151 168 0
144 160 0
143 158 0
145 160 0
140 156 0
147 164 0
145 161 0
139 155 0
144 159 0
141 157 0
148 165 0
149 165 0
146 162 0
138 154 0
147 163 0
143 158 0
144 159 0
139 154 0
139 155 0
142 159 0
139 155 0
147 163 0
148 165 0
141 157 0
146 161 0
140 155 0
136 152 0
138 154 0
145 161 0
133 149 0
130 146 0
137 153 0
144 160 0
143 160 0
134 150 0
145 163 0
144 161 0
136 153 0
143 160 0
141 158 0
140 156 0
144 162 0
138 156 0
134 151 0
138 154 0
145 164 0
141 159 0
138 156 0
144 162 0
152 172 0
148 166 0
147 165 0
147 164 0
146 165 0
145 163 0
137 154 0
146 164 0
136 155 0
140 159 0
145 164 0
139 159 0
147 167 0
147 166 0
143 163 0
143 162 0
145 165 0
135 154 0
143 162 0
143 163 0
142 162 0
144 165 0
154 172 0
137 157 0
130 149 0
141 161 0
143 163 0
141 161 0
132 152 0
136 155 0
135 153 0
137 157 0
148 168 0
139 160 0
136 156 0
150 171 0
146 166 0
130 149 0
139 159 0
139 159 0
134 154 0
136 156 0
146 167 0
141 162 0
135 155 0
134 155 0
128 147 0
150 171 0
149 169 0
142 163 0
138 158 0
133 153 0
145 165 0
145 166 0
139 159 0
138 158 0
154 174 0
139 159 0
135 155 0
132 152 0
135 156 0
139 160 0
139 159 0
142 163 0
129 150 0
137 158 0
134 154 0
134 154 0
134 154 0
133 153 0
129 150 0
135 156 0
132 153 0
128 148 0
139 159 0
140 160 0
129 151 0
139 158 0
137 157 0
132 151 0
135 155 0
134 154 0
143 163 0
127 147 0
133 153 0
140 160 0
137 156 0
125 145 0
134 153 0
135 156 0
134 154 0
138 159 0
139 160 0
132 152 0
127 147 0
134 154 0
123 143 0
136 155 0
138 158 0
132 152 0
142 163 0
127 147 0
129 148 0
135 155 0
132 152 0
123 142 0
123 142 0
128 148 0
121 141 0
125 144 0
123 142 0
137 157 0
128 148 0
123 141 0
128 147 0
126 145 0
135 153 0
136 154 0
130 150 0
125 143 0
130 149 0
125 143 0
130 149 0
123 142 0
129 148 0
128 147 0
129 149 0
125 144 0
118 135 0
134 151 0
135 153 0
126 145 0
129 148 0
129 149 0
129 146 0
131 149 0
129 146 0
143 162 0
130 147 0
123 142 0
131 149 0
123 142 0
124 141 0
137 155 0
131 150 0
134 154 0
140 158 0
130 148 0
139 158 0
134 153 0
140 159 0
139 158 0
141 158 0
124 140 0
142 159 0
129 145 0
140 159 0
133 153 0
128 145 0
133 150 0
133 152 0
133 150 0
128 146 0
143 161 0
140 159 0
135 152 0
139 157 0
138 155 0
141 160 0
134 150 0
143 161 0
144 162 0
134 151 0
144 162 0
140 158 0
131 147 0
130 146 0
133 148 0
138 155 0
137 155 0
137 154 0
133 149 0
129 145 0
140 157 0
142 157 0
145 162 0
134 148 0
139 155 0
142 154 0
140 154 0
145 161 0
145 160 0
133 147 0
138 153 0
130 144 0
135 149 0
142 157 0
132 145 0
144 157 0
142 156 0
140 151 0
146 160 0
134 148 0
135 148 0
134 146 0
140 156 0
141 156 0
130 141 0
136 147 0
138 148 0
146 158 0
140 154 0
129 139 0
137 148 0
134 144 0
138 149 0
139 150 0
138 147 0
131 141 0
137 144 0
124 132 0
137 148 0
133 141 0
126 133 0
138 147 0
141 152 0
132 139 0
136 144 0
135 145 0
132 137 0
139 145 0
135 140 0
138 145 0
126 131 0
130 138 0
129 133 0
122 129 0
138 145 0
135 141 0
135 141 0
124 130 0
132 137 0
137 144 0
131 134 0
130 139 0
143 147 0
141 146 0
133 135 0
134 138 0
124 124 0
141 146 0
129 131 0
143 146 0
141 146 0
142 149 0
137 138 0
133 134 0
134 139 0
137 140 0
131 135 0
140 144 0
137 140 0
132 131 0
142 147 0
137 141 0
135 135 0
144 147 0
148 151 0
142 144 0
143 146 0
131 134 0
139 142 0
139 144 0
142 147 0
143 146 0
142 145 0
138 140 0
143 147 0
147 154 0
149 154 0
142 148 0
153 160 0
147 154 0
135 139 0
137 141 0
153 162 0
150 158 0
149 156 0
153 161 0
149 156 0
157 166 0
154 162 0
149 159 0
147 155 0
146 150 0
154 163 0
150 159 0
149 154 0
158 170 0
153 165 0
151 158 0
158 168 0
160 173 0
157 169 0
154 165 0
160 173 0
155 169 0
158 168 0
157 169 0
154 172 0
158 176 0
165 184 0
162 181 0
158 176 0
156 175 0
157 176 0
158 177 0
154 172 0
159 178 0
154 172 0
160 179 0
160 178 0
158 177 0
165 184 0
158 176 0
155 172 0
155 173 0
160 179 0
156 173 0
154 172 0
154 171 0
155 172 0
157 175 0
152 169 0
148 165 0
156 173 0
150 167 0
153 170 0
151 168 0
151 167 0
150 166 0
156 173 0
141 157 0
148 164 0
146 162 0
152 169 0
150 167 0
142 158 0
149 165 0
151 166 0
143 159 0
147 163 0
151 168 0
149 166 0
152 168 0
149 166 0
147 164 0
146 162 0
137 152 0
147 163 0
144 161 0
144 160 0
150 166 0
144 160 0
140 155 0
135 151 0
149 165 0
144 160 0
146 163 0
150 166 0
135 151 0
139 155 0
142 159 0
140 156 0
137 153 0
148 164 0
138 154 0
144 162 0
150 167 0
137 153 0
147 164 0
139 156 0
144 162 0
140 156 0
151 167 0
144 161 0
146 163 0
146 164 0
141 158 0
141 159 0
144 161 0
147 164 0
145 162 0
146 163 0
146 164 0
145 163 0
133 150 0
142 160 0
143 161 0
141 159 0
137 156 0
140 158 0
147 165 0
149 169 0
139 156 0
144 163 0
138 156 0
143 162 0
145 163 0
147 167 0
137 155 0
135 153 0
139 158 0
138 156 0
142 161 0
141 160 0
142 162 0
144 163 0
140 159 0
133 151 0
149 169 0
143 163 0
148 169 0
140 159 0
149 168 0
138 157 0
140 160 0
142 162 0
132 150 0
143 163 0
144 163 0
144 164 0
142 162 0
145 165 0
140 160 0
140 159 0
143 164 0
138 158 0
146 166 0
133 153 0
141 162 0
150 171 0
132 151 0
138 158 0
141 162 0
137 157 0
134 154 0
142 163 0
136 155 0
140 160 0
140 160 0
137 156 0
137 158 0
134 155 0
136 156 0
135 156 0
146 166 0
135 155 0
140 160 0
141 162 0
135 155 0
134 154 0
135 156 0
141 162 0
133 153 0
137 158 0
136 155 0
138 158 0
133 154 0
141 162 0
142 162 0
139 159 0
136 157 0
139 159 0
139 160 0
132 151 0
147 168 0
130 150 0
131 151 0
129 149 0
140 159 0
128 147 0
135 155 0
133 152 0
135 155 0
137 157 0
135 154 0
133 154 0
139 160 0
131 151 0
133 153 0
127 147 0
138 159 0
134 155 0
128 148 0
137 157 0
139 159 0
133 153 0
139 160 0
126 144 0
135 156 0
129 149 0
129 148 0
123 142 0
134 153 0
132 153 0
137 157 0
126 145 0
124 143 0
127 147 0
125 145 0
125 145 0
124 144 0
133 152 0
139 159 0
129 149 0
139 158 0
123 142 0
138 158 0
129 148 0
134 154 0
124 144 0
134 153 0
130 149 0
132 151 0
128 148 0
142 161 0
137 156 0
130 149 0
131 151 0
137 157 0
132 151 0
127 147 0
130 149 0
131 150 0
130 146 0
138 156 0
140 160 0
143 163 0
135 153 0
126 145 0
138 157 0
143 161 0
130 149 0
129 149 0
138 156 0
129 147 0
137 157 0
138 156 0
131 150 0
136 155 0
130 148 0
139 159 0
138 156 0
137 156 0
133 151 0
130 148 0
136 154 0
132 150 0
139 158 0
134 152 0
139 157 0
138 156 0
129 147 0
130 148 0
133 152 0
143 161 0
134 152 0
133 150 0
140 158 0
140 158 0
131 149 0
139 157 0
141 157 0
137 153 0
145 164 0
145 161 0
134 148 0
142 160 0
138 156 0
138 157 0
138 154 0
136 152 0
129 145 0
138 152 0
139 156 0
142 159 0
138 154 0
145 159 0
134 149 0
139 154 0
135 150 0
147 162 0
139 154 0
137 152 0
143 159 0
132 146 0
137 151 0
137 151 0
138 152 0
137 150 0
133 145 0
139 152 0
137 149 0
136 152 0
142 157 0
135 148 0
132 144 0
142 153 0
128 141 0
131 144 0
138 150 0
138 147 0
137 147 0
131 141 0
138 151 0
145 157 0
132 140 0
136 150 0
140 150 0
136 148 0
132 141 0
137 150 0
133 141 0
140 146 0
136 144 0
132 139 0
133 142 0
136 143 0
138 146 0
133 141 0
135 144 0
135 141 0
132 138 0
135 142 0
139 145 0
135 144 0
141 149 0
138 143 0
125 130 0
135 143 0
138 144 0
132 138 0
134 139 0
141 146 0
131 134 0
132 138 0
129 131 0
131 135 0
136 139 0
141 149 0
142 148 0
138 145 0
136 141 0
133 138 0
144 148 0
136 140 0
137 139 0
132 136 0
131 132 0
132 133 0
137 141 0
129 132 0
142 144 0
137 141 0
133 137 0
148 155 0
135 137 0
137 140 0
136 138 0
139 146 0
136 140 0
145 149 0
140 144 0
145 147 0
148 156 0
148 154 0
138 140 0
145 151 0
147 154 0
145 150 0
147 153 0
154 161 0
144 148 0
149 155 0
145 154 0
150 155 0
141 145 0
152 160 0
146 154 0
144 151 0
149 154 0
154 162 0
142 148 0
156 165 0
151 161 0
153 163 0
149 157 0
153 162 0
146 153 0
158 167 0
155 163 0
160 171 0
159 171 0
156 164 0
155 167 0
159 170 0
159 170 0
149 158 0
166 184 0
161 181 0
156 175 0
164 183 0
161 180 0
164 184 0
160 180 0
159 177 0
164 183 0
157 176 0
150 167 0
163 182 0
157 175 0
158 177 0
155 172 0
155 173 0
156 174 0
157 175 0
158 176 0
153 170 0
159 177 0
153 171 0
155 171 0
149 166 0
152 169 0
153 170 0
149 167 0
146 163 0
151 167 0
151 168 0
155 172 0
149 167 0
149 165 0
148 164 0
152 168 0
144 161 0
147 164 0
142 159 0
149 165 0
144 160 0
154 171 0
144 160 0
143 159 0
146 163 0
146 162 0
147 163 0
154 171 0
138 154 0
141 157 0
140 156 0
144 160 0
142 157 0
145 160 0
143 159 0
142 158 0
145 163 0
144 160 0
145 161 0
142 157 0
147 163 0
145 162 0
147 163 0
149 166 0
145 162 0
147 164 0
151 168 0
144 160 0
142 158 0
143 160 0
144 162 0
144 161 0
147 165 0
141 159 0
145 161 0
143 159 0
147 164 0
147 165 0
139 156 0
146 164 0
132 148 0
147 166 0
141 159 0
133 150 0
137 154 0
139 157 0
147 166 0
145 162 0
143 161 0
145 163 0
147 167 0
140 158 0
149 168 0
149 167 0
143 162 0
148 167 0
150 169 0
142 160 0
142 159 0
148 167 0
150 169 0
140 159 0
146 165 0
147 166 0
144 163 0
143 163 0
135 154 0
144 163 0
138 157 0
137 157 0
139 158 0
145 165 0
140 160 0
144 162 0
138 158 0
143 163 0
142 160 0
134 153 0
133 152 0
141 161 0
146 166 0
147 167 0
146 166 0
148 168 0
141 161 0
137 159 0
139 159 0
144 166 0
145 165 0
144 164 0
137 157 0
141 161 0
142 162 0
141 163 0
141 161 0
135 155 0
140 160 0
142 163 0
140 160 0
145 164 0
143 163 0
146 168 0
139 159 0
142 162 0
146 166 0
141 162 0
142 162 0
137 157 0
144 165 0
134 154 0
141 162 0
137 158 0
132 153 0
144 166 0
133 152 0
136 157 0
138 161 0
144 165 0
139 160 0
139 160 0
134 154 0
140 161 0
135 156 0
145 165 0
134 154 0
131 152 0
136 156 0
139 159 0
133 154 0
135 156 0
133 154 0
141 164 0
143 164 0
132 151 0
141 161 0
137 156 0
131 152 0
139 159 0
138 158 0
123 143 0
127 147 0
142 162 0
139 160 0
123 142 0
125 145 0
133 152 0
142 163 0
129 149 0
132 152 0
129 149 0
129 149 0
131 151 0
127 147 0
136 155 0
126 146 0
138 158 0
130 151 0
125 146 0
138 160 0
128 146 0
124 144 0
142 162 0
122 141 0
126 146 0
130 150 0
130 149 0
136 156 0
128 146 0
137 157 0
131 150 0
131 150 0
129 149 0
131 149 0
133 152 0
138 158 0
131 148 0
133 153 0
140 160 0
136 156 0
133 152 0
133 152 0
130 149 0
127 145 0
143 162 0
127 146 0
140 158 0
135 155 0
127 147 0
136 156 0
138 158 0
131 150 0
139 160 0
125 144 0
134 154 0
140 159 0
138 157 0
137 157 0
142 161 0
134 153 0
143 163 0
133 151 0
135 154 0
143 162 0
133 152 0
134 153 0
138 159 0
140 157 0
133 151 0
136 155 0
138 155 0
141 159 0
141 160 0
132 149 0
135 152 0
137 155 0
136 153 0
129 146 0
148 166 0
141 158 0
149 169 0
130 148 0
138 155 0
150 167 0
135 152 0
146 163 0
144 163 0
143 161 0
128 144 0
141 160 0
139 155 0
136 152 0
137 154 0
142 160 0
140 156 0
140 156 0
135 151 0
142 159 0
131 147 0
137 153 0
137 152 0
134 151 0
145 162 0
145 161 0
144 160 0
135 149 0
136 151 0
144 162 0
135 147 0
141 155 0
135 149 0
135 149 0
148 164 0
142 157 0
145 159 0
127 140 0
139 152 0
148 162 0
138 151 0
141 156 0
141 155 0
125 138 0
130 145 0
133 144 0
141 153 0
139 149 0
139 151 0
127 137 0
139 151 0
140 153 0
142 152 0
138 148 0
136 147 0
144 155 0
137 146 0
139 151 0
138 147 0
141 149 0
136 146 0
130 137 0
139 147 0
135 144 0
131 139 0
149 158 0
127 134 0
128 134 0
134 143 0
122 126 0
130 137 0
141 147 0
134 137 0
136 143 0
143 148 0
139 146 0
136 145 0
134 139 0
133 139 0
143 151 0
144 152 0
138 143 0
143 150 0
140 143 0
139 143 0
138 143 0
136 144 0
127 132 0
144 146 0
140 145 0
135 140 0
137 139 0
138 145 0
139 143 0
139 144 0
140 145 0
131 135 0
145 152 0
134 137 0
136 139 0
138 139 0
141 147 0
134 136 0
138 143 0
133 136 0
138 140 0
140 144 0
144 147 0
144 152 0
147 153 0
145 147 0
141 145 0
158 169 0
146 151 0
151 156 0
148 156 0
141 147 0
147 153 0
153 162 0
152 159 0
144 152 0
141 145 0
148 156 0
149 154 0
147 155 0
148 152 0
146 151 0
143 145 0
153 159 0
155 164 0
151 157 0
154 166 0
154 161 0
154 160 0
154 163 0
158 169 0
157 166 0
152 161 0
157 165 0
155 167 0
154 162 0
158 169 0
155 165 0
152 161 0
160 179 0
161 181 0
167 186 0
161 180 0
160 179 0
160 179 0
160 179 0
159 178 0
158 176 0
163 181 0
163 182 0
159 178 0
156 175 0
151 169 0
154 171 0
158 176 0
154 171 0
155 172 0
155 173 0
155 172 0
158 176 0
160 178 0
153 171 0
158 176 0
153 169 0
153 170 0
159 177 0
150 168 0
150 166 0
152 170 0
148 163 0
155 173 0
152 169 0
150 166 0
151 167 0
154 170 0
153 170 0
152 169 0
151 169 0
148 165 0
146 163 0
147 163 0
146 163 0
149 165 0
144 161 0
147 162 0
147 163 0
149 167 0
144 160 0
158 176 0
146 163 0
148 165 0
149 166 0
144 160 0
152 168 0
153 170 0
141 157 0
145 162 0
145 162 0
138 154 0
144 160 0
149 167 0
147 164 0
145 162 0
146 163 0
139 156 0
147 165 0
143 161 0
137 155 0
149 166 0
145 162 0
151 169 0
149 167 0
148 166 0
142 159 0
140 158 0
138 155 0
142 159 0
141 159 0
141 159 0
147 165 0
145 163 0
141 160 0
148 167 0
144 163 0
141 160 0
147 167 0
139 158 0
144 163 0
144 162 0
146 164 0
134 152 0
141 159 0
149 168 0
142 161 0
146 166 0
141 160 0
146 165 0
139 157 0
154 174 0
142 160 0
145 164 0
144 163 0
152 172 0
142 162 0
146 166 0
143 163 0
147 167 0
137 156 0
140 159 0
147 166 0
137 156 0
147 167 0
140 161 0
145 164 0
144 164 0
147 166 0
143 163 0
142 163 0
139 159 0
137 156 0
138 157 0
151 173 0
149 169 0
146 166 0
141 160 0
135 155 0
138 159 0
145 166 0
144 164 0
149 170 0
138 158 0
151 171 0
135 157 0
151 172 0
136 156 0
143 163 0
145 166 0
141 163 0
146 166 0
143 165 0
147 167 0
142 163 0
142 163 0
138 158 0
143 163 0
137 157 0
133 154 0
129 150 0
143 164 0
139 159 0
148 169 0
144 165 0
135 154 0
138 159 0
131 151 0
139 159 0
130 150 0
135 155 0
141 162 0
141 162 0
140 160 0
140 161 0
130 152 0
136 157 0
142 164 0
134 154 0
142 163 0
139 160 0
142 162 0
140 160 0
139 159 0
127 147 0
140 159 0
123 142 0
139 158 0
134 154 0
136 158 0
136 158 0
139 159 0
132 151 0
125 146 0
138 158 0
143 162 0
139 160 0
131 151 0
131 152 0
140 161 0
137 157 0
131 152 0
131 152 0
139 159 0
131 151 0
135 155 0
132 153 0
130 151 0
145 166 0
134 154 0
125 145 0
129 150 0
143 162 0
133 153 0
138 158 0
131 150 0
130 149 0
138 158 0
127 147 0
132 151 0
136 155 0
127 146 0
131 149 0
141 162 0
129 149 0
130 149 0
127 145 0
127 147 0
144 165 0
134 151 0
141 160 0
136 155 0
129 147 0
140 159 0
137 157 0
132 151 0
136 155 0
133 152 0
133 152 0
142 163 0
137 157 0
140 159 0
138 156 0
144 164 0
135 153 0
137 156 0
138 154 0
139 158 0
142 162 0
136 157 0
147 166 0
137 157 0
138 156 0
140 157 0
151 170 0
133 151 0
138 159 0
129 145 0
136 155 0
138 157 0
133 152 0
134 151 0
138 155 0
140 156 0
140 159 0
143 161 0
143 162 0
134 153 0
145 164 0
140 160 0
142 161 0
141 160 0
137 154 0
142 161 0
132 150 0
145 163 0
142 161 0
136 152 0
137 154 0
136 154 0
125 141 0
142 157 0
149 167 0
137 154 0
143 158 0
137 154 0
142 157 0
139 155 0
145 162 0
142 160 0
139 154 0
143 159 0
140 156 0
131 146 0
134 150 0
141 156 0
138 155 0
137 154 0
125 140 0
144 157 0
138 154 0
138 153 0
144 160 0
131 143 0
144 161 0
139 155 0
136 148 0
137 153 0
138 152 0
142 155 0
139 151 0
133 147 0
151 165 0
139 150 0
140 150 0
135 147 0
146 159 0
133 144 0
142 154 0
139 150 0
141 153 0
143 155 0
141 154 0
136 148 0
138 148 0
139 149 0
141 153 0
148 159 0
141 152 0
145 154 0
138 150 0
140 149 0
134 143 0
145 153 0
141 152 0
142 153 0
143 153 0
139 146 0
140 150 0
137 147 0
134 143 0
133 138 0
133 141 0
150 156 0
137 142 0
138 145 0
139 146 0
137 146 0
142 147 0
137 144 0
134 137 0
144 153 0
136 142 0
141 148 0
137 145 0
140 145 0
138 144 0
139 143 0
138 141 0
135 138 0
137 138 0
138 144 0
137 142 0
140 145 0
136 143 0
144 154 0
143 148 0
143 150 0
130 132 0
144 152 0
147 152 0
132 134 0
139 143 0
143 147 0
150 155 0
142 147 0
145 150 0
148 153 0
138 141 0
146 155 0
153 161 0
141 144 0
147 154 0
144 150 0
142 147 0
145 151 0
150 160 0
140 145 0
147 154 0
144 150 0
150 155 0
152 159 0
145 153 0
144 149 0
143 149 0
149 156 0
149 156 0
147 154 0
159 168 0
139 146 0
150 160 0
152 161 0
157 168 0
151 160 0
146 153 0
155 165 0
151 161 0
151 162 0
151 160 0
156 166 0
149 158 0
163 176 0
159 178 0
163 182 0
163 182 0
153 171 0
162 180 0
164 183 0
162 181 0
156 174 0
157 175 0
147 164 0
161 179 0
164 183 0
163 181 0
156 175 0
154 172 0
158 176 0
158 174 0
153 170 0
158 175 0
157 175 0
151 168 0
158 176 0
152 170 0
155 173 0
149 166 0
153 170 0
153 171 0
153 171 0
154 171 0
150 166 0
148 165 0
150 167 0
149 166 0
152 169 0
148 164 0
146 161 0
150 167 0
149 166 0
147 164 0
145 162 0
148 164 0
150 166 0
152 170 0
147 164 0
151 168 0
155 172 0
150 167 0
148 165 0
149 166 0
149 166 0
153 171 0
149 166 0
152 169 0
149 166 0
150 167 0
151 169 0
144 161 0
144 161 0
148 166 0
141 157 0
141 158 0
145 163 0
142 158 0
150 168 0
147 164 0
144 162 0
143 160 0
141 158 0
150 169 0
148 166 0
143 160 0
145 162 0
149 167 0
144 162 0
149 168 0
142 159 0
139 156 0
145 164 0
144 162 0
149 168 0
136 153 0
137 155 0
145 163 0
144 161 0
143 162 0
150 169 0
142 160 0
142 161 0
147 165 0
142 161 0
143 162 0
143 161 0
143 162 0
136 156 0
145 163 0
145 165 0
137 156 0
148 167 0
144 164 0
148 167 0
147 166 0
133 152 0
136 155 0
149 169 0
146 167 0
140 159 0
140 159 0
138 158 0
140 159 0
149 169 0
140 160 0
146 166 0
149 169 0
142 162 0
145 164 0
145 165 0
146 167 0
138 158 0
144 165 0
147 168 0
147 167 0
146 165 0
145 165 0
152 173 0
143 163 0
148 168 0
145 166 0
138 159 0
144 165 0
145 166 0
141 160 0
139 161 0
144 164 0
148 169 0
145 166 0
141 161 0
140 161 0
139 160 0
147 168 0
145 166 0
147 166 0
144 166 0
144 163 0
139 158 0
143 163 0
140 161 0
145 167 0
143 164 0
143 164 0
142 163 0
137 158 0
131 152 0
146 166 0
146 166 0
136 155 0
138 158 0
141 161 0
133 154 0
136 155 0
135 156 0
138 159 0
142 163 0
136 158 0
133 154 0
135 155 0
134 154 0
126 147 0
135 156 0
143 165 0
133 153 0
139 160 0
129 150 0
139 159 0
140 161 0
143 165 0
133 154 0
134 154 0
132 152 0
144 165 0
142 163 0
130 151 0
138 160 0
147 167 0
131 149 0
140 161 0
128 147 0
134 154 0
129 149 0
146 167 0
137 158 0
140 161 0
140 160 0
132 153 0
135 154 0
136 157 0
133 153 0
135 155 0
139 159 0
141 160 0
131 153 0
135 155 0
131 152 0
137 156 0
126 147 0
138 158 0
125 145 0
138 159 0
130 151 0
123 142 0
137 157 0
129 148 0
135 156 0
131 151 0
134 154 0
142 161 0
133 154 0
131 150 0
136 157 0
136 156 0
130 150 0
128 147 0
134 152 0
136 156 0
137 157 0
140 160 0
138 157 0
134 154 0
138 157 0
134 153 0
139 158 0
136 156 0
137 155 0
140 160 0
138 157 0
145 163 0
134 155 0
129 149 0
135 152 0
133 151 0
128 145 0
143 163 0
147 166 0
141 159 0
141 159 0
141 160 0
136 157 0
130 150 0
138 155 0
134 153 0
130 148 0
146 165 0
138 157 0
130 148 0
142 159 0
135 152 0
125 143 0
143 163 0
143 162 0
134 152 0
145 164 0
142 161 0
142 160 0
142 160 0
142 161 0
139 157 0
146 164 0
127 144 0
140 157 0
145 163 0
149 168 0
140 158 0
140 158 0
140 158 0
137 156 0
141 158 0
148 164 0
131 146 0
139 155 0
141 157 0
131 147 0
138 157 0
140 158 0
138 155 0
142 160 0
140 158 0
139 152 0
145 163 0
138 154 0
146 162 0
136 153 0
139 157 0
148 164 0
140 155 0
137 148 0
140 154 0
144 157 0
138 150 0
143 160 0
144 158 0
141 154 0
136 148 0
142 154 0
139 154 0
140 154 0
123 137 0
128 141 0
144 156 0
143 158 0
141 155 0
138 150 0
133 145 0
137 148 0
149 161 0
133 145 0
140 152 0
141 153 0
141 150 0
140 151 0
137 146 0
152 162 0
140 151 0
141 152 0
130 138 0
141 152 0
134 139 0
145 154 0
139 146 0
142 151 0
145 155 0
135 144 0
140 151 0
147 156 0
146 157 0
132 139 0
137 147 0
135 140 0
137 144 0
139 145 0
141 148 0
146 153 0
139 145 0
129 131 0
140 147 0
144 150 0
146 152 0
143 148 0
132 136 0
141 144 0
144 148 0
139 145 0
136 141 0
143 151 0
144 149 0
145 150 0
138 142 0
138 141 0
143 149 0
148 154 0
140 144 0
139 145 0
150 157 0
149 154 0
145 153 0
135 136 0
146 153 0
149 158 0
140 143 0
146 149 0
140 146 0
129 130 0
141 145 0
150 156 0
145 152 0
139 147 0
147 154 0
146 153 0
148 152 0
145 153 0
145 149 0
153 162 0
149 156 0
147 152 0
147 155 0
150 158 0
150 158 0
151 161 0
146 152 0
160 170 0
150 159 0
151 158 0
148 155 0
148 156 0
151 162 0
154 164 0
153 165 0
149 159 0
155 165 0
153 165 0
155 166 0
155 166 0
158 177 0
160 179 0
162 181 0
164 183 0
159 178 0
161 180 0
163 182 0
161 180 0
155 173 0
161 179 0
154 173 0
159 177 0
161 180 0
160 178 0
157 175 0
155 173 0
157 175 0
157 175 0
160 179 0
157 174 0
159 177 0
156 174 0
156 174 0
154 171 0
157 174 0
155 172 0
151 167 0
148 164 0
153 170 0
150 165 0
155 173 0
153 170 0
145 162 0
154 172 0
153 170 0
147 163 0
151 169 0
147 163 0
143 161 0
147 165 0
152 170 0
150 168 0
155 172 0
152 169 0
149 166 0
148 166 0
152 169 0
148 166 0
145 162 0
142 159 0
145 163 0
146 162 0
145 162 0
149 166 0
150 167 0
146 163 0
147 164 0
148 165 0
145 162 0
149 166 0
140 157 0
148 164 0
144 163 0
148 165 0
154 173 0
147 164 0
139 156 0
138 156 0
147 164 0
152 171 0
144 162 0
148 165 0
148 165 0
144 161 0
147 165 0
146 163 0
147 164 0
145 165 0
143 162 0
141 159 0
141 159 0
148 166 0
150 167 0
149 166 0
152 171 0
137 156 0
151 170 0
147 166 0
141 159 0
137 156 0
129 147 0
144 162 0
146 166 0
139 157 0
144 164 0
141 161 0
147 166 0
139 159 0
145 165 0
152 172 0
145 165 0
143 163 0
148 168 0
142 163 0
147 167 0
138 158 0
137 158 0
145 165 0
144 164 0
145 164 0
147 166 0
147 169 0
145 165 0
147 167 0
142 162 0
145 166 0
150 171 0
138 157 0
143 162 0
147 168 0
149 171 0
148 169 0
147 167 0
152 173 0
148 170 0
134 154 0
136 156 0
139 160 0
149 171 0
145 167 0
140 160 0
140 159 0
139 160 0
136 157 0
138 159 0
143 164 0
142 162 0
140 160 0
150 170 0
145 166 0
138 159 0
141 161 0
141 163 0
135 156 0
139 161 0
150 170 0
145 165 0
142 162 0
125 146 0
146 167 0
141 162 0
135 155 0
131 151 0
133 153 0
141 162 0
138 159 0
131 151 0
135 156 0
151 171 0
131 152 0
134 155 0
131 152 0
141 161 0
143 164 0
138 158 0
137 157 0
141 162 0
134 155 0
139 160 0
135 155 0
132 150 0
127 147 0
136 156 0
144 164 0
137 158 0
133 153 0
134 154 0
136 157 0
135 156 0
134 154 0
133 154 0
135 155 0
141 162 0
132 152 0
133 155 0
139 159 0
137 157 0
136 157 0
134 154 0
139 158 0
142 161 0
141 161 0
129 150 0
137 157 0
136 155 0
136 156 0
139 158 0
136 154 0
137 158 0
135 155 0
131 152 0
138 157 0
129 149 0
120 140 0
137 157 0
136 155 0
135 155 0
139 161 0
138 158 0
135 155 0
138 158 0
142 163 0
143 164 0
138 158 0
139 160 0
146 167 0
127 146 0
136 153 0
132 151 0
132 151 0
132 150 0
137 157 0
141 159 0
135 155 0
129 148 0
137 155 0
130 149 0
138 157 0
140 160 0
134 152 0
141 161 0
138 158 0
138 158 0
136 156 0
136 155 0
142 164 0
147 167 0
137 158 0
139 155 0
144 162 0
143 164 0
145 165 0
136 155 0
134 153 0
140 158 0
135 154 0
147 166 0
137 156 0
135 152 0
131 150 0
140 157 0
142 161 0
133 152 0
131 149 0
143 161 0
137 156 0
138 156 0
143 164 0
141 160 0
140 158 0
144 160 0
144 163 0
146 163 0
141 159 0
146 165 0
135 153 0
140 158 0
146 165 0
142 160 0
131 147 0
141 156 0
148 165 0
141 157 0
131 147 0
136 153 0
137 154 0
142 160 0
142 160 0
146 163 0
145 162 0
142 159 0
147 164 0
140 155 0
135 153 0
141 157 0
139 155 0
146 163 0
141 156 0
141 158 0
137 152 0
136 149 0
141 156 0
145 161 0
138 151 0
143 160 0
142 156 0
145 159 0
141 155 0
139 155 0
136 152 0
136 150 0
143 158 0
131 143 0
146 160 0
146 161 0
137 150 0
140 154 0
141 155 0
138 152 0
135 144 0
143 157 0
134 147 0
146 158 0
144 156 0
142 154 0
143 155 0
135 147 0
142 154 0
137 147 0
138 147 0
143 153 0
143 153 0
138 148 0
129 137 0
143 153 0
148 156 0
133 140 0
137 147 0
142 152 0
142 151 0
146 155 0
148 158 0
143 152 0
144 154 0
135 141 0
149 156 0
141 148 0
136 145 0
138 148 0
132 141 0
137 144 0
144 151 0
145 154 0
139 145 0
136 143 0
150 157 0
134 136 0
141 148 0
146 154 0
137 146 0
141 149 0
139 144 0
141 149 0
142 149 0
149 155 0
141 148 0
143 148 0
141 147 0
139 145 0
140 144 0
143 146 0
137 143 0
140 146 0
146 148 0
147 155 0
140 149 0
142 150 0
142 147 0
149 154 0
144 150 0
139 144 0
141 149 0
144 152 0
152 160 0
147 153 0
148 155 0
148 155 0
147 156 0
148 153 0
134 139 0
150 158 0
149 157 0
156 164 0
151 160 0
142 148 0
154 158 0
153 161 0
146 152 0
152 160 0
154 165 0
149 160 0
150 161 0
153 163 0
154 163 0
155 165 0
155 165 0
153 162 0
156 166 0
159 170 0
158 170 0
159 178 0
161 180 0
162 179 0
161 179 0
159 177 0
155 173 0
158 176 0
154 172 0
154 172 0
162 180 0
158 175 0
156 174 0
157 176 0
157 174 0
153 171 0
151 168 0
162 180 0
156 174 0
161 179 0
154 172 0
152 169 0
154 171 0
153 171 0
154 172 0
149 166 0
151 168 0
155 172 0
149 167 0
154 171 0
152 170 0
154 172 0
153 169 0
150 167 0
154 171 0
151 167 0
149 166 0
150 167 0
151 167 0
147 165 0
150 167 0
150 168 0
154 171 0
151 169 0
151 168 0
155 174 0
149 166 0
151 169 0
143 160 0
153 171 0
150 167 0
154 173 0
151 168 0
146 164 0
144 161 0
144 162 0
148 166 0
151 169 0
148 165 0
145 163 0
144 161 0
148 165 0
151 170 0
149 167 0
147 164 0
147 166 0
152 169 0
149 167 0
143 161 0
147 165 0
142 160 0
151 170 0
148 166 0
149 166 0
150 169 0
147 166 0
149 168 0
148 166 0
147 165 0
146 166 0
141 160 0
133 153 0
142 161 0
146 164 0
144 164 0
154 172 0
146 165 0
144 163 0
152 171 0
149 167 0
140 159 0
140 159 0
149 168 0
150 169 0
138 156 0
144 162 0
149 169 0
143 163 0
141 161 0
135 154 0
136 155 0
139 159 0
148 167 0
146 165 0
146 166 0
144 164 0
147 166 0
145 165 0
150 169 0
147 167 0
141 160 0
152 173 0
144 165 0
137 157 0
145 164 0
146 166 0
147 167 0
139 159 0
143 162 0
135 155 0
145 166 0
147 168 0
142 162 0
145 166 0
145 166 0
145 166 0
148 169 0
140 160 0
141 162 0
145 166 0
137 157 0
142 163 0
144 164 0
144 165 0
142 163 0
144 166 0
136 156 0
146 167 0
146 166 0
147 168 0
145 167 0
145 166 0
144 165 0
137 157 0
140 161 0
146 167 0
148 170 0
138 159 0
146 167 0
144 166 0
141 161 0
142 164 0
140 161 0
144 165 0
140 160 0
134 155 0
134 154 0
143 164 0
146 167 0
143 164 0
138 159 0
142 163 0
145 165 0
132 152 0
131 152 0
145 166 0
142 164 0
136 156 0
137 158 0
139 160 0
142 163 0
147 167 0
140 160 0
146 167 0
137 158 0
139 161 0
136 157 0
133 153 0
139 159 0
134 154 0
140 160 0
138 157 0
133 154 0
139 159 0
143 163 0
128 147 0
137 158 0
141 160 0
136 157 0
140 161 0
144 164 0
135 156 0
140 160 0
137 156 0
135 156 0
142 161 0
143 165 0
133 154 0
144 164 0
144 165 0
128 148 0
138 160 0
136 156 0
137 156 0
142 163 0
144 164 0
134 152 0
136 157 0
135 154 0
142 162 0
139 159 0
133 154 0
131 152 0
138 157 0
142 163 0
136 155 0
138 160 0
132 151 0
125 144 0
135 156 0
138 157 0
134 153 0
141 160 0
127 146 0
129 149 0
135 153 0
136 155 0
126 147 0
135 155 0
139 158 0
127 145 0
142 162 0
142 162 0
138 157 0
137 156 0
138 156 0
138 156 0
139 157 0
143 161 0
151 172 0
138 157 0
139 159 0
140 159 0
135 152 0
132 150 0
138 156 0
143 161 0
141 159 0
139 158 0
141 160 0
146 165 0
149 168 0
137 155 0
136 153 0
136 152 0
141 159 0
143 162 0
137 157 0
138 155 0
144 162 0
144 163 0
140 158 0
144 162 0
143 160 0
141 160 0
137 155 0
142 161 0
154 172 0
145 163 0
143 160 0
140 157 0
140 156 0
144 162 0
138 155 0
140 157 0
146 165 0
151 169 0
140 158 0
138 156 0
146 162 0
141 159 0
141 158 0
140 157 0
145 161 0
144 158 0
140 159 0
134 149 0
134 150 0
147 164 0
133 147 0
132 148 0
132 147 0
148 163 0
143 159 0
138 151 0
143 158 0
144 160 0
147 165 0
139 155 0
143 156 0
147 162 0
144 160 0
144 156 0
142 157 0
140 154 0
146 160 0
131 142 0
140 151 0
132 141 0
143 156 0
144 156 0
135 147 0
141 154 0
137 149 0
139 152 0
139 152 0
145 157 0
140 152 0
142 154 0
147 158 0
143 154 0
140 149 0
142 154 0
142 152 0
139 150 0
140 150 0
150 162 0
132 141 0
149 160 0
139 149 0
137 147 0
139 147 0
145 154 0
144 151 0
145 153 0
139 149 0
136 145 0
141 150 0
144 150 0
146 156 0
138 148 0
141 150 0
147 153 0
143 152 0
142 149 0
146 153 0
141 150 0
149 158 0
143 152 0
137 145 0
136 141 0
154 163 0
139 146 0
144 150 0
136 141 0
143 152 0
140 145 0
140 145 0
136 141 0
146 153 0
141 147 0
142 148 0
136 140 0
139 141 0
144 146 0
146 152 0
144 150 0
143 149 0
144 155 0
147 154 0
152 158 0
152 159 0
149 156 0
149 157 0
142 146 0
144 151 0
150 158 0
142 148 0
143 148 0
141 145 0
146 153 0
150 157 0
147 155 0
145 150 0
147 157 0
152 161 0
156 164 0
152 162 0
145 153 0
154 161 0
150 157 0
151 161 0
154 164 0
153 161 0
158 169 0
155 166 0
155 163 0
152 160 0
159 171 0
154 163 0
157 167 0
162 182 0
162 182 0
158 177 0
158 175 0
164 183 0
156 174 0
161 179 0
154 172 0
160 179 0
160 178 0
157 175 0
155 173 0
158 177 0
162 180 0
156 173 0
159 177 0
159 177 0
159 177 0
158 176 0
151 168 0
148 165 0
150 168 0
153 170 0
149 165 0
156 174 0
150 168 0
152 169 0
153 170 0
154 171 0
154 172 0
156 173 0
157 175 0
156 174 0
154 171 0
156 174 0
143 161 0
152 169 0
151 169 0
150 166 0
145 161 0
146 164 0
137 154 0
146 164 0
156 174 0
155 172 0
145 162 0
152 170 0
150 166 0
149 167 0
152 169 0
142 160 0
149 167 0
152 170 0
151 169 0
152 169 0
152 171 0
154 172 0
150 168 0
151 169 0
154 173 0
149 167 0
142 159 0
143 161 0
142 160 0
158 176 0
151 170 0
144 162 0
153 171 0
138 156 0
147 165 0
148 167 0
150 170 0
142 160 0
150 168 0
150 169 0
147 165 0
149 168 0
141 160 0
145 163 0
145 164 0
154 173 0
143 161 0
143 162 0
151 169 0
148 168 0
148 168 0
146 167 0
145 165 0
149 167 0
145 163 0
141 160 0
147 166 0
148 169 0
143 163 0
142 161 0
147 168 0
148 167 0
146 166 0
143 163 0
146 165 0
149 168 0
140 159 0
139 158 0
146 168 0
143 164 0
152 171 0
140 161 0
148 168 0
137 156 0
140 161 0
138 158 0
144 164 0
137 158 0
146 166 0
143 164 0
144 164 0
142 163 0
139 160 0
142 161 0
146 167 0
143 163 0
148 169 0
139 159 0
148 170 0
150 170 0
140 159 0
143 163 0
145 166 0
147 168 0
148 167 0
145 167 0
139 159 0
149 169 0
147 169 0
147 168 0
147 169 0
144 164 0
154 175 0
144 165 0
153 173 0
146 167 0
147 168 0
146 167 0
149 170 0
148 168 0
140 162 0
146 167 0
139 160 0
146 167 0
143 166 0
141 163 0
142 164 0
139 160 0
148 169 0
142 163 0
142 163 0
142 161 0
143 164 0
139 157 0
141 161 0
149 171 0
139 160 0
148 170 0
145 167 0
145 167 0
142 163 0
141 163 0
140 161 0
135 156 0
143 164 0
139 159 0
145 165 0
138 160 0
143 163 0
145 165 0
138 159 0
134 154 0
149 171 0
133 155 0
140 161 0
136 158 0
134 154 0
142 162 0
132 153 0
139 160 0
137 157 0
132 153 0
137 158 0
130 151 0
137 158 0
132 152 0
140 161 0
133 155 0
125 145 0
135 157 0
132 151 0
129 150 0
139 158 0
130 150 0
134 156 0
135 157 0
137 158 0
134 153 0
132 151 0
137 158 0
136 155 0
141 161 0
137 157 0
135 156 0
140 160 0
136 157 0
142 161 0
125 145 0
145 166 0
141 162 0
133 153 0
145 166 0
134 153 0
137 157 0
135 153 0
133 151 0
142 163 0
139 160 0
141 162 0
136 158 0
147 167 0
131 152 0
142 161 0
144 165 0
145 165 0
135 155 0
145 164 0
144 164 0
136 155 0
146 165 0
139 159 0
131 151 0
139 160 0
140 159 0
137 155 0
134 155 0
133 152 0
130 150 0
142 163 0
139 159 0
138 156 0
142 162 0
140 158 0
135 153 0
141 160 0
143 163 0
140 159 0
152 173 0
137 156 0
146 165 0
140 158 0
142 160 0
146 164 0
141 161 0
139 158 0
142 162 0
133 153 0
139 158 0
143 162 0
141 158 0
152 169 0
148 164 0
140 159 0
144 161 0
144 162 0
141 157 0
135 153 0
147 165 0
143 161 0
147 166 0
156 175 0
149 168 0
151 169 0
142 157 0
147 163 0
134 152 0
142 159 0
143 160 0
139 155 0
147 162 0
139 155 0
140 155 0
131 147 0
140 155 0
144 160 0
138 156 0
137 154 0
131 144 0
144 160 0
145 161 0
140 152 0
145 161 0
143 158 0
142 155 0
137 152 0
139 153 0
139 153 0
136 149 0
147 163 0
148 164 0
144 157 0
144 156 0
148 162 0
143 155 0
144 158 0
141 156 0
147 163 0
136 148 0
145 156 0
140 151 0
139 151 0
143 159 0
144 155 0
137 149 0
138 151 0
139 147 0
142 154 0
146 159 0
146 158 0
139 149 0
147 159 0
142 154 0
135 145 0
142 153 0
145 157 0
141 148 0
144 154 0
140 151 0
140 148 0
142 149 0
148 160 0
142 150 0
139 149 0
144 153 0
143 155 0
145 152 0
134 142 0
151 160 0
142 151 0
145 154 0
138 144 0
139 147 0
145 154 0
144 150 0
146 157 0
144 152 0
145 153 0
148 157 0
143 151 0
144 151 0
143 147 0
141 146 0
135 141 0
141 145 0
146 152 0
138 146 0
150 159 0
140 149 0
136 143 0
140 147 0
139 146 0
151 159 0
149 153 0
138 144 0
144 149 0
145 153 0
154 162 0
144 150 0
140 146 0
147 154 0
154 163 0
152 160 0
152 159 0
143 150 0
150 158 0
152 160 0
147 151 0
146 155 0
147 153 0
149 158 0
155 164 0
149 160 0
149 158 0
147 155 0
152 162 0
151 162 0
152 161 0
143 152 0
151 161 0
149 158 0
151 159 0
158 169 0
148 157 0
155 167 0
150 157 0
161 180 0
162 182 0
160 179 0
149 168 0
159 177 0
163 182 0
157 176 0
159 178 0
157 176 0
155 173 0
154 172 0
154 172 0
155 173 0
151 169 0
160 178 0
160 178 0
160 179 0
151 169 0
155 173 0
159 177 0
152 170 0
152 170 0
153 170 0
155 172 0
156 173 0
155 174 0
155 172 0
153 170 0
153 170 0
155 172 0
153 170 0
150 168 0
154 172 0
150 167 0
152 169 0
152 170 0
155 173 0
152 170 0
148 165 0
149 167 0
148 165 0
151 169 0
156 174 0
147 164 0
147 165 0
152 170 0
156 174 0
150 168 0
150 167 0
148 166 0
153 171 0
146 162 0
156 174 0
150 168 0
153 170 0
143 161 0
148 166 0
142 159 0
150 168 0
148 166 0
151 169 0
143 161 0
145 162 0
145 163 0
153 171 0
153 172 0
144 163 0
148 166 0
152 171 0
150 168 0
145 164 0
153 172 0
145 164 0
153 172 0
140 157 0
147 165 0
149 168 0
142 160 0
146 166 0
149 169 0
143 162 0
147 166 0
143 162 0
150 169 0
145 165 0
146 166 0
152 172 0
140 158 0
143 160 0
144 162 0
144 164 0
148 167 0
156 176 0
145 166 0
152 171 0
146 166 0
142 162 0
153 174 0
145 165 0
143 162 0
146 165 0
153 172 0
141 161 0
142 162 0
147 168 0
144 164 0
148 168 0
147 167 0
146 167 0
144 165 0
148 168 0
144 165 0
154 175 0
148 167 0
146 167 0
148 170 0
146 165 0
140 160 0
148 169 0
147 167 0
153 175 0
144 166 0
145 164 0
147 168 0
141 162 0
140 161 0
145 166 0
149 171 0
147 167 0
139 158 0
139 159 0
144 164 0
138 158 0
148 170 0
147 168 0
140 160 0
147 169 0
152 173 0
138 159 0
134 155 0
146 166 0
144 166 0
139 159 0
144 166 0
138 160 0
140 162 0
140 162 0
135 156 0
137 157 0
142 163 0
138 159 0
145 166 0
140 162 0
143 163 0
145 166 0
137 158 0
138 159 0
146 168 0
139 159 0
141 163 0
141 161 0
141 163 0
145 167 0
138 160 0
134 155 0
145 165 0
145 166 0
139 159 0
147 169 0
137 158 0
148 167 0
136 156 0
142 161 0
139 158 0
144 164 0
133 154 0
143 164 0
137 158 0
132 152 0
142 164 0
147 168 0
140 161 0
135 156 0
138 158 0
130 151 0
144 165 0
137 158 0
139 159 0
139 160 0
137 157 0
135 156 0
130 152 0
138 160 0
125 144 0
138 158 0
147 168 0
131 150 0
124 143 0
133 153 0
131 152 0
132 152 0
144 165 0
136 155 0
133 153 0
140 160 0
139 161 0
142 165 0
141 162 0
137 157 0
136 157 0
134 154 0
140 161 0
138 158 0
142 162 0
141 160 0
135 156 0
138 159 0
134 153 0
141 161 0
133 152 0
134 153 0
129 149 0
135 154 0
137 158 0
142 161 0
137 157 0
134 154 0
137 157 0
127 147 0
132 151 0
129 148 0
138 157 0
130 151 0
140 162 0
134 155 0
145 164 0
140 159 0
138 158 0
146 166 0
135 156 0
141 161 0
143 163 0
146 165 0
135 154 0
137 155 0
140 158 0
138 157 0
144 162 0
138 157 0
150 169 0
143 162 0
138 155 0
141 160 0
145 163 0
151 171 0
142 159 0
146 164 0
131 149 0
150 168 0
145 163 0
137 155 0
145 165 0
141 158 0
144 164 0
143 160 0
148 167 0
147 162 0
139 156 0
149 166 0
144 161 0
137 156 0
144 162 0
145 164 0
137 153 0
146 163 0
138 153 0
139 156 0
147 164 0
133 151 0
144 160 0
141 157 0
140 157 0
138 156 0
142 160 0
145 162 0
144 162 0
137 154 0
148 167 0
142 159 0
136 152 0
139 157 0
146 164 0
149 163 0
140 156 0
142 158 0
143 157 0
143 160 0
148 164 0
141 155 0
145 162 0
142 155 0
133 148 0
148 164 0
139 152 0
141 156 0
135 148 0
141 155 0
147 159 0
149 165 0
138 151 0
146 160 0
147 159 0
144 158 0
140 153 0
146 161 0
144 152 0
147 160 0
148 160 0
145 156 0
145 159 0
139 148 0
145 156 0
145 154 0
150 163 0
146 157 0
135 143 0
150 162 0
143 153 0
141 150 0
140 148 0
144 154 0
143 154 0
150 162 0
143 154 0
133 143 0
141 149 0
139 147 0
137 146 0
142 151 0
150 161 0
143 150 0
139 148 0
141 150 0
140 147 0
143 152 0
142 150 0
148 156 0
145 155 0
150 160 0
147 156 0
156 167 0
138 147 0
141 147 0
131 138 0
139 149 0
151 162 0
145 152 0
143 149 0
141 149 0
145 155 0
146 152 0
143 147 0
137 145 0
144 153 0
140 147 0
148 156 0
141 144 0
142 147 0
141 145 0
145 153 0
144 151 0
145 151 0
150 155 0
158 169 0
155 165 0
147 156 0
142 148 0
144 153 0
142 150 0
150 158 0
150 160 0
151 158 0
154 164 0
147 154 0
149 159 0
156 166 0
151 159 0
153 162 0
145 151 0
152 161 0
148 157 0
149 155 0
153 162 0
152 163 0
143 150 0
158 169 0
151 161 0
148 159 0
149 159 0
155 164 0
159 177 0
160 178 0
159 177 0
159 178 0
163 183 0
154 173 0
155 173 0
161 180 0
158 177 0
155 173 0
156 175 0
153 171 0
160 178 0
163 182 0
156 174 0
157 175 0
151 169 0
156 174 0
156 174 0
152 171 0
157 176 0
151 169 0
150 168 0
146 165 0
157 177 0
155 172 0
143 160 0
152 170 0
153 171 0
157 175 0
148 165 0
154 172 0
149 167 0
155 174 0
151 169 0
142 159 0
146 163 0
151 168 0
153 171 0
152 170 0
154 172 0
151 169 0
156 174 0
150 168 0
156 174 0
152 170 0
154 172 0
154 173 0
152 169 0
151 169 0
146 164 0
149 166 0
151 170 0
150 169 0
149 167 0
150 168 0
147 165 0
152 171 0
150 168 0
148 166 0
151 170 0
151 170 0
156 175 0
145 162 0
147 166 0
141 159 0
151 170 0
150 168 0
149 169 0
150 170 0
146 164 0
140 158 0
146 164 0
148 167 0
149 169 0
152 172 0
153 172 0
144 163 0
148 167 0
146 165 0
147 166 0
150 171 0
147 167 0
152 171 0
146 165 0
149 169 0
145 164 0
147 167 0
141 161 0
146 166 0
149 168 0
140 159 0
137 157 0
157 178 0
146 166 0
142 161 0
144 163 0
147 167 0
146 168 0
152 172 0
147 167 0
148 167 0
154 174 0
144 164 0
150 170 0
149 171 0
154 175 0
139 158 0
151 173 0
144 164 0
142 163 0
141 162 0
155 176 0
147 168 0
144 165 0
144 164 0
142 163 0
146 167 0
151 172 0
150 170 0
149 170 0
146 166 0
151 173 0
143 163 0
140 161 0
143 164 0
148 168 0
151 173 0
145 165 0
147 168 0
139 160 0
141 162 0
148 170 0
144 164 0
145 166 0
146 168 0
139 161 0
145 167 0
140 161 0
139 159 0
149 171 0
147 170 0
145 165 0
146 167 0
142 163 0
143 166 0
143 164 0
133 154 0
144 165 0
149 170 0
134 154 0
144 164 0
146 168 0
139 161 0
147 169 0
140 161 0
139 161 0
147 169 0
144 164 0
145 167 0
142 163 0
136 156 0
142 162 0
142 162 0
133 153 0
143 162 0
134 154 0
143 165 0
137 159 0
144 165 0
143 165 0
135 155 0
146 168 0
130 151 0
143 164 0
139 160 0
140 161 0
139 159 0
144 166 0
142 162 0
137 157 0
139 160 0
137 156 0
140 162 0
144 165 0
143 164 0
144 166 0
138 160 0
139 162 0
136 156 0
136 156 0
143 163 0
134 154 0
137 157 0
146 167 0
145 166 0
142 162 0
128 149 0
148 169 0
136 157 0
134 155 0
131 151 0
136 156 0
144 164 0
141 160 0
140 161 0
139 160 0
138 157 0
139 158 0
145 165 0
137 156 0
133 152 0
138 157 0
141 161 0
142 163 0
136 156 0
147 167 0
132 152 0
140 161 0
139 158 0
130 150 0
142 162 0
130 152 0
137 157 0
135 155 0
144 166 0
139 160 0
139 159 0
142 162 0
144 164 0
128 148 0
135 154 0
134 154 0
139 160 0
143 162 0
142 163 0
139 158 0
141 161 0
146 166 0
138 157 0
132 150 0
140 157 0
142 162 0
137 156 0
139 159 0
144 163 0
156 175 0
139 159 0
147 168 0
131 150 0
139 159 0
142 159 0
138 156 0
141 159 0
137 156 0
138 158 0
141 160 0
138 158 0
146 163 0
138 157 0
149 168 0
144 162 0
138 155 0
141 160 0
144 162 0
136 157 0
134 154 0
144 163 0
136 153 0
140 157 0
131 148 0
153 171 0
145 163 0
144 162 0
141 160 0
131 148 0
145 162 0
147 167 0
142 158 0
143 160 0
150 168 0
137 154 0
137 154 0
139 152 0
139 155 0
140 157 0
152 170 0
139 155 0
134 151 0
137 151 0
147 165 0
143 158 0
142 159 0
139 154 0
149 164 0
141 156 0
145 161 0
141 159 0
139 155 0
150 166 0
151 168 0
142 156 0
139 154 0
140 154 0
143 159 0
148 164 0
142 157 0
140 153 0
143 157 0
143 154 0
136 150 0
149 163 0
136 149 0
143 157 0
137 151 0
140 155 0
152 165 0
141 155 0
146 158 0
146 155 0
137 148 0
139 151 0
153 165 0
145 160 0
141 154 0
138 150 0
147 158 0
143 155 0
141 151 0
141 150 0
142 152 0
140 150 0
144 155 0
143 154 0
140 152 0
143 153 0
146 155 0
148 159 0
141 150 0
139 151 0
146 158 0
145 157 0
143 151 0
142 151 0
144 152 0
145 155 0
148 159 0
144 154 0
144 152 0
136 142 0
144 150 0
142 153 0
139 146 0
142 154 0
147 158 0
146 152 0
138 147 0
147 156 0
145 154 0
141 147 0
139 146 0
150 157 0
145 152 0
146 156 0
152 162 0
146 153 0
148 158 0
139 146 0
145 151 0
143 150 0
144 153 0
154 163 0
145 154 0
145 153 0
155 166 0
150 156 0
141 149 0
148 154 0
153 164 0
145 150 0
148 158 0
148 158 0
148 155 0
148 156 0
153 163 0
148 157 0
154 163 0
150 159 0
145 151 0
143 151 0
151 163 0
150 160 0
155 164 0
153 162 0
154 163 0
157 167 0
155 166 0
150 158 0
151 162 0
151 161 0
158 176 0
160 179 0
153 172 0
163 182 0
154 173 0
162 182 0
162 182 0
159 177 0
156 175 0
164 182 0
155 173 0
151 170 0
154 172 0
159 177 0
154 173 0
156 174 0
148 165 0
151 169 0
156 174 0
156 174 0
152 170 0
154 172 0
152 171 0
151 170 0
157 175 0
155 173 0
153 172 0
153 172 0
151 169 0
147 165 0
160 177 0
158 177 0
152 169 0
154 172 0
156 174 0
152 170 0
157 177 0
152 170 0
154 172 0
152 170 0
154 172 0
152 169 0
156 174 0
152 170 0
149 166 0
141 159 0
154 173 0
155 174 0
153 170 0
156 176 0
159 177 0
150 169 0
149 166 0
149 167 0
147 165 0
154 172 0
155 174 0
152 170 0
150 168 0
148 168 0
159 178 0
150 169 0
152 170 0
150 169 0
149 167 0
148 166 0
149 169 0
149 167 0
146 164 0
151 170 0
150 169 0
147 165 0
150 169 0
146 166 0
142 160 0
158 178 0
147 166 0
143 162 0
150 170 0
145 163 0
142 161 0
149 169 0
151 170 0
147 167 0
153 173 0
148 168 0
142 162 0
143 164 0
153 174 0
151 171 0
148 169 0
146 166 0
150 170 0
144 163 0
152 173 0
146 166 0
142 161 0
147 167 0
147 167 0
151 171 0
148 168 0
143 162 0
148 168 0
147 167 0
147 168 0
148 169 0
142 162 0
146 167 0
139 160 0
139 159 0
149 170 0
143 164 0
145 166 0
154 175 0
146 167 0
144 164 0
149 169 0
149 170 0
146 166 0
145 166 0
153 174 0
147 168 0
152 173 0
147 168 0
149 169 0
145 166 0
138 159 0
149 171 0
146 165 0
141 162 0
141 162 0
143 165 0
148 169 0
152 173 0
148 169 0
148 170 0
144 165 0
147 168 0
145 167 0
143 165 0
148 169 0
148 169 0
138 159 0
132 153 0
144 165 0
148 170 0
145 166 0
148 170 0
146 168 0
149 170 0
137 158 0
141 161 0
150 171 0
140 161 0
140 163 0
146 167 0
140 161 0
145 166 0
138 160 0
140 161 0
140 160 0
143 165 0
134 156 0
146 169 0
137 158 0
137 159 0
138 160 0
149 171 0
148 170 0
144 165 0
147 167 0
142 162 0
143 165 0
145 168 0
138 160 0
149 169 0
139 161 0
150 171 0
130 150 0
135 157 0
138 158 0
135 156 0
144 165 0
140 160 0
146 166 0
135 157 0
141 162 0
140 162 0
136 158 0
142 164 0
139 159 0
138 158 0
135 157 0
146 167 0
134 154 0
130 150 0
137 158 0
137 157 0
148 169 0
136 157 0
144 166 0
134 155 0
136 158 0
139 159 0
135 156 0
143 163 0
138 160 0
137 158 0
137 158 0
144 164 0
146 166 0
135 157 0
148 168 0
141 162 0
146 165 0
129 149 0
135 155 0
142 162 0
145 164 0
137 155 0
135 154 0
136 156 0
136 156 0
139 160 0
142 162 0
141 159 0
143 163 0
150 172 0
135 156 0
138 159 0
139 159 0
142 163 0
148 168 0
133 152 0
142 162 0
143 164 0
145 165 0
143 162 0
146 165 0
143 162 0
147 167 0
146 166 0
151 172 0
137 157 0
146 166 0
144 163 0
136 154 0
147 166 0
137 156 0
139 159 0
139 156 0
142 162 0
139 158 0
137 156 0
144 163 0
138 158 0
144 164 0
140 160 0
138 156 0
134 151 0
141 159 0
142 160 0
147 164 0
151 169 0
144 162 0
135 152 0
142 161 0
146 165 0
140 155 0
138 158 0
149 169 0
136 152 0
142 159 0
139 156 0
143 162 0
143 162 0
149 165 0
140 155 0
147 164 0
139 156 0
146 163 0
150 166 0
137 152 0
149 166 0
139 158 0
138 155 0
148 166 0
143 160 0
137 155 0
138 155 0
146 163 0
146 161 0
146 162 0
145 162 0
142 159 0
137 154 0
141 156 0
150 167 0
143 159 0
146 164 0
148 165 0
149 166 0
142 156 0
145 159 0
140 153 0
148 161 0
148 163 0
146 162 0
145 158 0
145 158 0
144 156 0
151 165 0
143 157 0
140 152 0
141 155 0
142 156 0
144 157 0
141 157 0
135 149 0
149 163 0
141 155 0
138 151 0
144 155 0
147 160 0
138 151 0
142 154 0
145 157 0
144 157 0
149 164 0
148 160 0
151 162 0
143 153 0
151 164 0
143 154 0
135 144 0
145 157 0
146 155 0
145 156 0
144 155 0
140 150 0
151 161 0
140 150 0
144 152 0
140 148 0
138 144 0
145 154 0
147 158 0
148 156 0
143 153 0
143 152 0
141 151 0
144 153 0
146 157 0
148 159 0
146 156 0
147 156 0
142 152 0
148 157 0
145 152 0
144 156 0
144 153 0
141 148 0
143 152 0
141 149 0
144 151 0
147 153 0
150 160 0
153 163 0
145 150 0
150 161 0
145 153 0
146 155 0
148 157 0
142 145 0
150 158 0
148 157 0
146 155 0
150 159 0
146 153 0
149 157 0
153 162 0
147 154 0
158 170 0
145 154 0
143 151 0
154 164 0
149 158 0
142 148 0
150 159 0
148 155 0
152 161 0
149 160 0
151 162 0
150 161 0
153 164 0
161 172 0
150 160 0
158 170 0
152 160 0
150 162 0
154 173 0
159 177 0
156 174 0
161 179 0
155 174 0
159 177 0
158 176 0
154 172 0
159 179 0
162 181 0
154 173 0
150 167 0
153 172 0
158 178 0
157 176 0
153 170 0
158 176 0
153 172 0
151 169 0
158 177 0
157 176 0
153 171 0
152 170 0
153 171 0
154 172 0
156 175 0
151 169 0
152 170 0
151 168 0
158 177 0
154 172 0
153 170 0
154 172 0
151 170 0
145 163 0
154 173 0
157 175 0
153 171 0
153 171 0
154 172 0
144 163 0
154 173 0
156 174 0
146 164 0
156 173 0
154 172 0
147 166 0
151 169 0
159 178 0
156 175 0
145 162 0
156 174 0
153 173 0
153 171 0
153 173 0
150 169 0
155 174 0
147 166 0
144 162 0
154 173 0
152 171 0
144 163 0
154 173 0
148 167 0
150 168 0
151 170 0
148 167 0
145 163 0
148 166 0
149 168 0
156 175 0
151 172 0
155 175 0
151 170 0
155 174 0
150 170 0
148 168 0
148 168 0
144 164 0
152 171 0
152 172 0
151 171 0
149 168 0
145 164 0
148 168 0
149 170 0
145 164 0
150 171 0
144 162 0
158 179 0
148 167 0
151 170 0
135 155 0
141 161 0
146 166 0
147 168 0
150 172 0
143 163 0
145 166 0
143 163 0
148 168 0
155 176 0
153 174 0
149 169 0
146 167 0
147 167 0
148 169 0
147 169 0
137 157 0
152 173 0
152 173 0
143 165 0
144 164 0
150 172 0
145 166 0
146 166 0
149 170 0
139 159 0
142 163 0
145 165 0
143 163 0
157 179 0
151 172 0
138 159 0
142 163 0
140 162 0
138 160 0
142 163 0
151 171 0
153 175 0
151 173 0
144 164 0
149 171 0
147 169 0
144 165 0
149 170 0
145 166 0
149 171 0
142 163 0
149 169 0
139 161 0
153 175 0
143 163 0
140 162 0
145 165 0
135 156 0
151 173 0
145 166 0
143 166 0
145 166 0
145 167 0
141 161 0
139 160 0
140 162 0
148 171 0
143 165 0
143 164 0
139 161 0
143 164 0
145 166 0
140 159 0
142 163 0
148 170 0
144 167 0
145 168 0
142 163 0
143 163 0
149 172 0
143 164 0
142 164 0
142 163 0
144 164 0
138 159 0
142 163 0
133 153 0
146 166 0
142 164 0
138 159 0
145 165 0
133 154 0
142 162 0
143 163 0
142 162 0
134 153 0
137 157 0
134 153 0
143 163 0
145 167 0
139 162 0
130 151 0
146 168 0
144 164 0
145 166 0
144 164 0
133 153 0
135 156 0
139 160 0
144 165 0
141 162 0
138 160 0
139 160 0
126 145 0
133 155 0
136 157 0
136 156 0
140 159 0
140 161 0
127 148 0
138 158 0
142 161 0
144 164 0
135 154 0
146 166 0
133 153 0
136 156 0
140 160 0
138 159 0
140 160 0
138 157 0
140 160 0
140 160 0
151 171 0
131 151 0
141 160 0
141 161 0
143 165 0
139 159 0
150 170 0
137 156 0
140 161 0
148 167 0
142 162 0
136 155 0
143 162 0
147 167 0
139 157 0
136 156 0
146 166 0
135 156 0
139 159 0
147 166 0
137 156 0
141 161 0
142 162 0
135 155 0
144 164 0
137 156 0
133 153 0
136 157 0
141 160 0
143 163 0
142 162 0
144 164 0
154 175 0
150 169 0
146 166 0
137 154 0
135 155 0
152 171 0
150 170 0
131 148 0
143 160 0
146 166 0
142 161 0
141 160 0
132 148 0
140 158 0
141 162 0
140 160 0
148 167 0
143 161 0
140 158 0
143 163 0
143 160 0
143 161 0
143 160 0
150 168 0
143 163 0
145 162 0
140 158 0
149 167 0
137 154 0
149 168 0
145 163 0
156 172 0
146 166 0
142 159 0
140 156 0
153 170 0
142 161 0
151 167 0
143 159 0
139 154 0
145 161 0
141 159 0
149 167 0
138 154 0
139 154 0
145 161 0
141 158 0
148 165 0
149 166 0
141 157 0
138 153 0
145 160 0
145 159 0
138 152 0
146 165 0
153 168 0
144 161 0
143 157 0
141 156 0
145 157 0
141 155 0
144 156 0
148 163 0
147 160 0
139 152 0
145 158 0
151 166 0
151 164 0
149 161 0
144 156 0
138 152 0
147 163 0
134 145 0
145 157 0
145 158 0
143 156 0
140 153 0
146 159 0
146 157 0
145 158 0
143 154 0
135 144 0
139 153 0
143 153 0
143 155 0
143 153 0
142 152 0
150 160 0
144 153 0
148 159 0
146 157 0
137 145 0
146 155 0
148 159 0
151 163 0
144 154 0
151 163 0
149 161 0
145 156 0
151 159 0
142 150 0
135 143 0
148 156 0
154 164 0
143 151 0
146 156 0
151 158 0
146 154 0
140 147 0
148 156 0
140 146 0
144 152 0
135 143 0
151 160 0
147 156 0
147 155 0
146 153 0
148 156 0
151 161 0
147 156 0
149 158 0
149 156 0
149 157 0
154 164 0
148 157 0
144 153 0
154 165 0
151 161 0
139 147 0
147 158 0
143 153 0
151 160 0
152 161 0
144 149 0
156 166 0
145 154 0
149 159 0
157 168 0
149 157 0
152 162 0
157 167 0
152 160 0
155 169 0
148 158 0
152 161 0
151 159 0
154 162 0
154 173 0
158 177 0
161 181 0
157 175 0
148 167 0
155 174 0
162 181 0
157 175 0
163 182 0
155 173 0
152 170 0
154 172 0
159 178 0
163 181 0
148 165 0
156 174 0
160 179 0
148 167 0
159 178 0
158 178 0
157 176 0
150 169 0
154 172 0
152 171 0
156 174 0
161 179 0
149 168 0
155 173 0
152 170 0
151 169 0
155 173 0
156 174 0
155 173 0
150 168 0
154 172 0
151 169 0
151 169 0
148 167 0
153 172 0
151 169 0
155 174 0
149 168 0
158 177 0
157 177 0
153 171 0
145 162 0
153 172 0
155 173 0
149 168 0
155 173 0
151 169 0
146 165 0
150 168 0
145 164 0
157 176 0
148 166 0
155 174 0
155 174 0
150 169 0
146 166 0
152 171 0
153 172 0
151 171 0
151 170 0
152 172 0
150 170 0
146 164 0
147 166 0
149 169 0
153 173 0
151 171 0
150 169 0
151 170 0
147 166 0
143 162 0
149 167 0
146 166 0
149 169 0
147 167 0
154 174 0
146 166 0
141 160 0
147 167 0
151 172 0
139 158 0
145 165 0
149 169 0
149 169 0
147 167 0
146 166 0
144 164 0
145 166 0
148 169 0
144 164 0
144 165 0
149 169 0
145 166 0
151 171 0
150 171 0
157 179 0
151 173 0
154 174 0
150 171 0
143 164 0
150 171 0
150 169 0
149 170 0
149 170 0
149 170 0
147 168 0
143 163 0
152 174 0
148 170 0
144 163 0
151 172 0
139 160 0
144 164 0
146 169 0
144 166 0
147 167 0
152 171 0
146 167 0
152 173 0
143 164 0
140 160 0
148 169 0
150 171 0
152 173 0
145 164 0
143 164 0
150 170 0
153 174 0
145 166 0
140 161 0
141 161 0
147 168 0
144 165 0
140 160 0
152 174 0
143 164 0
147 168 0
141 162 0
145 167 0
140 161 0
141 161 0
142 163 0
146 167 0
143 164 0
150 172 0
148 171 0
135 157 0
136 157 0
145 166 0
136 158 0
144 166 0
138 158 0
139 160 0
146 168 0
148 169 0
149 171 0
148 169 0
147 168 0
146 168 0
134 154 0
142 162 0
144 166 0
146 166 0
140 161 0
140 161 0
131 151 0
140 160 0
146 168 0
141 163 0
145 166 0
141 161 0
144 164 0
145 166 0
137 159 0
145 167 0
143 164 0
135 156 0
142 162 0
147 168 0
145 165 0
150 170 0
144 165 0
136 157 0
145 167 0
136 156 0
134 155 0
139 160 0
141 162 0
135 156 0
140 161 0
145 165 0
132 154 0
142 164 0
141 161 0
132 153 0
144 164 0
142 162 0
138 160 0
147 169 0
139 159 0
147 168 0
144 165 0
139 158 0
138 159 0
136 156 0
142 162 0
145 166 0
142 162 0
144 163 0
135 156 0
147 167 0
142 162 0
140 160 0
151 173 0
143 164 0
143 164 0
140 160 0
149 169 0
138 156 0
138 158 0
134 155 0
137 156 0
147 168 0
142 162 0
135 156 0
134 152 0
151 171 0
142 162 0
147 166 0
148 168 0
138 157 0
149 168 0
129 149 0
143 164 0
141 159 0
135 155 0
138 156 0
154 173 0
137 156 0
141 160 0
146 166 0
147 167 0
144 164 0
145 164 0
146 166 0
139 158 0
149 169 0
148 169 0
149 168 0
143 162 0
143 164 0
143 162 0
146 164 0
147 167 0
144 164 0
141 159 0
138 157 0
156 174 0
140 159 0
150 169 0
147 167 0
140 157 0
144 162 0
148 166 0
151 171 0
138 155 0
145 163 0
149 167 0
140 159 0
149 167 0
145 163 0
141 161 0
143 160 0
141 160 0
149 168 0
139 157 0
151 170 0
146 165 0
145 163 0
148 167 0
148 166 0
151 168 0
143 160 0
136 155 0
143 160 0
149 166 0
146 163 0
151 168 0
152 170 0
141 159 0
146 164 0
143 160 0
146 162 0
152 170 0
155 174 0
149 165 0
145 162 0
149 164 0
139 154 0
150 167 0
140 156 0
144 161 0
137 152 0
144 159 0
152 169 0
147 162 0
143 158 0
153 169 0
148 163 0
145 159 0
144 158 0
146 161 0
138 152 0
144 157 0
144 158 0
144 156 0
144 158 0
143 154 0
142 154 0
143 156 0
154 168 0
143 154 0
145 158 0
149 161 0
145 159 0
153 168 0
147 160 0
140 151 0
153 165 0
140 152 0
146 156 0
152 166 0
144 155 0
146 160 0
146 157 0
147 161 0
149 161 0
152 165 0
145 156 0
149 158 0
144 157 0
144 156 0
143 154 0
142 152 0
149 159 0
147 158 0
147 158 0
144 152 0
141 148 0
148 159 0
150 160 0
149 159 0
149 158 0
146 154 0
140 147 0
138 146 0
152 161 0
152 159 0
142 150 0
145 155 0
147 155 0
151 161 0
146 155 0
148 156 0
152 163 0
149 156 0
151 159 0
151 161 0
144 154 0
154 164 0
152 161 0
143 151 0
145 154 0
148 156 0
146 154 0
149 157 0
156 165 0
142 150 0
153 162 0
151 161 0
148 155 0
154 162 0
154 163 0
149 157 0
151 162 0
151 161 0
146 153 0
150 161 0
155 164 0
152 161 0
143 149 0
150 158 0
156 167 0
156 169 0
154 162 0
152 161 0
162 181 0
154 172 0
156 175 0
156 174 0
156 174 0
158 178 0
159 177 0
159 177 0
164 184 0
159 178 0
157 175 0
155 173 0
162 180 0
160 179 0
156 174 0
156 175 0
156 174 0
160 179 0
153 172 0
159 178 0
159 178 0
158 177 0
159 178 0
156 175 0
150 168 0
153 171 0
153 172 0
155 174 0
156 176 0
151 171 0
151 170 0
152 170 0
154 172 0
152 169 0
152 169 0
155 173 0
153 172 0
155 173 0
155 174 0
148 166 0
151 171 0
153 172 0
156 174 0
146 165 0
147 165 0
148 167 0
156 175 0
156 176 0
153 171 0
155 174 0
142 161 0
157 176 0
141 160 0
153 173 0
156 176 0
148 167 0
151 171 0
147 167 0
153 172 0
154 173 0
146 165 0
148 168 0
151 170 0
153 173 0
151 172 0
145 163 0
149 169 0
153 173 0
146 165 0
151 170 0
151 170 0
157 177 0
155 176 0
144 163 0
156 177 0
148 168 0
148 168 0
153 173 0
149 168 0
141 160 0
150 170 0
156 175 0
140 159 0
152 170 0
150 170 0
149 170 0
148 168 0
146 164 0
148 169 0
149 169 0
149 169 0
148 168 0
151 171 0
147 166 0
147 168 0
154 176 0
154 175 0
140 161 0
154 174 0
153 174 0
156 177 0
143 163 0
153 174 0
144 164 0
147 168 0
149 171 0
153 174 0
153 174 0
143 164 0
140 161 0
151 172 0
147 168 0
150 171 0
146 167 0
149 169 0
153 173 0
145 167 0
143 165 0
151 171 0
148 170 0
148 170 0
144 165 0
149 172 0
153 173 0
145 166 0
146 167 0
148 170 0
144 165 0
149 171 0
147 168 0
140 162 0
144 164 0
137 158 0
149 170 0
137 158 0
143 163 0
143 164 0
144 165 0
146 167 0
147 168 0
147 169 0
141 162 0
142 163 0
141 163 0
147 169 0
148 170 0
144 166 0
139 160 0
141 162 0
146 168 0
145 167 0
144 165 0
139 161 0
143 163 0
136 156 0
146 167 0
142 162 0
142 162 0
146 168 0
147 169 0
153 174 0
151 172 0
147 168 0
143 165 0
145 167 0
141 162 0
145 167 0
146 167 0
145 167 0
138 159 0
143 164 0
150 170 0
141 162 0
138 158 0
135 156 0
146 168 0
143 165 0
144 166 0
143 163 0
143 165 0
147 168 0
140 161 0
145 166 0
148 170 0
147 169 0
145 167 0
147 167 0
142 163 0
150 172 0
151 172 0
142 163 0
144 165 0
139 160 0
144 165 0
149 171 0
146 166 0
139 158 0
142 163 0
146 168 0
138 159 0
141 161 0
144 165 0
141 162 0
136 155 0
135 156 0
139 159 0
139 160 0
134 155 0
146 165 0
146 168 0
145 166 0
142 163 0
140 160 0
142 163 0
141 162 0
129 150 0
137 156 0
139 159 0
140 161 0
143 164 0
143 163 0
136 156 0
141 161 0
135 156 0
144 165 0
134 155 0
144 165 0
140 159 0
142 163 0
147 166 0
145 165 0
142 164 0
139 158 0
141 162 0
137 157 0
141 162 0
143 163 0
139 158 0
153 172 0
147 168 0
139 160 0
144 162 0
140 160 0
145 165 0
138 158 0
149 170 0
146 167 0
145 166 0
140 160 0
135 155 0
139 158 0
147 165 0
134 154 0
144 165 0
140 160 0
141 163 0
153 172 0
147 165 0
146 166 0
144 163 0
140 159 0
142 161 0
146 163 0
144 164 0
146 164 0
140 160 0
145 162 0
146 165 0
144 162 0
145 164 0
140 158 0
144 162 0
139 158 0
140 158 0
141 160 0
150 167 0
144 162 0
149 168 0
145 163 0
151 167 0
149 169 0
152 171 0
136 154 0
146 161 0
144 162 0
147 164 0
139 156 0
140 158 0
145 164 0
147 167 0
137 151 0
137 153 0
155 174 0
144 162 0
141 159 0
151 169 0
151 168 0
138 155 0
145 159 0
148 166 0
142 158 0
145 159 0
140 156 0
144 159 0
145 160 0
148 163 0
154 173 0
142 159 0
146 161 0
148 165 0
145 159 0
149 166 0
152 170 0
150 166 0
145 157 0
145 158 0
145 160 0
145 156 0
150 167 0
142 156 0
144 155 0
148 164 0
155 169 0
142 155 0
146 160 0
150 164 0
138 149 0
147 162 0
152 166 0
139 152 0
146 159 0
146 157 0
154 167 0
153 167 0
151 163 0
147 160 0
145 157 0
146 157 0
141 153 0
141 151 0
141 152 0
143 154 0
151 163 0
141 154 0
150 163 0
147 156 0
143 154 0
147 160 0
148 160 0
146 154 0
145 153 0
150 159 0
152 158 0
148 160 0
150 161 0
145 156 0
151 159 0
147 158 0
149 159 0
138 147 0
145 154 0
147 158 0
142 151 0
145 155 0
144 152 0
146 155 0
148 160 0
148 158 0
146 156 0
144 152 0
150 160 0
150 162 0
149 159 0
151 160 0
147 156 0
151 161 0
146 154 0
152 162 0
149 159 0
146 156 0
151 163 0
147 152 0
144 149 0
151 159 0
155 165 0
153 160 0
151 162 0
150 161 0
157 165 0
151 160 0
154 163 0
152 161 0
154 164 0
151 159 0
147 157 0
149 159 0
149 158 0
156 166 0
158 168 0
152 161 0
160 179 0
159 178 0
162 180 0
162 182 0
159 179 0
152 170 0
157 176 0
157 175 0
159 178 0
156 175 0
157 176 0
160 179 0
154 172 0
158 176 0
162 181 0
154 173 0
157 174 0
155 175 0
153 171 0
159 178 0
156 175 0
149 166 0
159 177 0
154 172 0
154 173 0
156 175 0
146 165 0
157 177 0
163 181 0
153 171 0
150 168 0
151 169 0
153 172 0
155 175 0
149 168 0
150 168 0
150 169 0
159 178 0
153 171 0
153 173 0
152 170 0
155 174 0
158 177 0
155 174 0
152 170 0
158 176 0
155 173 0
156 175 0
153 172 0
155 174 0
150 168 0
152 171 0
149 168 0
147 165 0
152 171 0
146 165 0
157 178 0
154 174 0
147 167 0
148 167 0
149 168 0
140 158 0
147 166 0
148 167 0
155 174 0
148 167 0
149 169 0
145 164 0
149 168 0
145 166 0
152 172 0
148 166 0
151 171 0
149 169 0
140 161 0
150 170 0
153 173 0
149 169 0
153 173 0
149 168 0
152 172 0
153 173 0
151 170 0
155 175 0
150 170 0
151 172 0
154 174 0
146 167 0
144 164 0
148 170 0
145 166 0
146 166 0
146 167 0
154 175 0
143 163 0
150 170 0
150 169 0
144 164 0
153 173 0
142 164 0
146 167 0
142 163 0
152 173 0
153 172 0
149 171 0
148 169 0
145 167 0
146 166 0
154 175 0
151 172 0
155 174 0
153 174 0
151 172 0
151 172 0
152 173 0
151 172 0
153 175 0
140 161 0
146 168 0
150 172 0
145 166 0
150 170 0
150 171 0
148 170 0
150 172 0
147 168 0
148 168 0
151 172 0
156 178 0
145 167 0
147 169 0
152 173 0
150 172 0
144 165 0
146 168 0
144 167 0
146 167 0
147 169 0
147 169 0
145 166 0
139 160 0
141 163 0
143 164 0
143 164 0
146 169 0
149 170 0
148 170 0
147 169 0
138 158 0
140 162 0
139 161 0
148 170 0
140 161 0
145 167 0
145 166 0
144 166 0
148 170 0
143 165 0
146 167 0
142 162 0
152 174 0
135 157 0
143 164 0
158 179 0
141 161 0
145 166 0
141 162 0
146 167 0
143 164 0
144 166 0
145 165 0
136 158 0
144 166 0
138 159 0
145 166 0
144 163 0
136 157 0
141 162 0
138 158 0
136 157 0
144 165 0
145 165 0
141 162 0
149 170 0
135 156 0
139 160 0
136 157 0
146 168 0
138 159 0
141 164 0
138 159 0
133 153 0
144 164 0
141 162 0
135 156 0
136 157 0
142 163 0
139 159 0
142 164 0
143 165 0
141 163 0
147 168 0
138 158 0
146 168 0
144 166 0
144 165 0
142 163 0
146 168 0
150 171 0
148 170 0
143 163 0
142 163 0
143 165 0
133 154 0
146 167 0
144 164 0
143 165 0
138 158 0
149 169 0
140 159 0
147 167 0
142 162 0
137 156 0
147 167 0
143 164 0
140 158 0
148 170 0
135 156 0
141 162 0
139 159 0
143 162 0
138 160 0
144 162 0
150 170 0
138 157 0
143 162 0
146 164 0
136 155 0
144 164 0
139 158 0
141 160 0
142 164 0
143 164 0
144 164 0
155 176 0
137 155 0
139 160 0
139 159 0
150 170 0
142 163 0
139 158 0
151 170 0
148 167 0
148 167 0
137 156 0
142 162 0
140 160 0
143 162 0
146 165 0
148 168 0
142 161 0
144 164 0
147 167 0
144 162 0
147 164 0
150 169 0
142 160 0
148 168 0
143 161 0
142 163 0
147 167 0
146 168 0
146 165 0
143 162 0
145 164 0
150 168 0
148 167 0
149 168 0
153 173 0
138 155 0
149 167 0
140 157 0
151 170 0
148 165 0
146 163 0
148 167 0
146 164 0
138 156 0
141 159 0
142 159 0
144 161 0
146 163 0
142 158 0
150 169 0
145 163 0
150 167 0
145 162 0
143 159 0
151 168 0
143 158 0
146 162 0
142 157 0
141 157 0
138 154 0
140 154 0
144 160 0
144 160 0
149 167 0
144 160 0
151 168 0
145 161 0
149 163 0
150 166 0
148 164 0
144 157 0
140 154 0
141 156 0
150 166 0
145 159 0
144 158 0
144 158 0
143 157 0
142 156 0
143 155 0
151 164 0
150 163 0
137 151 0
148 162 0
142 158 0
147 161 0
137 152 0
150 163 0
148 162 0
146 158 0
149 164 0
141 155 0
150 162 0
146 160 0
139 149 0
147 159 0
150 163 0
149 161 0
140 151 0
151 163 0
146 158 0
147 159 0
143 153 0
148 159 0
144 155 0
143 155 0
143 151 0
148 160 0
143 154 0
143 154 0
154 167 0
150 157 0
145 156 0
149 161 0
149 161 0
140 150 0
151 162 0
141 150 0
152 161 0
146 157 0
146 157 0
148 160 0
153 162 0
148 159 0
145 154 0
154 165 0
147 155 0
145 153 0
150 163 0
151 160 0
152 164 0
154 163 0
148 156 0
146 157 0
153 162 0
144 155 0
146 154 0
155 165 0
154 165 0
151 159 0
152 160 0
153 162 0
155 165 0
146 156 0
150 158 0
150 161 0
151 160 0
155 168 0
151 161 0
148 155 0
151 162 0
153 164 0
157 165 0
153 164 0
155 164 0
155 166 0
164 183 0
161 181 0
163 183 0
162 181 0
156 176 0
158 177 0
162 182 0
158 177 0
159 178 0
158 177 0
159 178 0
153 171 0
159 177 0
157 176 0
158 178 0
157 176 0
156 176 0
154 172 0
158 177 0
161 179 0
154 172 0
156 175 0
161 179 0
151 169 0
156 175 0
155 173 0
156 175 0
156 175 0
160 180 0
156 175 0
158 178 0
153 172 0
152 171 0
153 171 0
154 172 0
154 172 0
154 173 0
158 176 0
161 181 0
156 176 0
152 170 0
154 172 0
155 175 0
151 171 0
157 176 0
150 169 0
150 169 0
149 168 0
154 173 0
149 167 0
154 174 0
152 172 0
149 169 0
157 175 0
151 169 0
153 173 0
148 166 0
143 160 0
149 168 0
152 171 0
145 164 0
151 171 0
150 169 0
153 173 0
150 170 0
156 176 0
149 167 0
152 171 0
155 174 0
150 170 0
155 175 0
147 167 0
150 170 0
154 174 0
152 172 0
150 170 0
148 169 0
147 166 0
149 169 0
141 160 0
143 164 0
157 176 0
152 173 0
153 173 0
145 165 0
155 176 0
145 166 0
143 163 0
147 168 0
151 171 0
149 170 0
147 168 0
143 163 0
148 170 0
150 171 0
145 167 0
152 172 0
151 172 0
141 161 0
153 175 0
149 170 0
146 166 0
158 179 0
152 173 0
146 167 0
145 165 0
151 171 0
151 171 0
144 165 0
142 163 0
151 174 0
152 174 0
144 166 0
153 174 0
152 173 0
156 176 0
144 165 0
147 168 0
149 170 0
140 160 0
146 168 0
154 175 0
145 166 0
143 164 0
147 169 0
151 173 0
150 171 0
138 159 0
148 170 0
146 167 0
141 163 0
144 165 0
153 174 0
147 169 0
145 165 0
147 168 0
136 156 0
140 162 0
146 166 0
148 169 0
148 170 0
152 173 0
150 171 0
141 163 0
144 166 0
151 172 0
140 161 0
151 172 0
147 169 0
140 160 0
150 171 0
140 161 0
142 163 0
155 177 0
151 173 0
142 163 0
140 161 0
147 169 0
146 167 0
153 175 0
141 162 0
138 159 0
144 166 0
142 164 0
150 172 0
144 164 0
143 165 0
146 168 0
151 172 0
141 162 0
148 169 0
144 165 0
135 155 0
141 162 0
150 171 0
142 163 0
137 159 0
144 166 0
143 163 0
138 160 0
144 166 0
139 161 0
143 164 0
147 168 0
144 165 0
145 166 0
143 164 0
146 168 0
136 155 0
149 170 0
146 168 0
136 156 0
141 163 0
150 172 0
137 156 0
142 164 0
152 172 0
140 161 0
148 171 0
140 161 0
137 157 0
139 160 0
149 170 0
152 173 0
128 148 0
145 166 0
140 162 0
140 160 0
147 167 0
142 162 0
141 162 0
143 164 0
141 161 0
146 167 0
138 159 0
146 165 0
138 159 0
140 161 0
143 163 0
141 161 0
144 165 0
143 163 0
137 157 0
141 161 0
142 162 0
146 166 0
131 150 0
149 168 0
135 155 0
137 158 0
138 158 0
136 156 0
146 167 0
147 167 0
145 165 0
143 162 0
144 165 0
140 160 0
145 165 0
143 164 0
141 159 0
143 163 0
147 168 0
146 167 0
147 167 0
136 156 0
144 164 0
141 159 0
142 162 0
147 167 0
135 156 0
145 164 0
145 164 0
141 162 0
147 167 0
149 170 0
141 160 0
152 172 0
134 153 0
144 164 0
150 170 0
148 168 0
141 159 0
145 165 0
152 171 0
147 166 0
147 165 0
141 162 0
144 162 0
153 171 0
136 154 0
133 150 0
147 164 0
149 167 0
138 156 0
138 155 0
131 148 0
145 162 0
149 169 0
147 166 0
145 164 0
145 163 0
146 165 0
137 153 0
148 166 0
148 167 0
146 164 0
143 160 0
153 171 0
151 168 0
150 168 0
146 162 0
147 165 0
148 165 0
144 160 0
147 165 0
147 162 0
154 169 0
144 161 0
145 163 0
145 163 0
147 162 0
151 168 0
155 171 0
142 157 0
143 159 0
150 167 0
141 156 0
141 157 0
142 158 0
141 158 0
156 171 0
151 168 0
145 161 0
149 165 0
154 168 0
148 164 0
150 164 0
148 163 0
147 162 0
141 155 0
138 152 0
144 159 0
155 169 0
143 157 0
146 160 0
145 160 0
147 160 0
148 165 0
154 168 0
152 166 0
144 158 0
142 156 0
142 156 0
145 158 0
150 165 0
140 152 0
147 161 0
151 162 0
148 160 0
146 159 0
148 161 0
150 165 0
142 154 0
150 162 0
146 159 0
152 165 0
155 167 0
160 173 0
145 158 0
145 153 0
142 154 0
150 162 0
151 161 0
146 154 0
151 162 0
150 163 0
147 158 0
145 155 0
154 167 0
149 158 0
148 159 0
149 159 0
142 151 0
148 156 0
150 159 0
153 163 0
143 152 0
145 152 0
141 150 0
151 162 0
147 155 0
150 161 0
153 166 0
150 160 0
156 166 0
154 164 0
150 160 0
146 153 0
151 161 0
155 165 0
154 162 0
152 162 0
147 154 0
149 157 0
150 157 0
153 165 0
153 164 0
149 159 0
157 165 0
159 168 0
153 161 0
154 163 0
155 163 0
152 161 0
157 167 0
158 168 0
152 165 0
155 166 0
143 153 0
159 179 0
158 177 0
162 181 0
160 179 0
156 174 0
157 176 0
158 177 0
156 175 0
158 176 0
160 179 0
161 180 0
158 177 0
163 183 0
156 175 0
155 172 0
157 175 0
153 171 0
158 176 0
159 178 0
156 174 0
156 175 0
157 176 0
156 175 0
158 176 0
159 178 0
151 169 0
157 175 0
159 179 0
154 174 0
153 172 0
156 175 0
156 175 0
161 179 0
148 166 0
154 172 0
159 178 0
153 172 0
160 180 0
152 170 0
151 169 0
153 173 0
152 172 0
154 173 0
152 171 0
157 175 0
153 172 0
152 172 0
145 163 0
152 172 0
146 165 0
150 169 0
151 170 0
156 176 0
150 169 0
151 171 0
151 170 0
151 170 0
151 170 0
155 176 0
146 164 0
157 175 0
151 171 0
146 165 0
145 165 0
155 174 0
154 173 0
154 175 0
152 173 0
150 169 0
150 169 0
149 168 0
155 176 0
152 172 0
157 178 0
151 171 0
159 180 0
153 173 0
146 166 0
153 173 0
146 167 0
142 162 0
150 170 0
153 173 0
153 172 0
146 166 0
147 168 0
152 172 0
147 167 0
147 167 0
144 164 0
148 168 0
147 168 0
152 172 0
149 170 0
152 172 0
156 176 0
151 173 0
144 165 0
146 166 0
147 167 0
143 164 0
144 164 0
150 172 0
141 161 0
136 155 0
151 172 0
146 167 0
139 161 0
153 173 0
146 165 0
153 174 0
147 169 0
156 177 0
155 175 0
152 174 0
149 171 0
142 164 0
145 167 0
149 171 0
148 168 0
149 171 0
149 170 0
147 168 0
148 168 0
145 166 0
143 164 0
143 165 0
145 167 0
145 167 0
147 168 0
142 163 0
142 163 0
149 171 0
141 161 0
147 169 0
157 178 0
142 163 0
143 164 0
145 168 0
149 171 0
148 170 0
150 172 0
152 172 0
148 170 0
150 172 0
138 160 0
146 167 0
146 167 0
151 173 0
153 175 0
146 167 0
145 166 0
143 164 0
152 175 0
151 172 0
143 165 0
138 160 0
144 164 0
153 173 0
141 162 0
147 167 0
141 163 0
144 165 0
140 162 0
141 161 0
153 174 0
144 166 0
143 165 0
136 157 0
138 160 0
149 171 0
144 165 0
130 151 0
152 174 0
144 165 0
144 167 0
138 159 0
139 161 0
147 169 0
145 167 0
136 158 0
139 161 0
145 166 0
142 163 0
143 164 0
143 165 0
149 170 0
148 170 0
145 166 0
146 168 0
153 174 0
143 166 0
151 170 0
145 166 0
142 163 0
142 163 0
150 173 0
136 157 0
149 171 0
146 167 0
149 170 0
143 163 0
140 161 0
145 166 0
137 158 0
147 168 0
145 167 0
140 161 0
152 173 0
136 156 0
138 158 0
138 159 0
135 157 0
143 162 0
132 153 0
145 165 0
148 168 0
145 166 0
146 166 0
142 162 0
138 157 0
149 171 0
143 163 0
146 166 0
159 179 0
143 165 0
138 159 0
142 161 0
153 173 0
138 157 0
137 158 0
143 163 0
147 167 0
140 160 0
148 167 0
142 161 0
142 163 0
145 164 0
139 158 0
149 170 0
154 173 0
149 169 0
140 161 0
150 169 0
140 158 0
149 167 0
142 161 0
150 170 0
141 162 0
146 166 0
147 167 0
142 162 0
140 159 0
135 155 0
146 166 0
138 157 0
134 152 0
146 167 0
150 169 0
149 169 0
144 163 0
143 161 0
153 172 0
148 168 0
145 162 0
147 166 0
150 171 0
148 166 0
145 164 0
139 158 0
140 159 0
152 170 0
148 167 0
146 165 0
145 164 0
146 164 0
146 163 0
151 171 0
144 161 0
144 161 0
151 168 0
150 167 0
145 161 0
152 169 0
146 164 0
152 169 0
146 163 0
147 166 0
147 166 0
148 165 0
153 170 0
140 156 0
143 158 0
144 161 0
152 171 0
140 158 0
151 169 0
149 165 0
140 157 0
149 166 0
135 151 0
157 176 0
154 169 0
145 162 0
139 154 0
145 162 0
152 170 0
143 159 0
152 169 0
142 159 0
156 173 0
143 161 0
145 160 0
146 161 0
148 164 0
149 166 0
147 162 0
147 162 0
149 164 0
149 162 0
147 160 0
147 162 0
150 165 0
138 150 0
146 161 0
148 161 0
148 160 0
140 154 0
151 165 0
141 154 0
146 160 0
149 163 0
148 164 0
152 167 0
149 162 0
147 160 0
149 163 0
142 154 0
145 158 0
145 157 0
148 160 0
146 161 0
148 160 0
156 169 0
143 155 0
149 161 0
143 153 0
144 158 0
142 155 0
149 161 0
147 161 0
149 158 0
151 163 0
151 163 0
151 163 0
147 160 0
153 164 0
156 168 0
145 153 0
142 151 0
152 163 0
149 160 0
157 170 0
155 166 0
142 153 0
153 164 0
146 158 0
148 160 0
150 160 0
149 156 0
150 160 0
147 158 0
148 159 0
153 164 0
140 150 0
151 161 0
147 154 0
144 153 0
147 156 0
158 169 0
150 160 0
155 166 0
151 160 0
151 161 0
149 158 0
158 169 0
146 153 0
147 156 0
142 151 0
150 161 0
148 158 0
152 163 0
150 164 0
154 165 0
153 163 0
152 162 0
151 158 0
149 161 0
160 173 0
148 160 0
156 175 0
160 180 0
160 179 0
158 177 0
164 183 0
156 174 0
157 177 0
162 180 0
151 169 0
164 183 0
158 177 0
158 177 0
162 181 0
157 175 0
156 175 0
151 170 0
155 173 0
156 176 0
153 173 0
149 167 0
159 178 0
157 174 0
151 171 0
149 168 0
156 174 0
155 174 0
154 173 0
154 173 0
153 172 0
153 171 0
153 172 0
146 166 0
158 178 0
151 170 0
158 178 0
154 173 0
153 171 0
154 174 0
152 171 0
151 170 0
157 175 0
148 168 0
153 173 0
151 171 0
149 168 0
148 167 0
157 175 0
155 175 0
153 173 0
154 173 0
149 168 0
152 172 0
150 171 0
157 177 0
154 172 0
156 176 0
151 170 0
156 176 0
151 172 0
154 174 0
156 177 0
147 167 0
150 169 0
154 174 0
146 166 0
155 174 0
155 175 0
151 171 0
148 169 0
154 173 0
153 173 0
152 172 0
151 170 0
149 169 0
148 168 0
147 167 0
154 174 0
157 177 0
152 173 0
151 171 0
149 169 0
154 176 0
153 174 0
152 174 0
149 168 0
148 168 0
156 177 0
153 174 0
149 170 0
144 165 0
152 172 0
151 170 0
146 167 0
148 170 0
150 170 0
147 169 0
142 162 0
154 175 0
147 167 0
154 174 0
148 169 0
159 180 0
149 170 0
147 169 0
146 167 0
150 171 0
149 170 0
153 173 0
152 173 0
149 170 0
147 169 0
147 168 0
151 172 0
146 168 0
152 172 0
153 174 0
146 167 0
146 168 0
152 173 0
151 171 0
146 167 0
148 171 0
147 169 0
153 175 0
149 171 0
146 167 0
153 174 0
148 170 0
146 167 0
146 166 0
148 169 0
147 168 0
139 160 0
155 176 0
153 174 0
140 162 0
143 163 0
156 177 0
152 174 0
150 171 0
152 175 0
146 167 0
142 162 0
145 165 0
157 179 0
147 169 0
151 173 0
148 169 0
141 161 0
154 175 0
141 163 0
144 163 0
145 167 0
151 172 0
152 172 0
144 166 0
142 163 0
145 167 0
139 159 0
150 172 0
143 164 0
148 169 0
140 161 0
144 166 0
145 166 0
149 170 0
142 164 0
147 169 0
144 167 0
148 170 0
147 168 0
149 170 0
143 164 0
149 171 0
153 174 0
147 169 0
143 164 0
149 171 0
152 174 0
152 174 0
146 166 0
147 167 0
147 170 0
144 167 0
144 165 0
138 159 0
145 165 0
147 167 0
151 173 0
144 166 0
146 167 0
134 154 0
141 161 0
144 166 0
136 156 0
139 161 0
143 164 0
137 159 0
143 165 0
146 166 0
145 166 0
143 165 0
146 167 0
143 164 0
142 164 0
139 159 0
144 164 0
143 165 0
148 170 0
144 165 0
138 158 0
140 161 0
142 162 0
144 164 0
142 164 0
148 169 0
142 163 0
149 170 0
140 161 0
146 167 0
145 167 0
147 166 0
139 160 0
142 163 0
141 160 0
142 163 0
133 153 0
149 170 0
142 163 0
148 168 0
140 162 0
139 160 0
141 160 0
149 170 0
144 165 0
146 165 0
143 164 0
150 170 0
151 171 0
134 153 0
141 161 0
144 165 0
146 166 0
135 155 0
139 159 0
137 157 0
148 168 0
144 163 0
148 168 0
150 172 0
148 167 0
141 161 0
147 167 0
142 161 0
148 167 0
151 172 0
149 169 0
145 165 0
144 166 0
141 160 0
150 170 0
143 163 0
145 165 0
147 164 0
141 160 0
154 174 0
145 164 0
145 164 0
138 156 0
147 166 0
146 166 0
140 160 0
148 168 0
150 168 0
143 163 0
143 162 0
140 157 0
146 164 0
142 162 0
156 174 0
155 174 0
144 163 0
137 154 0
147 164 0
152 169 0
151 169 0
145 164 0
143 158 0
142 162 0
144 162 0
152 171 0
147 163 0
138 154 0
148 164 0
147 166 0
147 165 0
148 168 0
148 166 0
139 153 0
150 166 0
146 162 0
148 165 0
145 162 0
146 162 0
143 159 0
147 164 0
146 161 0
144 161 0
147 162 0
143 159 0
146 161 0
153 170 0
142 161 0
149 164 0
146 160 0
151 167 0
140 156 0
157 173 0
148 163 0
146 162 0
147 163 0
145 162 0
151 166 0
148 165 0
142 157 0
143 157 0
143 155 0
137 150 0
138 152 0
150 165 0
147 161 0
144 158 0
153 167 0
151 164 0
144 158 0
148 162 0
150 164 0
150 164 0
143 154 0
147 160 0
156 172 0
146 157 0
154 168 0
144 158 0
149 162 0
152 164 0
148 157 0
143 157 0
145 156 0
144 156 0
150 166 0
153 167 0
150 161 0
148 160 0
144 155 0
155 165 0
152 165 0
143 155 0
155 170 0
150 162 0
148 159 0
142 153 0
150 164 0
148 160 0
151 163 0
155 166 0
151 161 0
147 158 0
150 160 0
156 168 0
148 159 0
149 162 0
149 161 0
152 161 0
145 155 0
154 165 0
149 157 0
145 156 0
142 153 0
147 159 0
151 160 0
152 164 0
155 165 0
147 156 0
151 162 0
154 167 0
154 162 0
157 166 0
151 161 0
149 161 0
152 161 0
150 158 0
148 158 0
158 169 0
149 157 0
151 165 0
150 160 0
158 168 0
155 165 0
156 168 0
161 180 0
160 180 0
159 178 0
158 176 0
161 181 0
157 176 0
156 175 0
156 174 0
161 179 0
163 183 0
156 175 0
156 176 0
154 174 0
152 169 0
154 173 0
156 176 0
150 169 0
160 179 0
159 178 0
157 177 0
158 177 0
159 178 0
154 172 0
153 173 0
157 175 0
156 175 0
151 170 0
158 177 0
154 173 0
148 167 0
152 170 0
160 179 0
159 178 0
155 174 0
156 176 0
155 175 0
157 177 0
156 175 0
152 170 0
160 180 0
152 170 0
150 169 0
158 178 0
155 175 0
149 170 0
154 173 0
155 175 0
158 178 0
155 174 0
153 174 0
151 171 0
157 176 0
151 171 0
153 172 0
155 175 0
146 165 0
155 175 0
145 164 0
153 172 0
154 173 0
145 165 0
151 172 0
148 168 0
156 176 0
149 168 0
147 167 0
153 173 0
149 170 0
145 165 0
148 169 0
152 173 0
153 173 0
156 177 0
153 174 0
155 175 0
151 172 0
151 171 0
152 172 0
149 169 0
155 176 0
151 172 0
143 164 0
152 172 0
152 172 0
154 174 0
149 170 0
150 170 0
157 179 0
149 170 0
147 167 0
143 164 0
150 171 0
143 164 0
148 166 0
149 169 0
157 178 0
147 168 0
151 172 0
152 172 0
149 170 0
149 169 0
154 174 0
145 166 0
154 176 0
148 169 0
146 168 0
143 165 0
151 173 0
145 165 0
147 168 0
146 167 0
153 174 0
147 168 0
151 172 0
153 174 0
151 173 0
147 168 0
146 168 0
148 170 0
155 175 0
149 170 0
147 167 0
144 165 0
144 165 0
148 170 0
149 171 0
152 174 0
151 171 0
150 172 0
150 171 0
149 170 0
146 168 0
149 170 0
146 167 0
147 169 0
146 166 0
151 171 0
143 164 0
146 167 0
146 168 0
142 164 0
144 165 0
153 174 0
140 161 0
141 162 0
143 165 0
153 175 0
152 174 0
147 169 0
150 172 0
143 165 0
150 172 0
136 158 0
147 169 0
146 167 0
149 170 0
141 162 0
144 166 0
144 165 0
154 176 0
147 169 0
148 170 0
149 169 0
149 171 0
145 168 0
147 169 0
149 169 0
141 163 0
145 167 0
141 162 0
139 160 0
149 170 0
143 166 0
139 160 0
147 167 0
146 168 0
144 167 0
142 162 0
138 160 0
137 158 0
137 158 0
141 163 0
143 163 0
149 170 0
149 171 0
143 162 0
138 159 0
145 165 0
147 168 0
131 152 0
144 167 0
145 165 0
144 167 0
142 164 0
147 169 0
140 161 0
148 170 0
140 162 0
135 154 0
148 171 0
150 172 0
143 163 0
137 159 0
147 169 0
138 159 0
139 160 0
141 161 0
141 162 0
138 159 0
148 169 0
137 158 0
148 169 0
146 168 0
142 163 0
148 169 0
145 167 0
151 173 0
145 164 0
139 159 0
144 166 0
143 164 0
147 167 0
148 169 0
146 167 0
146 166 0
144 164 0
148 167 0
150 172 0
145 165 0
147 168 0
145 165 0
147 167 0
138 157 0
143 163 0
151 173 0
141 161 0
147 169 0
134 154 0
148 169 0
145 166 0
141 161 0
144 164 0
153 173 0
144 164 0
139 159 0
147 167 0
152 172 0
145 165 0
141 161 0
143 163 0
144 164 0
143 163 0
151 172 0
149 170 0
143 163 0
148 167 0
140 160 0
149 169 0
144 164 0
150 169 0
157 176 0
148 168 0
146 167 0
147 165 0
147 166 0
142 161 0
146 165 0
153 172 0
151 171 0
150 169 0
149 169 0
136 156 0
149 169 0
149 166 0
148 169 0
145 163 0
146 165 0
150 168 0
145 164 0
146 164 0
147 165 0
143 160 0
148 167 0
146 165 0
149 168 0
146 164 0
149 167 0
153 172 0
152 169 0
144 161 0
153 170 0
153 171 0
140 156 0
152 171 0
148 166 0
149 166 0
145 163 0
143 160 0
145 162 0
147 164 0
142 159 0
147 166 0
145 162 0
147 162 0
148 164 0
148 164 0
151 167 0
148 164 0
150 165 0
149 166 0
145 161 0
141 156 0
153 170 0
151 166 0
144 159 0
150 168 0
145 164 0
137 153 0
142 157 0
149 165 0
145 161 0
151 167 0
152 168 0
143 158 0
143 156 0
155 173 0
148 162 0
151 166 0
151 164 0
141 156 0
149 164 0
144 158 0
151 166 0
147 161 0
148 164 0
144 159 0
141 153 0
145 158 0
147 160 0
156 170 0
151 165 0
146 159 0
155 168 0
149 165 0
146 161 0
148 161 0
150 163 0
145 157 0
153 167 0
145 156 0
155 169 0
147 159 0
149 162 0
150 162 0
150 162 0
149 161 0
150 163 0
146 158 0
145 155 0
158 171 0
143 154 0
147 158 0
151 162 0
145 157 0
150 161 0
148 159 0
149 158 0
152 164 0
154 167 0
146 156 0
151 161 0
147 159 0
151 162 0
149 161 0
152 162 0
155 167 0
151 164 0
147 158 0
149 160 0
145 153 0
156 169 0
149 158 0
149 161 0
161 174 0
159 173 0
146 153 0
158 170 0
150 162 0
153 165 0
153 165 0
157 169 0
148 158 0
151 162 0
144 151 0
157 167 0
160 173 0
148 155 0
152 162 0
156 167 0
156 166 0
157 176 0
159 178 0
158 177 0
160 179 0
163 182 0
155 173 0
157 176 0
155 173 0
162 182 0
155 173 0
156 176 0
160 179 0
160 179 0
161 181 0
158 178 0
155 175 0
158 177 0
155 175 0
155 173 0
158 178 0
158 176 0
156 176 0
157 176 0
158 178 0
156 175 0
153 173 0
152 172 0
161 181 0
150 169 0
159 179 0
156 175 0
155 172 0
155 175 0
156 176 0
154 173 0
161 181 0
154 175 0
155 173 0
157 178 0
154 173 0
154 172 0
156 174 0
159 179 0
157 177 0
156 176 0
158 178 0
151 171 0
152 170 0
154 173 0
153 174 0
150 170 0
157 178 0
155 175 0
152 172 0
144 164 0
150 170 0
154 174 0
154 173 0
153 172 0
155 176 0
147 167 0
148 168 0
141 160 0
152 171 0
155 176 0
150 171 0
153 172 0
152 172 0
150 169 0
154 176 0
151 172 0
153 172 0
146 166 0
158 179 0
155 175 0
155 176 0
156 176 0
154 173 0
154 175 0
145 165 0
141 160 0
155 176 0
153 173 0
151 172 0
156 176 0
145 166 0
152 172 0
150 171 0
155 176 0
152 173 0
150 171 0
151 172 0
148 168 0
155 176 0
150 171 0
154 174 0
152 174 0
146 166 0
151 172 0
149 170 0
152 173 0
142 163 0
140 161 0
148 169 0
152 173 0
147 168 0
150 170 0
150 172 0
149 169 0
141 163 0
159 181 0
145 167 0
146 167 0
155 176 0
147 167 0
153 174 0
156 177 0
147 169 0
147 167 0
148 168 0
152 174 0
149 170 0
152 174 0
150 171 0
150 171 0
148 169 0
157 178 0
157 178 0
145 166 0
146 169 0
147 167 0
143 163 0
149 170 0
145 167 0
145 167 0
154 177 0
154 177 0
144 166 0
149 170 0
138 161 0
143 163 0
141 162 0
139 161 0
146 168 0
144 165 0
142 163 0
152 173 0
157 179 0
147 169 0
149 171 0
144 167 0
137 159 0
141 163 0
144 166 0
150 172 0
147 168 0
151 173 0
148 169 0
145 166 0
144 165 0
143 164 0
146 168 0
144 166 0
146 167 0
150 170 0
145 166 0
133 153 0
140 162 0
144 165 0
148 170 0
139 160 0
153 174 0
147 169 0
140 161 0
147 170 0
148 169 0
148 170 0
147 169 0
148 169 0
138 158 0
141 162 0
147 169 0
149 168 0
142 165 0
144 163 0
150 172 0
141 163 0
143 163 0
135 155 0
147 167 0
138 160 0
145 166 0
140 163 0
155 177 0
141 162 0
140 161 0
147 168 0
143 165 0
140 162 0
148 169 0
140 162 0
144 165 0
144 163 0
135 155 0
144 164 0
140 161 0
154 175 0
138 159 0
147 168 0
148 168 0
143 163 0
146 168 0
142 163 0
138 157 0
145 165 0
140 161 0
152 174 0
154 174 0
138 159 0
139 160 0
148 168 0
143 165 0
137 157 0
143 164 0
146 168 0
144 165 0
139 160 0
150 170 0
145 163 0
140 160 0
143 162 0
146 166 0
131 152 0
147 168 0
147 169 0
147 167 0
145 166 0
140 159 0
139 158 0
142 162 0
149 169 0
144 166 0
148 167 0
147 167 0
147 167 0
148 168 0
142 162 0
146 166 0
151 170 0
149 169 0
146 166 0
148 169 0
153 174 0
142 161 0
149 166 0
143 163 0
153 173 0
158 179 0
152 174 0
143 164 0
144 163 0
150 170 0
141 160 0
151 171 0
150 170 0
147 167 0
146 166 0
145 164 0
141 159 0
147 165 0
150 170 0
146 166 0
145 163 0
146 164 0
150 169 0
142 163 0
146 166 0
151 171 0
153 172 0
154 173 0
154 174 0
145 162 0
148 166 0
146 164 0
150 168 0
145 163 0
147 166 0
153 172 0
148 166 0
152 170 0
151 171 0
151 170 0
148 166 0
154 172 0
151 170 0
147 165 0
146 164 0
145 163 0
151 169 0
149 167 0
149 165 0
148 166 0
146 162 0
151 167 0
151 169 0
143 161 0
151 170 0
155 174 0
149 167 0
154 172 0
151 168 0
143 158 0
153 170 0
149 164 0
142 158 0
143 157 0
140 156 0
146 162 0
147 162 0
148 162 0
149 164 0
155 171 0
153 169 0
158 172 0
146 161 0
149 163 0
143 156 0
150 167 0
141 155 0
150 166 0
154 170 0
149 163 0
150 164 0
149 162 0
151 166 0
147 160 0
146 160 0
138 150 0
151 165 0
148 163 0
150 164 0
153 166 0
149 165 0
137 148 0
152 165 0
146 161 0
148 161 0
152 165 0
146 158 0
145 159 0
148 161 0
148 163 0
152 166 0
145 158 0
152 165 0
152 164 0
149 162 0
144 157 0
147 158 0
148 162 0
141 153 0
154 165 0
145 155 0
154 168 0
143 152 0
151 164 0
147 159 0
147 157 0
151 163 0
152 162 0
147 160 0
144 153 0
153 166 0
149 162 0
146 157 0
146 158 0
154 167 0
145 157 0
147 160 0
145 156 0
154 168 0
156 171 0
154 164 0
149 160 0
154 167 0
148 158 0
156 168 0
151 162 0
151 163 0
153 165 0
151 161 0
152 162 0
151 164 0
154 165 0
154 165 0
153 163 0
144 155 0
147 158 0
157 170 0
156 167 0
151 169 0
164 184 0
161 180 0
154 174 0
161 180 0
155 174 0
162 181 0
159 179 0
154 172 0
159 178 0
154 174 0
159 178 0
158 178 0
158 177 0
158 179 0
162 182 0
155 175 0
158 177 0
161 181 0
155 174 0
160 179 0
152 171 0
157 177 0
161 181 0
159 177 0
152 171 0
160 180 0
160 180 0
154 174 0
152 170 0
152 171 0
155 174 0
154 173 0
151 171 0
152 171 0
149 168 0
156 176 0
155 175 0
156 176 0
159 178 0
155 174 0
152 172 0
159 178 0
151 171 0
146 165 0
155 175 0
157 177 0
152 172 0
158 178 0
155 175 0
153 173 0
151 170 0
158 178 0
156 176 0
148 167 0
156 176 0
151 171 0
156 176 0
159 179 0
152 171 0
154 175 0
156 178 0
158 179 0
155 175 0
155 176 0
151 172 0
155 176 0
154 175 0
148 168 0
152 171 0
152 172 0
158 179 0
157 177 0
156 177 0
150 171 0
152 172 0
153 173 0
140 160 0
155 175 0
154 175 0
152 172 0
154 175 0
146 166 0
153 173 0
150 171 0
155 175 0
151 172 0
151 173 0
149 170 0
151 171 0
154 175 0
157 179 0
143 163 0
147 168 0
155 175 0
159 181 0
147 168 0
144 164 0
154 175 0
144 165 0
143 163 0
154 176 0
157 177 0
151 172 0
154 176 0
142 163 0
149 171 0
156 177 0
151 172 0
148 169 0
153 175 0
149 171 0
157 179 0
149 168 0
152 173 0
146 167 0
148 170 0
148 169 0
153 175 0
152 174 0
151 173 0
144 167 0
144 166 0
147 169 0
151 173 0
147 169 0
154 176 0
153 175 0
151 173 0
150 171 0
147 170 0
152 174 0
141 162 0
151 175 0
148 170 0
150 171 0
149 172 0
149 169 0
153 175 0
152 173 0
149 171 0
147 169 0
147 169 0
141 162 0
143 166 0
150 172 0
148 169 0
152 174 0
143 164 0
143 163 0
147 169 0
148 170 0
149 171 0
143 165 0
142 164 0
144 166 0
146 169 0
149 169 0
140 161 0
151 172 0
146 168 0
131 151 0
150 171 0
143 165 0
139 160 0
142 163 0
146 168 0
153 174 0
143 164 0
141 163 0
138 159 0
142 163 0
145 167 0
143 165 0
151 172 0
156 178 0
150 171 0
145 165 0
142 163 0
146 168 0
136 156 0
148 169 0
152 174 0
145 166 0
139 162 0
155 176 0
146 167 0
146 167 0
140 161 0
147 168 0
143 166 0
147 169 0
140 160 0
139 161 0
135 157 0
144 164 0
145 163 0
150 173 0
147 169 0
147 168 0
144 164 0
141 161 0
145 166 0
138 159 0
150 172 0
137 158 0
147 169 0
145 167 0
145 166 0
151 172 0
142 164 0
146 167 0
144 165 0
144 166 0
150 171 0
150 170 0
142 164 0
150 170 0
147 169 0
152 173 0
149 170 0
146 167 0
139 160 0
147 167 0
143 162 0
137 158 0
145 165 0
143 165 0
145 166 0
152 173 0
155 176 0
144 165 0
145 165 0
151 172 0
146 166 0
142 162 0
140 160 0
151 172 0
138 158 0
146 167 0
149 169 0
145 166 0
145 163 0
147 166 0
149 168 0
144 163 0
145 165 0
152 172 0
138 157 0
141 162 0
146 165 0
148 168 0
143 163 0
153 172 0
151 170 0
143 163 0
147 166 0
145 165 0
150 170 0
143 161 0
144 164 0
150 171 0
146 167 0
150 171 0
145 164 0
147 166 0
155 173 0
146 166 0
154 176 0
145 164 0
148 167 0
144 162 0
154 174 0
146 165 0
149 169 0
141 161 0
145 163 0
138 157 0
143 161 0
143 162 0
154 173 0
150 170 0
147 166 0
149 167 0
150 168 0
152 171 0
152 170 0
147 166 0
148 168 0
149 167 0
149 166 0
154 174 0
143 161 0
150 168 0
151 170 0
158 177 0
152 169 0
155 172 0
151 168 0
145 163 0
144 162 0
146 163 0
148 166 0
151 169 0
146 165 0
148 166 0
155 170 0
145 161 0
150 169 0
154 170 0
149 166 0
142 158 0
149 166 0
152 169 0
144 160 0
150 168 0
154 171 0
146 163 0
155 171 0
143 160 0
150 166 0
151 167 0
145 163 0
151 167 0
149 168 0
149 166 0
147 163 0
153 168 0
142 159 0
147 164 0
145 161 0
153 169 0
149 165 0
142 155 0
150 165 0
149 164 0
147 159 0
149 164 0
148 162 0
149 164 0
152 165 0
137 150 0
154 170 0
148 163 0
147 162 0
150 162 0
157 173 0
142 157 0
146 161 0
153 168 0
155 168 0
149 161 0
146 157 0
143 155 0
151 165 0
143 154 0
147 157 0
150 163 0
148 162 0
150 163 0
150 162 0
146 159 0
151 163 0
147 158 0
151 164 0
159 173 0
148 155 0
159 172 0
152 166 0
143 154 0
154 167 0
150 162 0
151 163 0
152 161 0
151 161 0
146 155 0
149 161 0
149 162 0
152 163 0
153 163 0
150 162 0
150 163 0
153 164 0
151 162 0
156 170 0
148 160 0
152 162 0
157 169 0
154 164 0
153 166 0
156 169 0
158 170 0
154 165 0
162 174 0
152 160 0
156 170 0
152 162 0
151 162 0
153 163 0
156 165 0
153 172 0
160 179 0
154 174 0
160 180 0
160 179 0
161 180 0
158 178 0
163 182 0
157 176 0
154 173 0
158 177 0
162 182 0
160 180 0
152 171 0
159 178 0
155 175 0
157 176 0
159 178 0
158 178 0
153 172 0
156 174 0
151 171 0
153 173 0
154 174 0
153 172 0
154 173 0
155 174 0
161 181 0
156 176 0
158 177 0
155 174 0
154 173 0
158 178 0
159 179 0
152 172 0
156 176 0
149 169 0
151 170 0
160 180 0
148 168 0
151 170 0
152 173 0
159 179 0
151 170 0
151 172 0
151 170 0
152 171 0
155 175 0
156 177 0
152 172 0
153 173 0
152 172 0
149 169 0
152 173 0
153 174 0
152 172 0
152 171 0
148 168 0
149 169 0
148 168 0
152 171 0
154 175 0
154 174 0
159 180 0
149 168 0
152 172 0
148 168 0
155 176 0
148 168 0
152 173 0
140 159 0
152 173 0
155 176 0
153 174 0
153 173 0
152 172 0
153 174 0
152 172 0
152 172 0
143 162 0
151 172 0
156 178 0
150 171 0
155 177 0
154 174 0
145 166 0
154 175 0
150 171 0
148 169 0
146 167 0
145 167 0
150 173 0
155 176 0
151 171 0
151 172 0
152 172 0
143 164 0
148 168 0
153 174 0
153 175 0
158 179 0
153 175 0
148 169 0
149 169 0
148 169 0
143 163 0
156 177 0
145 167 0
153 173 0
151 171 0
147 169 0
153 175 0
157 179 0
150 172 0
150 170 0
145 166 0
156 178 0
146 167 0
150 171 0
144 164 0
149 170 0
156 178 0
146 168 0
148 169 0
152 174 0
146 166 0
148 170 0
143 164 0
149 172 0
147 169 0
152 174 0
150 170 0
146 168 0
147 167 0
150 171 0
153 175 0
157 181 0
150 172 0
143 166 0
152 174 0
146 167 0
150 171 0
147 168 0
147 169 0
149 170 0
144 165 0
153 175 0
149 171 0
153 175 0
142 162 0
150 172 0
145 166 0
149 171 0
146 168 0
149 171 0
148 170 0
147 167 0
154 175 0
148 170 0
148 170 0
147 168 0
146 168 0
150 172 0
149 170 0
142 163 0
142 163 0
148 169 0
147 168 0
144 165 0
151 172 0
153 175 0
147 169 0
143 166 0
137 159 0
145 165 0
146 169 0
146 168 0
139 161 0
149 171 0
136 159 0
145 165 0
138 159 0
149 170 0
146 167 0
145 166 0
151 174 0
142 163 0
149 169 0
154 174 0
146 168 0
143 164 0
146 166 0
149 171 0
145 166 0
143 165 0
146 167 0
153 176 0
142 163 0
148 168 0
152 174 0
154 177 0
148 170 0
151 172 0
146 167 0
149 170 0
143 165 0
150 171 0
143 165 0
145 166 0
148 169 0
140 162 0
145 165 0
148 169 0
138 158 0
141 161 0
136 156 0
140 160 0
151 172 0
138 158 0
149 172 0
139 159 0
147 168 0
146 167 0
144 164 0
147 169 0
144 164 0
145 167 0
143 162 0
148 168 0
145 165 0
149 171 0
147 167 0
143 165 0
141 163 0
142 162 0
138 158 0
143 165 0
146 168 0
155 175 0
134 152 0
153 174 0
150 172 0
150 170 0
140 160 0
147 166 0
143 163 0
147 167 0
148 167 0
147 169 0
144 164 0
143 163 0
147 166 0
147 168 0
151 170 0
149 169 0
151 171 0
140 160 0
135 153 0
140 161 0
143 162 0
143 162 0
143 161 0
149 167 0
149 170 0
144 163 0
142 160 0
148 169 0
148 166 0
145 164 0
141 159 0
156 176 0
147 166 0
148 164 0
148 168 0
153 172 0
149 168 0
151 171 0
150 170 0
145 164 0
143 162 0
147 167 0
148 166 0
148 166 0
150 168 0
148 166 0
149 167 0
150 170 0
150 167 0
147 167 0
147 165 0
150 168 0
148 167 0
136 154 0
146 163 0
151 169 0
150 168 0
139 156 0
152 172 0
145 162 0
152 170 0
143 160 0
150 166 0
141 157 0
148 166 0
143 160 0
146 163 0
146 162 0
151 169 0
148 166 0
146 163 0
148 166 0
153 171 0
151 168 0
152 167 0
145 163 0
143 158 0
144 159 0
145 162 0
142 155 0
153 169 0
147 163 0
145 162 0
149 166 0
146 161 0
151 168 0
151 167 0
147 163 0
148 163 0
149 167 0
142 157 0
144 158 0
149 162 0
151 167 0
150 165 0
145 160 0
150 166 0
154 169 0
146 158 0
159 174 0
152 169 0
140 154 0
151 167 0
145 162 0
143 154 0
153 167 0
141 153 0
146 156 0
158 172 0
149 161 0
160 174 0
142 155 0
154 170 0
149 160 0
155 169 0
149 164 0
150 165 0
149 160 0
143 156 0
151 167 0
151 163 0
152 164 0
147 159 0
148 160 0
152 164 0
152 164 0
147 159 0
149 161 0
150 162 0
149 161 0
148 158 0
153 168 0
147 158 0
149 162 0
147 162 0
147 160 0
152 164 0
156 168 0
146 154 0
151 164 0
146 156 0
154 168 0
151 162 0
153 163 0
159 173 0
149 160 0
155 167 0
155 169 0
150 161 0
147 160 0
150 161 0
156 168 0
150 160 0
149 160 0
147 156 0
153 165 0
154 166 0
148 160 0
158 169 0
152 166 0
156 170 0
161 181 0
156 175 0
160 180 0
159 179 0
158 177 0
161 180 0
165 184 0
158 176 0
159 179 0
157 176 0
154 172 0
161 182 0
158 177 0
157 177 0
154 174 0
157 177 0
157 176 0
157 178 0
157 176 0
159 179 0
154 174 0
159 178 0
157 176 0
151 171 0
153 173 0
153 172 0
159 178 0
152 171 0
152 171 0
153 173 0
156 176 0
151 170 0
158 178 0
152 172 0
154 175 0
157 178 0
154 174 0
157 177 0
156 178 0
150 170 0
160 180 0
153 172 0
155 175 0
154 174 0
148 168 0
153 172 0
152 171 0
154 175 0
153 174 0
148 169 0
154 173 0
158 178 0
155 175 0
152 171 0
157 178 0
155 176 0
153 173 0
149 169 0
153 173 0
155 175 0
158 179 0
156 176 0
155 176 0
151 172 0
150 170 0
147 167 0
149 168 0
157 177 0
155 176 0
150 170 0
152 174 0
147 168 0
153 174 0
154 177 0
145 166 0
149 170 0
152 174 0
146 167 0
146 168 0
153 175 0
143 164 0
153 173 0
150 170 0
154 175 0
144 166 0
158 180 0
151 172 0
141 162 0
150 171 0
156 176 0
153 174 0
152 172 0
156 177 0
157 178 0
151 172 0
143 163 0
150 171 0
153 175 0
154 176 0
147 168 0
153 174 0
152 173 0
155 178 0
157 178 0
154 176 0
152 174 0
151 171 0
149 170 0
149 171 0
145 165 0
144 165 0
150 170 0
154 175 0
156 177 0
149 171 0
150 172 0
147 168 0
150 171 0
157 179 0
142 163 0
152 173 0
155 176 0
148 170 0
148 170 0
146 168 0
151 173 0
151 173 0
148 171 0
145 166 0
150 170 0
153 175 0
148 169 0
146 167 0
148 169 0
145 166 0
137 158 0
148 171 0
149 170 0
152 174 0
147 168 0
145 168 0
155 176 0
145 167 0
146 168 0
149 169 0
149 171 0
144 165 0
150 171 0
146 169 0
145 165 0
151 173 0
153 176 0
146 168 0
148 170 0
146 167 0
143 166 0
153 175 0
150 173 0
152 176 0
144 167 0
151 172 0
142 164 0
150 172 0
148 168 0
151 173 0
149 170 0
151 170 0
141 162 0
140 161 0
139 161 0
154 176 0
145 168 0
148 169 0
146 167 0
148 169 0
143 164 0
144 166 0
153 174 0
144 166 0
133 154 0
139 159 0
147 168 0
150 171 0
146 168 0
137 159 0
147 167 0
138 159 0
146 168 0
146 168 0
147 168 0
143 164 0
147 167 0
147 168 0
150 172 0
146 166 0
146 169 0
148 169 0
147 167 0
142 164 0
152 174 0
145 167 0
149 171 0
146 165 0
144 164 0
148 168 0
146 166 0
156 179 0
146 167 0
147 169 0
147 169 0
140 161 0
142 164 0
145 165 0
144 166 0
140 161 0
149 170 0
141 161 0
149 171 0
147 169 0
147 168 0
153 173 0
147 169 0
146 166 0
145 166 0
152 174 0
153 173 0
147 168 0
147 166 0
146 167 0
154 176 0
150 171 0
146 166 0
148 169 0
149 167 0
148 168 0
142 163 0
143 164 0
140 162 0
148 169 0
143 162 0
143 163 0
146 167 0
143 164 0
143 164 0
153 173 0
144 164 0
151 171 0
139 157 0
146 165 0
146 165 0
143 163 0
141 161 0
145 165 0
145 166 0
141 161 0
146 166 0
146 164 0
153 173 0
146 168 0
144 163 0
145 165 0
152 171 0
142 162 0
150 171 0
145 164 0
151 169 0
148 165 0
150 168 0
143 163 0
147 167 0
151 172 0
148 167 0
142 161 0
148 169 0
144 162 0
145 165 0
148 166 0
143 165 0
155 175 0
143 164 0
147 166 0
140 159 0
149 167 0
142 161 0
145 163 0
143 159 0
144 161 0
152 170 0
143 163 0
155 175 0
149 167 0
151 168 0
142 159 0
154 173 0
146 164 0
150 167 0
144 160 0
149 168 0
149 169 0
153 171 0
153 172 0
151 168 0
151 170 0
141 158 0
141 157 0
151 169 0
152 170 0
153 170 0
153 171 0
145 163 0
148 166 0
149 167 0
148 163 0
151 168 0
154 170 0
151 168 0
145 160 0
158 174 0
143 162 0
148 165 0
154 170 0
147 163 0
143 161 0
153 167 0
146 161 0
152 170 0
154 170 0
153 172 0
152 168 0
152 168 0
150 166 0
143 159 0
154 170 0
153 171 0
150 166 0
145 159 0
142 156 0
146 160 0
152 165 0
151 168 0
150 165 0
143 156 0
151 165 0
157 173 0
147 161 0
153 165 0
155 167 0
144 156 0
150 163 0
143 155 0
156 171 0
147 159 0
153 166 0
154 170 0
154 169 0
147 160 0
149 162 0
143 158 0
145 158 0
152 166 0
151 167 0
142 155 0
146 159 0
154 167 0
144 153 0
149 160 0
150 164 0
151 164 0
159 174 0
145 156 0
148 162 0
147 159 0
147 158 0
148 160 0
149 163 0
154 166 0
158 172 0
147 157 0
152 163 0
152 164 0
153 165 0
153 164 0
153 165 0
157 170 0
147 159 0
153 165 0
152 164 0
158 172 0
150 160 0
150 162 0
154 164 0
157 169 0
160 173 0
156 166 0
152 163 0
153 164 0
159 171 0
151 163 0
157 170 0
152 162 0
160 179 0
151 170 0
157 176 0
160 180 0
163 183 0
155 174 0
158 178 0
158 177 0
155 175 0
158 178 0
160 180 0
155 174 0
160 179 0
156 176 0
152 173 0
160 180 0
157 176 0
156 176 0
155 175 0
155 174 0
156 176 0
151 171 0
159 179 0
159 179 0
158 178 0
153 173 0
152 171 0
157 177 0
158 177 0
157 177 0
158 178 0
154 174 0
156 176 0
157 177 0
152 172 0
158 177 0
156 176 0
157 178 0
154 174 0
156 177 0
149 170 0
154 173 0
156 177 0
157 178 0
158 179 0
148 169 0
155 175 0
156 175 0
155 175 0
152 173 0
156 177 0
158 178 0
150 169 0
154 174 0
146 166 0
152 173 0
159 179 0
149 169 0
154 175 0
154 175 0
153 174 0
159 181 0
152 172 0
148 168 0
151 172 0
156 176 0
145 167 0
151 171 0
153 173 0
153 173 0
158 179 0
148 168 0
156 177 0
158 180 0
148 169 0
153 174 0
152 173 0
153 173 0
152 175 0
154 175 0
149 170 0
157 178 0
156 176 0
158 180 0
149 171 0
153 175 0
149 170 0
149 169 0
157 179 0
150 170 0
145 166 0
146 166 0
149 169 0
160 182 0
152 173 0
158 180 0
155 174 0
151 171 0
151 171 0
146 167 0
148 169 0
149 171 0
142 163 0
151 172 0
155 176 0
151 172 0
148 170 0
148 168 0
154 174 0
150 171 0
147 168 0
153 175 0
148 169 0
148 169 0
151 172 0
151 172 0
149 171 0
146 168 0
154 176 0
151 172 0
150 171 0
152 173 0
150 171 0
153 175 0
148 170 0
155 178 0
152 173 0
146 168 0
149 171 0
154 176 0
143 164 0
147 168 0
153 174 0
147 169 0
151 172 0
147 169 0
148 170 0
148 171 0
152 174 0
146 168 0
154 176 0
150 172 0
157 179 0
149 171 0
154 177 0
149 170 0
144 167 0
146 167 0
145 166 0
143 164 0
148 169 0
148 168 0
153 174 0
152 174 0
147 168 0
149 170 0
151 172 0
146 168 0
146 167 0
148 170 0
148 169 0
145 166 0
152 173 0
148 170 0
142 164 0
152 173 0
152 174 0
149 170 0
145 167 0
140 161 0
149 171 0
146 168 0
144 166 0
149 171 0
144 166 0
150 172 0
150 173 0
144 165 0
150 172 0
146 168 0
154 177 0
144 164 0
146 168 0
148 170 0
144 165 0
152 174 0
146 168 0
149 171 0
141 162 0
149 171 0
143 165 0
146 167 0
148 168 0
153 174 0
136 158 0
143 165 0
157 180 0
150 170 0
151 172 0
156 178 0
129 152 0
143 163 0
139 160 0
147 168 0
151 172 0
151 173 0
142 163 0
146 167 0
142 165 0
145 167 0
150 170 0
150 173 0
146 169 0
148 166 0
151 172 0
136 157 0
147 168 0
136 155 0
150 172 0
148 169 0
154 176 0
150 171 0
147 167 0
141 161 0
147 167 0
145 167 0
146 165 0
147 170 0
145 166 0
146 167 0
153 174 0
149 170 0
153 174 0
138 159 0
152 173 0
147 168 0
147 167 0
141 162 0
146 168 0
144 165 0
151 172 0
147 167 0
155 176 0
148 169 0
149 170 0
147 169 0
149 169 0
152 173 0
147 168 0
139 159 0
153 173 0
146 166 0
146 167 0
150 170 0
142 160 0
147 168 0
154 175 0
149 169 0
145 165 0
152 173 0
153 173 0
142 161 0
150 171 0
146 167 0
147 167 0
143 163 0
144 165 0
154 175 0
150 172 0
145 161 0
145 165 0
150 168 0
148 167 0
147 167 0
144 163 0
149 167 0
148 166 0
143 162 0
148 169 0
146 165 0
146 165 0
141 161 0
149 167 0
147 165 0
148 166 0
150 170 0
142 162 0
150 169 0
154 172 0
143 159 0
150 169 0
150 168 0
153 170 0
145 161 0
155 174 0
148 167 0
147 165 0
147 166 0
140 156 0
150 169 0
144 163 0
144 161 0
145 165 0
145 163 0
148 167 0
149 167 0
152 170 0
151 169 0
155 175 0
151 169 0
149 168 0
155 172 0
147 161 0
146 163 0
146 163 0
137 154 0
142 158 0
152 168 0
150 168 0
154 170 0
155 170 0
151 168 0
142 159 0
153 170 0
150 166 0
149 167 0
151 168 0
147 160 0
149 167 0
141 157 0
156 171 0
150 166 0
155 172 0
152 167 0
148 161 0
157 173 0
157 174 0
159 177 0
145 158 0
148 164 0
152 166 0
138 153 0
156 173 0
145 160 0
151 165 0
152 165 0
144 156 0
151 166 0
142 157 0
148 163 0
147 161 0
154 170 0
156 170 0
150 163 0
146 160 0
148 162 0
145 161 0
150 166 0
148 160 0
152 166 0
141 154 0
154 166 0
153 167 0
152 166 0
145 162 0
155 168 0
140 152 0
153 167 0
156 169 0
150 167 0
148 160 0
147 160 0
154 166 0
150 164 0
151 165 0
149 162 0
150 162 0
153 166 0
149 160 0
147 160 0
150 163 0
156 167 0
149 162 0
156 169 0
152 162 0
158 172 0
152 163 0
153 166 0
149 163 0
152 163 0
151 163 0
154 166 0
153 165 0
154 168 0
153 165 0
149 160 0
152 163 0
152 165 0
151 162 0
155 167 0
156 175 0
162 182 0
158 178 0
160 181 0
158 178 0
155 173 0
161 181 0
157 177 0
160 180 0
159 178 0
157 177 0
162 181 0
160 180 0
161 181 0
160 181 0
155 174 0
154 174 0
156 176 0
151 171 0
161 180 0
161 181 0
159 178 0
161 181 0
156 176 0
156 175 0
153 173 0
158 177 0
159 180 0
157 176 0
156 176 0
156 176 0
152 172 0
162 181 0
157 178 0
160 181 0
153 174 0
163 183 0
159 180 0
157 176 0
152 172 0
151 172 0
159 180 0
153 172 0
160 180 0
161 181 0
158 178 0
160 180 0
153 174 0
157 177 0
151 171 0
151 171 0
150 169 0
158 178 0
160 181 0
155 175 0
158 179 0
159 179 0
159 179 0
151 173 0
152 172 0
148 169 0
151 171 0
158 179 0
147 167 0
149 169 0
149 170 0
147 168 0
151 172 0
150 171 0
149 169 0
154 174 0
153 173 0
155 175 0
144 165 0
152 172 0
150 171 0
149 169 0
150 170 0
150 171 0
164 186 0
158 180 0
155 176 0
155 175 0
152 174 0
155 176 0
152 174 0
153 175 0
146 167 0
157 178 0
158 180 0
153 174 0
156 176 0
149 171 0
144 164 0
152 174 0
153 175 0
146 168 0
149 171 0
150 173 0
150 171 0
147 169 0
151 173 0
151 172 0
144 166 0
154 175 0
144 165 0
151 173 0
150 172 0
150 172 0
147 168 0
147 168 0
152 173 0
145 166 0
148 169 0
146 168 0
148 169 0
148 168 0
146 167 0
152 173 0
153 177 0
149 171 0
147 168 0
153 175 0
152 172 0
145 166 0
149 171 0
147 169 0
150 173 0
150 171 0
147 169 0
156 178 0
142 164 0
158 179 0
149 171 0
149 172 0
155 178 0
147 169 0
145 167 0
150 172 0
155 176 0
147 169 0
154 175 0
145 167 0
146 168 0
146 168 0
152 174 0
147 169 0
150 171 0
152 174 0
155 176 0
147 169 0
145 168 0
145 166 0
140 161 0
138 160 0
154 176 0
136 158 0
145 167 0
149 171 0
145 166 0
144 167 0
142 163 0
149 170 0
141 163 0
147 169 0
151 174 0
140 162 0
147 168 0
149 171 0
151 173 0
142 162 0
143 164 0
148 169 0
143 164 0
147 170 0
144 167 0
147 168 0
148 170 0
152 173 0
157 179 0
145 166 0
147 167 0
147 170 0
142 164 0
149 171 0
146 167 0
149 172 0
145 166 0
145 164 0
156 178 0
148 170 0
141 162 0
157 180 0
148 170 0
149 172 0
145 166 0
145 168 0
152 173 0
151 173 0
141 161 0
143 165 0
147 169 0
136 156 0
146 167 0
140 162 0
157 179 0
136 157 0
143 164 0
151 173 0
147 169 0
151 173 0
151 174 0
140 161 0
152 173 0
144 164 0
137 157 0
152 173 0
146 168 0
141 161 0
151 173 0
144 165 0
139 160 0
141 162 0
143 165 0
142 163 0
141 161 0
140 161 0
147 168 0
148 168 0
150 171 0
150 171 0
147 167 0
138 157 0
143 165 0
151 169 0
150 171 0
145 167 0
151 172 0
144 165 0
153 174 0
150 171 0
142 162 0
138 158 0
144 163 0
147 166 0
146 166 0
153 174 0
141 162 0
151 170 0
153 173 0
149 170 0
140 159 0
153 175 0
142 162 0
147 170 0
146 168 0
153 172 0
156 178 0
141 160 0
154 175 0
148 167 0
146 166 0
145 165 0
154 175 0
139 157 0
153 174 0
147 166 0
139 160 0
143 164 0
149 168 0
136 155 0
147 165 0
146 166 0
154 174 0
147 166 0
139 156 0
145 164 0
145 163 0
149 170 0
149 167 0
153 173 0
152 169 0
150 168 0
152 172 0
146 163 0
152 171 0
145 161 0
149 167 0
157 177 0
149 168 0
153 171 0
149 169 0
152 171 0
153 171 0
148 166 0
151 170 0
148 165 0
154 174 0
140 156 0
151 170 0
152 170 0
149 167 0
147 166 0
155 175 0
145 163 0
148 165 0
148 164 0
145 161 0
153 173 0
147 164 0
148 167 0
148 165 0
151 168 0
138 155 0
151 167 0
147 165 0
148 166 0
149 168 0
147 165 0
151 169 0
151 164 0
144 161 0
139 155 0
154 170 0
150 167 0
144 161 0
147 162 0
149 166 0
149 166 0
155 172 0
158 174 0
152 169 0
150 165 0
144 158 0
152 166 0
150 166 0
150 166 0
152 168 0
149 165 0
144 160 0
159 173 0
147 162 0
150 165 0
148 162 0
155 170 0
152 168 0
147 162 0
143 158 0
155 171 0
151 166 0
149 162 0
150 165 0
157 172 0
148 159 0
150 164 0
146 159 0
148 163 0
155 169 0
154 170 0
155 169 0
147 161 0
150 163 0
144 156 0
155 169 0
156 171 0
153 167 0
146 158 0
149 161 0
150 163 0
149 161 0
152 164 0
150 165 0
149 160 0
152 165 0
154 167 0
145 159 0
150 165 0
151 162 0
148 163 0
148 161 0
147 160 0
150 163 0
149 162 0
153 167 0
150 164 0
150 163 0
150 162 0
153 166 0
151 164 0
144 156 0
147 158 0
153 165 0
153 165 0
156 170 0
154 166 0
149 158 0
155 168 0
150 163 0
154 167 0
150 161 0
163 184 0
153 173 0
158 178 0
158 177 0
154 173 0
158 178 0
162 182 0
158 179 0
160 180 0
159 178 0
155 176 0
160 179 0
159 179 0
161 182 0
161 182 0
159 179 0
162 182 0
152 172 0
159 178 0
154 174 0
159 178 0
156 176 0
159 179 0
160 180 0
155 175 0
160 181 0
154 174 0
153 174 0
151 171 0
152 171 0
155 175 0
154 173 0
156 176 0
156 175 0
155 176 0
154 175 0
150 169 0
152 172 0
149 169 0
151 170 0
158 178 0
152 172 0
158 180 0
153 172 0
153 173 0
156 175 0
154 175 0
158 178 0
154 175 0
153 173 0
159 180 0
155 175 0
153 174 0
155 175 0
153 174 0
153 174 0
158 179 0
160 181 0
156 177 0
153 173 0
155 176 0
157 178 0
151 171 0
151 172 0
153 173 0
154 176 0
150 170 0
147 166 0
156 178 0
158 179 0
152 172 0
150 171 0
145 165 0
148 169 0
145 166 0
156 177 0
153 175 0
154 176 0
154 176 0
158 179 0
148 170 0
152 173 0
146 168 0
156 177 0
149 169 0
151 173 0
153 174 0
155 176 0
152 172 0
153 174 0
157 178 0
156 177 0
152 174 0
143 164 0
150 172 0
150 172 0
155 177 0
152 174 0
152 173 0
157 179 0
150 172 0
153 174 0
153 175 0
148 169 0
149 170 0
151 173 0
156 177 0
158 181 0
153 174 0
151 174 0
150 171 0
151 174 0
151 172 0
152 174 0
147 168 0
153 175 0
156 179 0
146 167 0
145 166 0
152 174 0
143 165 0
147 169 0
153 176 0
157 177 0
141 163 0
150 171 0
144 164 0
145 166 0
153 174 0
146 169 0
152 174 0
148 169 0
149 171 0
145 166 0
151 172 0
149 171 0
153 173 0
143 166 0
151 173 0
151 172 0
145 166 0
151 174 0
150 171 0
149 171 0
153 176 0
147 168 0
153 174 0
153 175 0
143 164 0
141 164 0
140 160 0
142 163 0
151 173 0
143 163 0
139 160 0
150 172 0
146 167 0
147 169 0
151 173 0
152 173 0
143 165 0
147 168 0
149 172 0
148 170 0
149 171 0
151 171 0
151 172 0
150 173 0
153 174 0
152 173 0
153 176 0
145 167 0
146 168 0
150 171 0
147 168 0
147 167 0
152 174 0
149 171 0
149 170 0
147 170 0
152 175 0
146 168 0
145 167 0
148 169 0
142 162 0
155 177 0
144 166 0
153 174 0
153 174 0
146 167 0
143 163 0
152 173 0
146 168 0
147 166 0
146 168 0
144 166 0
151 173 0
147 168 0
148 170 0
150 172 0
151 171 0
135 156 0
153 173 0
145 167 0
154 176 0
151 172 0
145 165 0
146 168 0
143 163 0
143 165 0
146 167 0
138 159 0
151 173 0
145 167 0
144 166 0
151 172 0
152 174 0
147 168 0
154 175 0
143 164 0
144 163 0
149 169 0
147 167 0
149 169 0
144 164 0
154 175 0
142 163 0
157 177 0
155 176 0
145 167 0
150 172 0
144 166 0
144 165 0
147 168 0
138 159 0
148 168 0
151 171 0
149 168 0
146 167 0
138 159 0
150 172 0
149 169 0
145 166 0
143 165 0
143 163 0
152 172 0
149 169 0
151 171 0
148 169 0
147 167 0
148 166 0
146 167 0
139 158 0
150 170 0
147 165 0
148 169 0
153 173 0
149 169 0
140 159 0
147 167 0
151 172 0
143 162 0
149 169 0
146 167 0
151 172 0
153 173 0
152 172 0
150 170 0
153 173 0
150 168 0
149 169 0
145 165 0
150 171 0
151 171 0
145 164 0
152 172 0
155 176 0
152 171 0
150 170 0
148 167 0
153 172 0
152 171 0
142 160 0
149 168 0
149 168 0
151 170 0
147 168 0
147 165 0
153 172 0
150 169 0
150 168 0
142 162 0
150 167 0
144 162 0
155 175 0
152 172 0
145 164 0
149 165 0
156 173 0
148 166 0
153 173 0
145 164 0
137 153 0
147 165 0
153 172 0
153 169 0
152 170 0
148 167 0
150 168 0
151 170 0
150 169 0
154 174 0
146 162 0
152 169 0
149 166 0
146 161 0
151 168 0
147 163 0
148 167 0
148 165 0
155 172 0
155 173 0
149 166 0
148 165 0
147 163 0
146 163 0
154 170 0
150 169 0
152 167 0
150 163 0
154 172 0
150 167 0
147 164 0
148 163 0
144 162 0
155 168 0
151 165 0
147 161 0
154 171 0
158 176 0
152 168 0
144 158 0
148 165 0
155 170 0
150 167 0
150 167 0
153 169 0
150 165 0
154 169 0
154 170 0
153 168 0
151 164 0
155 170 0
143 158 0
149 163 0
150 163 0
149 163 0
146 159 0
150 162 0
150 166 0
153 170 0
144 157 0
149 163 0
157 170 0
151 166 0
156 170 0
156 171 0
157 173 0
156 171 0
145 159 0
152 166 0
157 170 0
157 171 0
157 170 0
153 167 0
152 166 0
152 165 0
154 167 0
156 169 0
149 163 0
149 163 0
152 163 0
155 167 0
158 171 0
155 169 0
153 166 0
153 166 0
153 166 0
151 164 0
150 164 0
144 157 0
147 160 0
152 164 0
151 164 0
152 165 0
149 160 0
159 172 0
152 164 0
155 168 0
161 170 0
158 178 0
155 175 0
163 182 0
159 177 0
161 182 0
156 176 0
159 179 0
157 176 0
156 175 0
156 175 0
161 181 0
156 176 0
155 175 0
161 182 0
156 176 0
159 179 0
153 173 0
155 175 0
148 167 0
159 180 0
159 179 0
158 180 0
157 179 0
166 185 0
159 179 0
153 173 0
156 175 0
159 180 0
159 179 0
157 177 0
157 177 0
154 174 0
153 174 0
154 174 0
158 178 0
154 174 0
153 173 0
156 176 0
157 179 0
156 177 0
151 171 0
156 176 0
155 175 0
158 178 0
154 174 0
160 180 0
155 176 0
158 179 0
156 177 0
148 168 0
158 179 0
160 179 0
150 171 0
154 175 0
149 170 0
155 175 0
149 169 0
160 180 0
153 174 0
150 171 0
158 179 0
149 170 0
154 174 0
154 175 0
158 180 0
148 169 0
157 178 0
153 175 0
156 178 0
152 173 0
148 169 0
153 174 0
153 174 0
154 174 0
146 166 0
154 176 0
156 176 0
156 178 0
158 180 0
152 173 0
157 179 0
157 179 0
156 178 0
153 174 0
151 172 0
148 170 0
148 169 0
151 173 0
154 176 0
149 170 0
147 168 0
148 169 0
157 179 0
157 179 0
153 174 0
153 175 0
157 177 0
149 169 0
147 168 0
143 163 0
150 172 0
150 172 0
155 176 0
154 176 0
155 176 0
155 177 0
155 176 0
151 173 0
155 177 0
153 175 0
149 170 0
156 178 0
149 171 0
151 173 0
149 170 0
151 172 0
152 174 0
149 170 0
151 173 0
156 179 0
140 160 0
156 178 0
158 179 0
149 171 0
150 171 0
153 175 0
146 168 0
145 166 0
153 175 0
149 171 0
154 176 0
152 174 0
152 175 0
151 172 0
146 167 0
152 174 0
153 175 0
151 173 0
150 172 0
150 172 0
145 167 0
152 172 0
154 176 0
156 178 0
143 164 0
152 174 0
153 174 0
142 165 0
152 174 0
145 168 0
146 167 0
144 166 0
160 182 0
154 175 0
151 173 0
149 172 0
147 168 0
147 168 0
144 166 0
152 173 0
146 167 0
144 165 0
138 160 0
147 168 0
148 170 0
149 172 0
153 175 0
150 172 0
147 169 0
132 151 0
148 169 0
146 166 0
152 174 0
152 174 0
150 172 0
152 174 0
146 168 0
143 164 0
145 166 0
148 169 0
143 164 0
144 164 0
151 173 0
154 177 0
148 170 0
150 172 0
146 169 0
148 170 0
146 166 0
150 173 0
143 163 0
147 169 0
150 173 0
149 172 0
138 159 0
153 174 0
150 170 0
150 171 0
150 172 0
152 174 0
147 167 0
144 165 0
144 166 0
147 169 0
148 169 0
146 167 0
148 170 0
147 168 0
148 171 0
154 175 0
140 161 0
145 167 0
144 165 0
152 174 0
150 170 0
151 172 0
146 166 0
155 176 0
145 167 0
148 169 0
146 167 0
147 168 0
144 166 0
145 166 0
150 172 0
147 168 0
147 169 0
145 167 0
147 169 0
154 173 0
148 169 0
154 175 0
146 166 0
145 166 0
141 162 0
141 161 0
151 173 0
153 174 0
142 162 0
150 170 0
153 173 0
156 176 0
154 175 0
151 171 0
145 167 0
148 168 0
154 176 0
146 168 0
156 177 0
143 163 0
150 170 0
152 172 0
148 168 0
150 172 0
145 164 0
149 169 0
151 172 0
150 169 0
150 173 0
147 167 0
145 166 0
151 171 0
145 165 0
148 168 0
145 166 0
147 167 0
150 170 0
153 172 0
149 169 0
148 167 0
155 176 0
148 168 0
149 169 0
151 171 0
155 173 0
151 169 0
147 167 0
148 168 0
153 173 0
150 171 0
144 162 0
149 169 0
154 172 0
148 166 0
140 159 0
155 175 0
149 169 0
149 169 0
151 171 0
150 168 0
152 172 0
146 165 0
148 169 0
150 169 0
145 166 0
148 167 0
148 165 0
147 165 0
147 164 0
149 169 0
151 170 0
152 168 0
152 168 0
148 167 0
153 169 0
154 172 0
149 169 0
149 166 0
152 170 0
142 158 0
149 167 0
151 168 0
143 162 0
151 167 0
149 168 0
151 169 0
151 168 0
152 170 0
151 169 0
150 168 0
143 161 0
148 164 0
155 172 0
155 172 0
152 167 0
148 165 0
157 174 0
149 165 0
150 166 0
153 169 0
154 173 0
143 160 0
147 163 0
150 168 0
151 167 0
151 165 0
145 161 0
152 170 0
151 166 0
147 161 0
151 168 0
149 164 0
152 169 0
155 171 0
151 165 0
150 166 0
152 168 0
150 165 0
150 165 0
156 172 0
151 166 0
157 173 0
148 161 0
153 169 0
155 171 0
153 168 0
152 166 0
151 165 0
148 162 0
143 156 0
151 167 0
150 162 0
146 158 0
158 175 0
150 163 0
150 161 0
147 162 0
153 168 0
148 160 0
153 170 0
147 160 0
149 161 0
150 164 0
153 166 0
147 159 0
153 164 0
156 170 0
157 172 0
154 168 0
149 161 0
161 176 0
153 166 0
153 167 0
153 167 0
155 166 0
151 163 0
148 162 0
153 167 0
149 160 0
157 169 0
153 163 0
153 165 0
159 174 0
154 167 0
150 162 0
152 166 0
154 169 0
155 167 0
157 169 0
155 166 0
157 178 0
160 179 0
162 181 0
156 177 0
159 178 0
163 184 0
158 178 0
157 177 0
159 178 0
160 179 0
156 175 0
160 179 0
157 176 0
156 174 0
154 174 0
158 178 0
155 174 0
161 181 0
155 175 0
158 179 0
153 175 0
153 173 0
154 174 0
158 178 0
154 175 0
157 176 0
158 178 0
153 172 0
150 169 0
156 176 0
151 170 0
159 179 0
157 177 0
159 180 0
158 178 0
156 177 0
158 179 0
155 176 0
155 175 0
152 173 0
156 176 0
155 176 0
153 173 0
155 176 0
156 176 0
158 179 0
153 174 0
157 178 0
155 175 0
156 176 0
158 178 0
155 176 0
157 178 0
146 167 0
155 176 0
150 171 0
151 172 0
154 176 0
148 168 0
155 176 0
153 173 0
153 173 0
151 170 0
153 174 0
157 178 0
156 177 0
157 178 0
152 173 0
151 173 0
156 178 0
151 171 0
155 176 0
151 172 0
153 175 0
156 179 0
155 176 0
157 178 0
157 179 0
155 176 0
157 178 0
151 171 0
149 167 0
148 169 0
150 172 0
149 170 0
155 176 0
149 171 0
148 168 0
148 170 0
155 177 0
149 170 0
157 179 0
149 169 0
158 179 0
154 177 0
161 182 0
148 170 0
147 169 0
153 174 0
148 169 0
151 172 0
155 178 0
148 168 0
156 178 0
150 172 0
152 173 0
156 178 0
153 174 0
149 170 0
146 167 0
155 177 0
156 178 0
153 174 0
150 171 0
162 185 0
155 177 0
153 174 0
148 170 0
155 177 0
159 182 0
149 171 0
148 169 0
152 174 0
151 173 0
146 168 0
148 170 0
151 173 0
156 179 0
148 170 0
152 174 0
142 163 0
150 170 0
152 173 0
146 167 0
150 172 0
149 170 0
152 174 0
143 165 0
148 169 0
149 171 0
151 173 0
155 179 0
152 173 0
150 171 0
152 174 0
148 169 0
150 174 0
155 176 0
150 171 0
149 171 0
151 173 0
147 169 0
148 171 0
154 175 0
152 173 0
148 170 0
140 163 0
143 165 0
151 172 0
151 172 0
152 174 0
147 168 0
153 175 0
148 169 0
150 173 0
156 178 0
151 173 0
148 170 0
143 165 0
147 169 0
149 171 0
154 176 0
140 161 0
150 171 0
147 169 0
150 172 0
146 168 0
151 172 0
143 165 0
141 162 0
144 165 0
155 177 0
147 168 0
151 173 0
144 165 0
152 173 0
151 173 0
148 169 0
151 173 0
150 171 0
148 170 0
151 173 0
148 170 0
153 175 0
152 172 0
148 170 0
150 172 0
153 174 0
142 164 0
150 171 0
145 167 0
150 171 0
150 172 0
152 174 0
152 173 0
146 168 0
145 167 0
146 168 0
150 173 0
148 167 0
155 177 0
146 168 0
151 172 0
142 163 0
141 164 0
147 168 0
153 174 0
146 166 0
141 163 0
146 167 0
150 173 0
161 183 0
146 167 0
151 173 0
154 174 0
153 175 0
146 167 0
147 169 0
147 169 0
150 169 0
148 169 0
147 168 0
143 162 0
148 170 0
154 174 0
151 172 0
148 168 0
148 169 0
147 167 0
144 164 0
153 174 0
150 171 0
152 174 0
147 169 0
149 170 0
148 169 0
153 175 0
151 173 0
143 163 0
151 173 0
152 173 0
151 170 0
153 175 0
149 170 0
151 172 0
146 165 0
154 174 0
150 169 0
141 162 0
153 172 0
150 169 0
152 171 0
153 175 0
151 173 0
149 169 0
149 169 0
154 174 0
150 171 0
146 166 0
147 169 0
152 172 0
149 169 0
153 175 0
148 168 0
150 171 0
148 167 0
155 175 0
148 169 0
148 168 0
155 175 0
148 169 0
156 177 0
151 171 0
153 172 0
149 168 0
147 166 0
149 169 0
149 168 0
150 169 0
153 174 0
145 164 0
152 171 0
148 166 0
152 170 0
154 174 0
151 170 0
152 170 0
143 162 0
157 176 0
156 176 0
147 164 0
154 173 0
157 176 0
151 169 0
153 174 0
150 168 0
150 168 0
152 169 0
156 174 0
147 166 0
159 180 0
153 171 0
146 163 0
152 171 0
145 164 0
148 167 0
150 170 0
145 162 0
149 167 0
146 159 0
158 176 0
156 171 0
146 163 0
153 172 0
148 166 0
152 169 0
150 165 0
152 169 0
152 169 0
150 166 0
150 166 0
150 166 0
148 164 0
150 164 0
150 168 0
154 171 0
153 170 0
152 170 0
149 164 0
152 169 0
154 170 0
148 163 0
152 169 0
144 158 0
151 164 0
154 170 0
152 169 0
150 163 0
152 168 0
155 169 0
151 166 0
149 164 0
147 161 0
152 167 0
150 163 0
151 165 0
150 166 0
152 165 0
149 164 0
153 169 0
157 174 0
153 168 0
157 171 0
156 170 0
152 168 0
160 174 0
157 172 0
149 163 0
158 174 0
151 165 0
148 163 0
158 172 0
154 168 0
153 168 0
150 165 0
152 166 0
155 168 0
156 168 0
156 171 0
151 163 0
151 162 0
151 164 0
153 169 0
146 160 0
149 160 0
145 158 0
153 168 0
158 175 0
155 168 0
159 173 0
154 167 0
155 169 0
154 169 0
156 172 0
156 168 0
154 167 0
159 171 0
157 172 0
155 167 0
149 162 0
161 181 0
159 179 0
162 181 0
158 179 0
159 180 0
156 175 0
164 184 0
155 176 0
159 179 0
156 177 0
163 183 0
156 175 0
158 177 0
151 170 0
159 179 0
156 176 0
160 181 0
160 180 0
159 179 0
161 182 0
157 177 0
159 180 0
161 181 0
161 181 0
155 175 0
147 168 0
155 177 0
150 170 0
153 173 0
155 175 0
157 177 0
155 175 0
150 169 0
157 177 0
161 183 0
150 169 0
152 173 0
155 175 0
153 173 0
153 174 0
155 176 0
146 168 0
157 177 0
155 175 0
152 172 0
147 167 0
147 168 0
157 177 0
155 177 0
157 177 0
157 178 0
154 175 0
160 180 0
150 170 0
151 172 0
153 175 0
155 176 0
154 173 0
156 177 0
155 177 0
157 178 0
159 180 0
155 176 0
154 174 0
156 176 0
153 174 0
158 180 0
158 180 0
158 178 0
161 182 0
149 170 0
155 177 0
153 175 0
153 175 0
158 179 0
152 172 0
156 177 0
155 176 0
156 177 0
155 177 0
158 179 0
150 172 0
150 171 0
153 174 0
153 175 0
157 179 0
146 168 0
152 174 0
155 176 0
151 173 0
150 171 0
151 172 0
146 167 0
153 173 0
153 173 0
159 182 0
149 169 0
155 177 0
149 171 0
149 171 0
151 172 0
148 168 0
150 172 0
150 170 0
152 174 0
147 169 0
150 171 0
145 167 0
149 170 0
145 166 0
137 158 0
149 171 0
155 176 0
150 172 0
149 171 0
145 167 0
154 176 0
153 175 0
149 171 0
150 172 0
152 175 0
154 176 0
152 174 0
152 174 0
146 168 0
147 169 0
149 171 0
151 173 0
143 164 0
148 169 0
150 172 0
145 166 0
153 175 0
143 165 0
152 174 0
148 171 0
145 166 0
148 169 0
149 171 0
146 167 0
155 177 0
150 172 0
146 168 0
146 167 0
155 176 0
148 170 0
152 174 0
152 174 0
146 168 0
147 169 0
149 171 0
153 174 0
151 173 0
149 171 0
151 172 0
145 168 0
152 173 0
152 174 0
145 168 0
146 167 0
146 166 0
147 168 0
147 168 0
148 169 0
149 171 0
156 178 0
152 173 0
148 169 0
156 178 0
141 163 0
149 171 0
154 175 0
158 181 0
145 167 0
147 168 0
146 167 0
142 162 0
150 172 0
146 167 0
146 167 0
151 172 0
156 178 0
158 180 0
145 167 0
148 170 0
145 167 0
149 169 0
149 171 0
142 162 0
154 176 0
153 175 0
147 168 0
154 174 0
145 166 0
147 170 0
144 166 0
148 169 0
146 169 0
154 175 0
144 164 0
148 170 0
153 175 0
143 165 0
141 162 0
146 167 0
149 170 0
148 168 0
153 174 0
151 172 0
150 171 0
146 167 0
150 172 0
148 170 0
148 169 0
145 166 0
151 172 0
143 165 0
151 173 0
150 172 0
142 161 0
146 168 0
157 180 0
136 156 0
144 165 0
147 166 0
142 163 0
143 165 0
151 171 0
152 172 0
143 165 0
149 170 0
145 167 0
160 182 0
145 165 0
145 167 0
141 161 0
151 172 0
153 174 0
153 175 0
148 168 0
149 169 0
151 172 0
149 170 0
151 171 0
146 168 0
152 173 0
145 166 0
140 160 0
147 167 0
144 163 0
147 170 0
149 170 0
144 164 0
151 170 0
150 169 0
143 163 0
148 168 0
151 172 0
150 171 0
153 173 0
158 178 0
143 163 0
150 171 0
156 176 0
152 171 0
150 170 0
151 172 0
150 170 0
154 173 0
150 170 0
142 162 0
149 170 0
153 173 0
152 172 0
151 170 0
150 170 0
150 170 0
150 170 0
160 179 0
151 171 0
146 165 0
151 172 0
149 168 0
151 172 0
151 172 0
152 170 0
155 176 0
151 169 0
152 173 0
150 171 0
148 168 0
151 171 0
155 172 0
153 172 0
151 169 0
151 170 0
156 177 0
149 168 0
151 168 0
153 173 0
152 170 0
158 176 0
152 170 0
145 162 0
146 163 0
152 169 0
148 166 0
157 176 0
160 178 0
146 165 0
155 174 0
149 169 0
150 167 0
158 177 0
154 173 0
159 178 0
149 163 0
153 169 0
152 168 0
151 169 0
154 169 0
151 167 0
143 158 0
149 166 0
154 171 0
149 167 0
152 166 0
148 164 0
158 175 0
146 163 0
140 156 0
158 175 0
152 167 0
152 168 0
153 171 0
149 165 0
153 171 0
151 168 0
150 168 0
156 174 0
156 172 0
147 162 0
147 162 0
151 168 0
145 161 0
142 157 0
149 166 0
148 164 0
152 169 0
153 168 0
148 164 0
156 172 0
154 168 0
154 171 0
148 163 0
155 172 0
149 165 0
152 168 0
147 162 0
161 177 0
155 171 0
155 170 0
149 166 0
150 166 0
151 169 0
147 162 0
158 174 0
154 167 0
155 169 0
153 167 0
152 166 0
151 166 0
154 169 0
144 157 0
157 172 0
154 167 0
152 168 0
155 168 0
154 168 0
152 169 0
152 166 0
147 162 0
155 170 0
158 173 0
153 163 0
155 169 0
152 166 0
154 166 0
158 174 0
157 172 0
154 167 0
159 176 0
151 165 0
150 162 0
150 163 0
159 173 0
152 167 0
160 174 0
150 162 0
156 169 0
157 176 0
162 183 0
158 178 0
161 182 0
158 178 0
155 175 0
160 181 0
160 180 0
156 176 0
157 177 0
159 178 0
152 171 0
158 178 0
158 178 0
158 178 0
160 180 0
161 181 0
159 179 0
159 180 0
163 183 0
158 178 0
160 180 0
162 183 0
156 176 0
151 172 0
156 177 0
153 173 0
153 173 0
155 176 0
156 176 0
153 173 0
157 176 0
155 175 0
159 179 0
156 176 0
156 176 0
161 182 0
156 176 0
154 175 0
149 169 0
159 180 0
161 181 0
153 173 0
152 173 0
153 174 0
155 176 0
153 173 0
150 171 0
152 173 0
153 175 0
158 179 0
157 179 0
153 174 0
154 174 0
155 175 0
158 179 0
150 172 0
156 176 0
154 177 0
147 167 0
160 180 0
154 175 0
156 177 0
154 175 0
158 178 0
157 179 0
160 181 0
157 179 0
152 173 0
154 176 0
157 178 0
154 176 0
156 178 0
149 171 0
155 176 0
151 172 0
154 176 0
147 169 0
151 172 0
153 174 0
151 172 0
156 178 0
149 171 0
152 173 0
149 170 0
156 178 0
152 173 0
153 175 0
158 180 0
158 180 0
155 176 0
160 182 0
152 174 0
153 175 0
155 176 0
152 174 0
151 173 0
154 177 0
152 173 0
152 173 0
152 174 0
154 175 0
157 179 0
152 173 0
151 173 0
158 180 0
148 169 0
156 179 0
146 168 0
151 172 0
153 175 0
148 170 0
160 183 0
147 167 0
161 183 0
154 175 0
150 173 0
144 166 0
154 177 0
149 171 0
155 177 0
151 172 0
150 171 0
154 177 0
158 180 0
149 170 0
149 170 0
152 174 0
147 168 0
150 171 0
151 173 0
152 174 0
153 175 0
145 166 0
147 170 0
152 175 0
156 178 0
154 175 0
156 177 0
155 177 0
150 171 0
156 178 0
153 175 0
149 172 0
148 169 0
148 169 0
155 177 0
155 175 0
157 180 0
146 168 0
147 170 0
151 173 0
148 170 0
150 173 0
152 174 0
155 177 0
141 163 0
147 168 0
151 174 0
150 172 0
149 171 0
150 173 0
152 174 0
147 168 0
143 164 0
146 167 0
147 170 0
151 174 0
143 164 0
143 163 0
144 166 0
155 177 0
147 169 0
152 174 0
143 166 0
152 174 0
149 169 0
145 166 0
147 169 0
152 174 0
147 169 0
147 168 0
143 165 0
148 170 0
147 168 0
150 171 0
148 169 0
145 167 0
147 168 0
144 165 0
151 174 0
151 172 0
154 175 0
149 170 0
147 168 0
144 165 0
142 165 0
153 175 0
139 160 0
148 170 0
149 172 0
149 171 0
152 172 0
150 170 0
144 164 0
146 167 0
152 174 0
138 159 0
153 173 0
141 162 0
143 164 0
149 170 0
143 164 0
148 169 0
145 165 0
138 157 0
149 171 0
139 160 0
150 171 0
145 167 0
151 173 0
148 169 0
145 166 0
150 172 0
150 170 0
150 173 0
153 175 0
151 172 0
149 170 0
147 167 0
144 164 0
140 161 0
153 174 0
142 163 0
144 165 0
152 173 0
145 165 0
150 170 0
144 165 0
159 180 0
151 172 0
154 175 0
142 163 0
159 180 0
150 170 0
145 165 0
147 168 0
152 175 0
148 169 0
138 157 0
148 170 0
147 167 0
139 159 0
153 174 0
138 159 0
145 165 0
151 170 0
150 170 0
149 168 0
150 172 0
161 181 0
148 167 0
151 172 0
154 176 0
150 170 0
149 170 0
149 169 0
155 177 0
157 175 0
157 177 0
149 170 0
148 167 0
158 179 0
152 172 0
150 170 0
144 163 0
153 173 0
148 168 0
146 165 0
149 168 0
138 158 0
155 175 0
151 169 0
158 178 0
151 170 0
148 167 0
141 159 0
152 172 0
153 174 0
144 162 0
153 172 0
152 173 0
149 169 0
149 168 0
141 159 0
152 170 0
150 168 0
152 172 0
147 165 0
151 169 0
152 171 0
151 171 0
152 172 0
148 166 0
149 169 0
146 163 0
155 174 0
149 166 0
154 172 0
150 168 0
156 173 0
150 168 0
151 170 0
150 168 0
155 173 0
143 159 0
151 168 0
157 174 0
151 169 0
154 172 0
154 175 0
152 168 0
151 168 0
159 179 0
150 168 0
157 174 0
150 168 0
155 171 0
148 164 0
154 171 0
151 169 0
148 166 0
153 169 0
155 173 0
144 158 0
146 162 0
143 158 0
151 169 0
153 170 0
150 166 0
149 166 0
152 168 0
141 155 0
149 166 0
161 176 0
151 166 0
153 168 0
153 167 0
159 175 0
153 172 0
143 155 0
149 165 0
151 166 0
148 163 0
154 170 0
154 169 0
146 163 0
153 166 0
152 169 0
154 169 0
153 168 0
161 177 0
153 169 0
150 163 0
151 167 0
150 162 0
148 163 0
146 161 0
147 161 0
149 164 0
155 169 0
153 169 0
150 164 0
153 168 0
155 169 0
154 169 0
150 163 0
152 165 0
152 166 0
156 169 0
156 171 0
153 170 0
158 173 0
147 161 0
152 165 0
155 170 0
158 173 0
150 162 0
153 166 0
151 165 0
157 169 0
153 166 0
150 163 0
153 166 0
154 169 0
153 169 0
157 171 0
158 171 0
158 172 0
146 160 0
156 176 0
158 179 0
163 184 0
156 176 0
159 180 0
155 174 0
162 182 0
159 179 0
157 177 0
154 174 0
159 180 0
156 176 0
156 177 0
154 173 0
158 177 0
156 175 0
158 178 0
154 174 0
158 178 0
162 183 0
161 181 0
159 179 0
156 177 0
158 178 0
159 180 0
161 182 0
153 175 0
157 178 0
155 175 0
154 175 0
161 181 0
153 173 0
160 181 0
153 173 0
156 176 0
158 180 0
156 177 0
143 162 0
158 179 0
157 177 0
160 181 0
154 175 0
157 178 0
153 173 0
153 173 0
156 178 0
157 177 0
155 175 0
153 174 0
155 176 0
156 177 0
154 175 0
158 179 0
146 165 0
155 176 0
149 170 0
157 178 0
161 182 0
153 174 0
161 183 0
156 177 0
151 171 0
152 173 0
154 175 0
150 171 0
161 182 0
157 177 0
154 176 0
163 184 0
150 172 0
152 172 0
156 177 0
150 172 0
157 179 0
149 169 0
156 177 0
157 177 0
154 176 0
154 175 0
154 174 0
162 184 0
158 180 0
146 167 0
150 171 0
155 177 0
152 173 0
147 168 0
153 174 0
154 174 0
157 178 0
158 181 0
149 169 0
149 171 0
146 168 0
154 175 0
150 172 0
152 173 0
149 170 0
149 172 0
154 175 0
159 182 0
154 176 0
152 172 0
149 170 0
149 173 0
146 168 0
149 169 0
154 176 0
160 182 0
153 175 0
148 169 0
147 168 0
158 181 0
148 169 0
149 171 0
152 173 0
155 177 0
147 169 0
149 171 0
154 175 0
148 171 0
143 166 0
147 169 0
154 176 0
159 181 0
147 169 0
145 165 0
150 172 0
155 177 0
156 178 0
147 169 0
156 177 0
153 175 0
150 172 0
150 171 0
149 171 0
153 173 0
154 174 0
149 171 0
156 178 0
155 177 0
151 172 0
153 174 0
146 166 0
142 163 0
152 174 0
153 175 0
153 174 0
149 170 0
155 176 0
150 172 0
157 180 0
147 168 0
151 173 0
150 173 0
153 174 0
152 172 0
144 165 0
149 170 0
155 177 0
138 159 0
150 172 0
145 166 0
150 172 0
148 169 0
144 167 0
145 167 0
147 168 0
147 169 0
149 171 0
144 166 0
149 169 0
153 176 0
146 167 0
150 172 0
153 175 0
144 166 0
149 170 0
150 172 0
156 177 0
150 170 0
149 171 0
149 171 0
140 161 0
149 171 0
151 174 0
154 177 0
146 168 0
144 165 0
151 172 0
149 170 0
147 168 0
146 167 0
149 170 0
150 171 0
152 174 0
150 170 0
148 169 0
147 169 0
153 174 0
147 169 0
141 162 0
147 167 0
141 162 0
151 174 0
142 165 0
152 172 0
147 168 0
150 171 0
142 162 0
146 167 0
147 168 0
153 175 0
144 165 0
152 173 0
141 162 0
152 174 0
137 158 0
148 170 0
153 174 0
144 163 0
145 167 0
142 165 0
150 170 0
150 172 0
146 167 0
149 168 0
155 176 0
150 171 0
147 169 0
149 169 0
150 173 0
148 170 0
143 164 0
157 179 0
159 180 0
151 173 0
141 162 0
153 175 0
148 169 0
138 159 0
146 165 0
150 171 0
149 169 0
147 168 0
146 167 0
148 169 0
145 166 0
147 166 0
151 170 0
149 170 0
145 164 0
154 173 0
143 165 0
155 175 0
150 171 0
149 168 0
151 173 0
149 169 0
156 177 0
153 172 0
142 162 0
151 173 0
153 173 0
149 169 0
153 173 0
148 168 0
151 173 0
148 168 0
151 172 0
155 175 0
145 163 0
149 170 0
150 170 0
154 174 0
156 175 0
150 170 0
153 173 0
145 163 0
151 170 0
155 175 0
153 173 0
158 178 0
155 174 0
153 172 0
148 167 0
145 161 0
150 169 0
148 168 0
153 173 0
150 168 0
151 170 0
150 168 0
143 163 0
153 173 0
153 171 0
145 165 0
148 167 0
154 173 0
148 167 0
146 164 0
157 177 0
147 164 0
150 168 0
149 169 0
153 170 0
156 177 0
152 170 0
149 168 0
151 170 0
153 170 0
152 170 0
157 176 0
152 170 0
151 170 0
145 164 0
150 168 0
150 168 0
157 175 0
144 160 0
153 170 0
150 167 0
152 170 0
151 170 0
156 173 0
148 165 0
155 173 0
152 169 0
145 162 0
145 161 0
146 162 0
157 175 0
158 176 0
153 172 0
155 173 0
153 168 0
154 172 0
153 170 0
152 169 0
140 155 0
152 170 0
153 170 0
153 171 0
151 167 0
143 159 0
151 168 0
148 163 0
151 168 0
152 169 0
142 158 0
149 166 0
156 171 0
145 158 0
143 158 0
158 172 0
156 172 0
151 168 0
153 166 0
153 169 0
155 170 0
153 168 0
142 155 0
159 174 0
142 153 0
151 169 0
146 159 0
155 172 0
154 168 0
152 167 0
150 166 0
150 165 0
152 166 0
147 163 0
154 168 0
155 171 0
154 168 0
149 163 0
154 168 0
153 164 0
152 165 0
157 170 0
157 172 0
148 160 0
154 167 0
148 160 0
162 175 0
153 165 0
148 161 0
151 165 0
160 175 0
155 168 0
153 167 0
145 158 0
153 165 0
159 173 0
153 168 0
152 168 0
152 162 0
158 171 0
158 174 0
163 182 0
151 171 0
157 177 0
159 179 0
164 184 0
164 185 0
162 183 0
156 176 0
162 182 0
156 176 0
161 182 0
155 175 0
155 176 0
154 174 0
157 177 0
162 182 0
156 177 0
154 175 0
156 177 0
153 174 0
153 173 0
160 181 0
152 172 0
156 177 0
153 173 0
155 175 0
155 176 0
155 175 0
152 174 0
157 178 0
154 174 0
154 174 0
155 176 0
157 178 0
156 176 0
159 180 0
154 174 0
149 170 0
155 176 0
157 177 0
154 175 0
151 171 0
155 174 0
153 174 0
153 174 0
155 176 0
158 179 0
153 174 0
152 172 0
152 174 0
157 177 0
163 184 0
157 178 0
147 168 0
150 171 0
155 178 0
158 178 0
158 178 0
155 177 0
158 179 0
155 176 0
160 182 0
152 174 0
151 173 0
154 175 0
151 173 0
150 171 0
150 172 0
153 175 0
149 171 0
161 183 0
148 167 0
155 176 0
158 179 0
148 169 0
144 163 0
151 173 0
155 176 0
154 174 0
155 176 0
157 178 0
156 177 0
155 176 0
156 178 0
152 174 0
148 169 0
154 175 0
150 172 0
155 178 0
149 171 0
150 171 0
159 181 0
154 176 0
148 169 0
160 182 0
157 179 0
156 177 0
152 174 0
152 174 0
155 178 0
157 179 0
149 171 0
150 171 0
150 170 0
153 175 0
145 166 0
153 175 0
156 179 0
150 171 0
157 179 0
153 175 0
157 179 0
151 172 0
155 177 0
151 173 0
153 175 0
146 166 0
152 174 0
152 173 0
151 172 0
148 170 0
155 178 0
151 172 0
158 179 0
154 177 0
154 176 0
151 173 0
159 181 0
152 173 0
153 175 0
159 183 0
153 175 0
153 175 0
157 180 0
154 176 0
151 173 0
146 168 0
146 167 0
155 178 0
149 171 0
152 175 0
144 165 0
153 175 0
155 176 0
151 173 0
153 175 0
149 172 0
141 163 0
151 172 0
153 175 0
150 171 0
145 167 0
153 174 0
149 170 0
142 164 0
149 170 0
145 167 0
147 168 0
152 174 0
153 175 0
151 173 0
153 175 0
155 178 0
154 177 0
147 169 0
148 169 0
148 169 0
149 171 0
148 169 0
142 164 0
147 170 0
152 172 0
142 163 0
153 175 0
149 171 0
144 163 0
152 174 0
148 171 0
138 160 0
152 173 0
150 171 0
150 173 0
140 161 0
146 166 0
140 162 0
150 170 0
150 168 0
153 174 0
153 175 0
149 172 0
148 170 0
148 170 0
153 175 0
143 165 0
147 169 0
151 173 0
154 176 0
156 177 0
152 173 0
155 178 0
152 173 0
155 177 0
144 164 0
149 170 0
146 168 0
151 172 0
150 172 0
152 175 0
154 176 0
154 176 0
150 173 0
142 164 0
154 177 0
145 166 0
147 168 0
150 172 0
148 170 0
144 164 0
151 173 0
156 177 0
151 172 0
151 170 0
146 168 0
148 169 0
148 168 0
155 177 0
153 176 0
152 174 0
146 166 0
151 172 0
146 168 0
150 171 0
149 171 0
145 165 0
154 175 0
144 164 0
148 167 0
149 171 0
148 170 0
154 175 0
152 173 0
142 164 0
152 172 0
151 171 0
148 170 0
149 169 0
152 173 0
152 170 0
150 170 0
148 169 0
146 167 0
146 166 0
154 175 0
146 167 0
140 159 0
153 174 0
153 173 0
147 166 0
151 169 0
151 169 0
157 178 0
145 166 0
147 166 0
145 164 0
150 170 0
139 159 0
142 163 0
153 173 0
140 160 0
151 173 0
145 165 0
157 180 0
153 174 0
151 171 0
151 172 0
155 175 0
154 173 0
157 178 0
154 174 0
153 173 0
154 174 0
153 173 0
143 161 0
150 170 0
155 176 0
140 159 0
150 171 0
147 166 0
155 175 0
144 162 0
147 167 0
152 171 0
149 168 0
156 176 0
146 164 0
154 173 0
142 160 0
151 172 0
149 169 0
148 167 0
152 171 0
151 172 0
153 171 0
147 166 0
151 170 0
144 161 0
151 170 0
137 154 0
147 165 0
148 166 0
145 163 0
154 172 0
148 166 0
147 166 0
150 170 0
155 174 0
154 173 0
150 167 0
151 169 0
151 171 0
155 173 0
153 170 0
158 177 0
151 170 0
151 169 0
156 171 0
150 165 0
154 170 0
154 172 0
159 177 0
152 168 0
153 171 0
147 161 0
151 168 0
143 160 0
160 177 0
158 175 0
149 167 0
158 176 0
150 167 0
150 167 0
157 171 0
151 168 0
154 172 0
151 165 0
153 167 0
153 170 0
154 172 0
153 170 0
155 172 0
151 167 0
152 168 0
149 164 0
153 169 0
157 175 0
151 168 0
150 165 0
158 176 0
154 171 0
158 174 0
151 167 0
155 171 0
148 163 0
147 163 0
152 168 0
147 162 0
149 160 0
157 173 0
152 168 0
151 165 0
159 175 0
151 167 0
154 168 0
157 172 0
155 170 0
147 161 0
147 160 0
148 162 0
155 171 0
154 169 0
155 169 0
150 163 0
158 171 0
157 172 0
150 164 0
148 162 0
154 168 0
154 169 0
152 166 0
157 171 0
152 164 0
157 171 0
154 168 0
154 168 0
157 171 0
158 173 0
153 166 0
160 172 0
153 165 0
159 172 0
158 179 0
159 179 0
158 178 0
158 179 0
153 174 0
160 181 0
155 176 0
157 178 0
167 187 0
159 180 0
156 176 0
162 182 0
159 180 0
155 175 0
158 180 0
162 183 0
161 181 0
155 175 0
156 178 0
160 181 0
152 172 0
159 179 0
160 180 0
159 179 0
154 174 0
155 176 0
161 183 0
156 175 0
153 173 0
156 177 0
157 178 0
162 184 0
154 174 0
152 173 0
155 176 0
159 180 0
162 182 0
155 175 0
150 170 0
157 178 0
154 175 0
156 176 0
155 175 0
149 170 0
157 178 0
156 176 0
161 183 0
158 179 0
159 181 0
159 180 0
154 176 0
156 178 0
154 174 0
162 183 0
155 175 0
159 180 0
151 173 0
159 179 0
153 175 0
152 172 0
151 172 0
148 170 0
152 172 0
160 182 0
153 174 0
154 175 0
149 170 0
154 175 0
153 174 0
153 175 0
150 171 0
157 177 0
151 173 0
156 178 0
155 176 0
155 177 0
154 176 0
158 179 0
154 176 0
158 180 0
148 169 0
148 170 0
158 181 0
156 179 0
160 181 0
156 178 0
153 174 0
144 165 0
152 173 0
155 175 0
154 176 0
159 181 0
153 174 0
156 177 0
157 179 0
149 171 0
154 175 0
156 178 0
152 174 0
160 182 0
150 171 0
150 172 0
162 185 0
156 177 0
154 175 0
151 174 0
157 179 0
146 167 0
150 170 0
144 166 0
155 177 0
157 179 0
150 171 0
148 169 0
156 178 0
154 176 0
153 175 0
151 171 0
150 173 0
152 174 0
156 179 0
157 179 0
150 172 0
153 176 0
149 171 0
149 169 0
151 173 0
156 179 0
152 175 0
154 175 0
155 179 0
155 178 0
159 181 0
149 170 0
144 167 0
157 180 0
151 173 0
155 177 0
155 177 0
153 174 0
157 181 0
145 167 0
152 174 0
147 168 0
146 169 0
153 176 0
148 170 0
144 167 0
150 172 0
148 169 0
151 173 0
153 175 0
148 170 0
152 174 0
143 165 0
149 172 0
155 177 0
150 171 0
154 176 0
153 175 0
149 171 0
149 170 0
153 175 0
152 175 0
159 181 0
148 169 0
145 166 0
156 178 0
153 175 0
155 178 0
150 172 0
142 163 0
143 165 0
147 168 0
153 175 0
146 167 0
149 171 0
149 171 0
152 173 0
154 176 0
145 167 0
148 169 0
145 166 0
143 165 0
155 177 0
148 171 0
148 171 0
155 178 0
146 168 0
153 175 0
152 174 0
146 168 0
150 171 0
148 170 0
151 173 0
153 175 0
158 179 0
154 175 0
138 159 0
149 171 0
149 170 0
143 165 0
152 173 0
144 166 0
152 173 0
139 160 0
141 162 0
149 170 0
151 170 0
147 168 0
152 174 0
153 175 0
149 171 0
150 171 0
150 171 0
144 165 0
149 171 0
151 172 0
151 171 0
149 171 0
145 165 0
146 168 0
152 173 0
147 168 0
144 166 0
144 165 0
144 163 0
152 173 0
158 179 0
150 171 0
157 178 0
155 176 0
144 164 0
148 170 0
146 167 0
154 174 0
149 170 0
150 171 0
147 167 0
149 170 0
149 170 0
151 172 0
159 181 0
147 168 0
146 167 0
148 168 0
146 168 0
145 165 0
147 166 0
153 175 0
150 173 0
148 168 0
149 170 0
147 166 0
147 168 0
149 171 0
148 168 0
148 169 0
152 173 0
152 173 0
155 176 0
148 169 0
149 169 0
154 175 0
156 177 0
146 166 0
157 176 0
149 170 0
147 166 0
155 174 0
151 170 0
147 168 0
146 165 0
156 175 0
158 179 0
150 169 0
149 169 0
148 165 0
155 177 0
150 169 0
151 171 0
147 167 0
154 174 0
146 165 0
153 170 0
155 175 0
154 175 0
152 172 0
152 171 0
154 171 0
158 176 0
150 169 0
150 170 0
148 167 0
155 175 0
144 163 0
155 174 0
150 169 0
148 166 0
148 167 0
149 168 0
143 159 0
152 171 0
152 172 0
150 168 0
146 165 0
154 174 0
149 165 0
153 172 0
148 165 0
152 172 0
152 169 0
158 176 0
150 167 0
151 169 0
148 166 0
156 175 0
156 172 0
155 173 0
158 177 0
155 173 0
150 168 0
154 170 0
156 175 0
157 176 0
156 173 0
147 164 0
151 170 0
148 165 0
152 170 0
150 167 0
149 165 0
152 169 0
157 175 0
152 170 0
151 167 0
155 171 0
157 172 0
146 163 0
153 171 0
157 176 0
148 165 0
153 172 0
150 166 0
151 167 0
153 170 0
145 161 0
154 170 0
148 164 0
148 166 0
150 166 0
148 163 0
153 168 0
146 159 0
155 171 0
148 163 0
152 169 0
148 162 0
159 177 0
152 168 0
151 166 0
148 161 0
148 160 0
155 171 0
155 170 0
152 167 0
150 167 0
152 165 0
154 168 0
149 164 0
150 163 0
154 169 0
153 168 0
153 168 0
155 170 0
157 172 0
159 173 0
153 167 0
159 175 0
151 166 0
158 172 0
150 163 0
153 167 0
150 165 0
162 177 0
153 168 0
159 175 0
159 173 0
150 164 0
158 171 0
145 159 0
155 168 0
153 163 0
155 171 0
155 170 0
153 166 0
152 168 0
156 170 0
154 169 0
151 164 0
161 182 0
160 180 0
157 177 0
160 179 0
156 176 0
155 176 0
156 176 0
159 180 0
157 178 0
166 187 0
158 179 0
154 174 0
158 178 0
161 181 0
159 180 0
157 177 0
157 178 0
159 179 0
154 175 0
157 179 0
162 183 0
161 181 0
159 180 0
157 178 0
156 176 0
163 185 0
158 179 0
165 187 0
161 181 0
163 183 0
155 177 0
158 180 0
155 176 0
151 171 0
153 173 0
155 176 0
161 181 0
155 175 0
154 174 0
152 172 0
155 176 0
154 176 0
159 180 0
154 175 0
157 179 0
157 178 0
157 178 0
145 165 0
159 180 0
153 174 0
153 174 0
149 169 0
155 175 0
158 179 0
151 172 0
155 176 0
149 169 0
155 176 0
151 172 0
156 177 0
148 169 0
153 175 0
159 180 0
155 176 0
148 169 0
152 174 0
157 179 0
157 179 0
153 175 0
153 175 0
159 181 0
155 176 0
156 178 0
158 179 0
159 180 0
159 180 0
152 175 0
147 168 0
155 177 0
157 179 0
156 176 0
162 183 0
145 166 0
161 183 0
154 177 0
160 181 0
153 174 0
148 169 0
150 172 0
151 173 0
157 180 0
151 174 0
156 177 0
155 176 0
149 170 0
144 166 0
150 172 0
157 179 0
157 178 0
149 170 0
151 174 0
157 178 0
155 176 0
156 178 0
154 176 0
155 177 0
153 176 0
148 171 0
146 168 0
153 176 0
151 174 0
156 178 0
155 178 0
150 173 0
157 180 0
150 171 0
153 175 0
153 175 0
152 173 0
156 178 0
152 173 0
155 177 0
151 174 0
153 175 0
154 175 0
156 178 0
156 177 0
150 170 0
154 176 0
153 173 0
151 173 0
152 173 0
156 178 0
151 172 0
150 170 0
147 169 0
153 177 0
153 174 0
147 170 0
151 173 0
157 178 0
156 177 0
148 168 0
147 168 0
146 168 0
151 173 0
153 174 0
150 172 0
152 174 0
148 168 0
151 173 0
153 173 0
150 172 0
150 173 0
144 165 0
152 174 0
151 173 0
152 174 0
153 175 0
144 166 0
157 179 0
150 171 0
144 166 0
151 173 0
155 176 0
148 170 0
145 166 0
153 176 0
157 179 0
157 179 0
154 175 0
152 174 0
145 167 0
136 157 0
154 175 0
147 169 0
145 167 0
149 171 0
151 174 0
156 178 0
150 172 0
146 168 0
157 179 0
155 177 0
153 175 0
151 172 0
153 175 0
150 172 0
152 174 0
154 176 0
151 173 0
149 170 0
147 167 0
153 176 0
142 163 0
150 172 0
152 175 0
151 172 0
152 173 0
143 165 0
151 174 0
151 173 0
148 170 0
151 173 0
150 171 0
151 174 0
143 164 0
152 174 0
148 170 0
142 164 0
150 171 0
151 172 0
146 167 0
144 166 0
145 166 0
151 173 0
152 175 0
147 168 0
142 163 0
152 173 0
160 182 0
157 179 0
147 169 0
152 173 0
155 177 0
144 166 0
146 167 0
144 166 0
152 172 0
150 172 0
151 171 0
157 177 0
146 167 0
154 176 0
149 170 0
154 176 0
152 173 0
148 168 0
151 173 0
158 179 0
147 169 0
143 165 0
141 162 0
154 174 0
146 167 0
149 171 0
150 172 0
150 170 0
149 170 0
149 170 0
156 177 0
153 176 0
154 175 0
152 174 0
149 170 0
153 174 0
152 172 0
143 163 0
149 168 0
146 168 0
153 174 0
156 175 0
152 173 0
153 173 0
152 173 0
152 173 0
150 170 0
154 173 0
149 169 0
155 176 0
149 169 0
149 170 0
155 176 0
155 176 0
153 175 0
154 175 0
153 175 0
150 170 0
149 170 0
155 177 0
152 173 0
156 175 0
154 174 0
146 166 0
148 169 0
151 170 0
149 170 0
144 163 0
150 170 0
156 177 0
148 167 0
148 169 0
149 170 0
153 174 0
145 164 0
151 170 0
149 167 0
150 169 0
148 167 0
155 173 0
153 170 0
147 165 0
155 175 0
140 159 0
159 178 0
148 170 0
153 172 0
151 167 0
145 164 0
152 171 0
147 165 0
146 163 0
150 166 0
154 172 0
153 174 0
157 175 0
152 173 0
155 174 0
154 172 0
156 176 0
155 175 0
158 177 0
153 172 0
150 168 0
156 171 0
147 163 0
148 165 0
150 168 0
151 168 0
150 169 0
155 173 0
155 171 0
155 171 0
147 164 0
152 169 0
149 165 0
149 167 0
149 165 0
152 169 0
150 167 0
149 166 0
153 170 0
158 175 0
152 170 0
154 171 0
151 165 0
152 167 0
158 174 0
157 175 0
159 177 0
157 172 0
153 170 0
154 171 0
151 167 0
156 173 0
156 172 0
152 168 0
157 175 0
148 163 0
159 175 0
154 170 0
159 173 0
163 180 0
153 169 0
151 167 0
157 174 0
161 177 0
153 168 0
152 166 0
156 172 0
148 162 0
150 167 0
153 169 0
155 171 0
157 173 0
154 169 0
149 161 0
153 167 0
150 165 0
153 169 0
152 168 0
153 167 0
154 168 0
153 167 0
155 171 0
158 171 0
158 172 0
154 170 0
146 159 0
161 178 0
155 171 0
154 168 0
154 166 0
149 162 0
154 169 0
154 169 0
157 170 0
151 164 0
153 167 0
154 169 0
152 174 0
158 178 0
161 182 0
156 176 0
160 182 0
160 182 0
155 176 0
156 175 0
159 181 0
154 175 0
158 179 0
158 178 0
160 181 0
159 180 0
159 179 0
153 174 0
152 173 0
154 173 0
159 180 0
157 178 0
156 177 0
158 178 0
159 179 0
161 183 0
154 175 0
156 178 0
153 174 0
154 176 0
156 177 0
156 177 0
159 179 0
158 179 0
156 177 0
157 177 0
157 177 0
160 181 0
156 177 0
155 176 0
160 182 0
156 178 0
155 177 0
157 180 0
161 183 0
158 179 0
157 179 0
152 173 0
154 176 0
154 176 0
159 180 0
164 185 0
159 179 0
151 173 0
157 177 0
155 177 0
159 181 0
157 179 0
157 179 0
155 177 0
158 179 0
152 172 0
155 177 0
153 174 0
155 177 0
157 179 0
164 185 0
156 177 0
150 171 0
155 176 0
154 175 0
153 175 0
152 173 0
155 175 0
158 180 0
152 173 0
159 181 0
157 179 0
152 174 0
158 180 0
158 179 0
146 167 0
155 177 0
154 175 0
144 165 0
147 168 0
157 179 0
157 177 0
152 174 0
155 177 0
152 172 0
159 179 0
156 178 0
152 173 0
152 173 0
153 174 0
152 173 0
155 178 0
153 175 0
159 181 0
146 168 0
157 178 0
157 179 0
152 173 0
151 172 0
150 172 0
149 172 0
149 171 0
153 175 0
149 170 0
154 176 0
154 175 0
152 173 0
149 170 0
149 170 0
153 174 0
157 179 0
157 179 0
155 176 0
152 173 0
156 178 0
153 175 0
149 170 0
148 171 0
157 180 0
155 178 0
150 173 0
152 174 0
154 177 0
152 174 0
148 172 0
153 174 0
151 174 0
149 170 0
147 169 0
146 169 0
158 180 0
150 172 0
152 174 0
138 159 0
150 173 0
150 172 0
154 175 0
146 167 0
155 178 0
148 169 0
154 175 0
146 168 0
152 173 0
148 171 0
159 181 0
143 165 0
146 168 0
145 166 0
157 178 0
155 177 0
150 171 0
147 168 0
157 178 0
156 177 0
149 171 0
147 169 0
157 177 0
151 174 0
154 176 0
155 177 0
159 182 0
147 168 0
147 168 0
149 171 0
148 168 0
148 170 0
145 166 0
146 167 0
150 172 0
154 177 0
158 180 0
153 174 0
149 170 0
153 178 0
149 169 0
143 165 0
153 174 0
146 168 0
149 170 0
156 178 0
148 170 0
149 171 0
157 179 0
151 172 0
149 172 0
148 171 0
153 175 0
146 168 0
151 172 0
154 176 0
149 171 0
149 170 0
149 171 0
155 177 0
156 177 0
151 172 0
144 165 0
150 172 0
149 171 0
148 169 0
152 172 0
150 171 0
153 174 0
153 175 0
152 173 0
150 171 0
156 177 0
146 167 0
145 167 0
151 171 0
140 161 0
148 169 0
150 172 0
152 172 0
147 169 0
148 170 0
150 171 0
155 176 0
149 171 0
148 169 0
145 166 0
151 172 0
145 166 0
148 169 0
148 170 0
146 168 0
153 175 0
154 174 0
150 171 0
152 174 0
155 177 0
153 174 0
148 169 0
144 164 0
153 174 0
149 170 0
152 172 0
153 174 0
148 170 0
153 173 0
152 175 0
151 172 0
149 171 0
151 170 0
147 170 0
153 174 0
149 169 0
148 168 0
155 177 0
150 170 0
153 172 0
151 171 0
145 165 0
149 170 0
150 170 0
147 166 0
154 175 0
148 169 0
148 168 0
158 179 0
143 165 0
156 177 0
151 169 0
143 164 0
155 174 0
155 177 0
153 173 0
153 173 0
147 168 0
151 167 0
151 172 0
150 171 0
150 169 0
142 161 0
155 175 0
149 169 0
148 168 0
163 184 0
153 172 0
155 174 0
154 174 0
145 163 0
152 172 0
149 168 0
155 175 0
155 174 0
150 170 0
151 170 0
152 172 0
152 172 0
156 175 0
150 169 0
155 176 0
144 164 0
146 164 0
150 170 0
159 179 0
152 171 0
153 172 0
151 169 0
151 170 0
152 171 0
149 168 0
152 172 0
148 165 0
155 174 0
149 167 0
159 178 0
153 172 0
155 176 0
152 170 0
153 171 0
153 170 0
155 174 0
150 169 0
152 172 0
148 167 0
155 173 0
153 171 0
157 177 0
157 172 0
151 169 0
148 166 0
154 172 0
151 168 0
153 171 0
155 173 0
149 168 0
156 172 0
147 164 0
152 169 0
152 171 0
152 167 0
148 165 0
152 170 0
160 178 0
149 165 0
154 172 0
155 172 0
153 169 0
155 174 0
160 177 0
153 171 0
148 164 0
148 162 0
156 171 0
157 177 0
154 173 0
159 177 0
149 166 0
147 161 0
153 170 0
154 169 0
154 169 0
162 181 0
151 165 0
143 158 0
145 163 0
150 167 0
159 175 0
154 167 0
154 168 0
150 166 0
153 170 0
163 180 0
144 160 0
164 180 0
153 168 0
150 165 0
156 173 0
154 165 0
150 164 0
147 162 0
158 171 0
153 168 0
156 172 0
151 167 0
151 167 0
153 168 0
154 168 0
157 174 0
150 163 0
154 167 0
150 163 0
155 169 0
152 167 0
155 172 0
158 175 0
158 174 0
156 170 0
155 172 0
158 173 0
152 165 0
157 171 0
159 173 0
156 169 0
160 181 0
158 179 0
160 180 0
156 175 0
157 177 0
156 176 0
160 180 0
151 171 0
159 180 0
159 180 0
155 175 0
162 183 0
149 170 0
159 180 0
155 177 0
158 179 0
154 175 0
155 176 0
161 182 0
153 174 0
162 183 0
159 179 0
158 179 0
161 182 0
156 176 0
161 182 0
160 181 0
155 176 0
157 178 0
159 179 0
155 175 0
163 184 0
150 169 0
155 177 0
150 171 0
146 167 0
154 174 0
152 174 0
155 175 0
156 175 0
157 178 0
153 174 0
156 178 0
160 182 0
155 177 0
153 174 0
159 181 0
156 177 0
154 174 0
156 177 0
158 179 0
161 182 0
160 181 0
160 181 0
150 171 0
161 183 0
154 174 0
158 179 0
151 172 0
155 176 0
153 174 0
154 175 0
154 175 0
156 178 0
151 172 0
157 178 0
158 179 0
156 178 0
149 170 0
153 174 0
153 174 0
158 179 0
151 173 0
149 169 0
154 175 0
156 179 0
155 177 0
151 171 0
150 172 0
157 179 0
154 176 0
157 178 0
155 177 0
159 181 0
153 174 0
152 175 0
153 174 0
157 178 0
156 177 0
154 176 0
150 171 0
156 176 0
155 177 0
152 174 0
150 172 0
148 169 0
157 177 0
154 177 0
152 173 0
155 178 0
149 170 0
148 170 0
152 174 0
155 178 0
153 174 0
157 179 0
157 179 0
153 176 0
151 172 0
152 174 0
156 178 0
150 172 0
153 176 0
155 178 0
153 175 0
156 178 0
155 177 0
151 172 0
151 173 0
154 176 0
150 172 0
149 171 0
152 175 0
143 164 0
148 169 0
156 178 0
149 172 0
151 174 0
153 174 0
153 175 0
153 176 0
152 173 0
149 171 0
153 177 0
154 177 0
162 184 0
152 173 0
156 178 0
155 177 0
152 173 0
150 173 0
151 173 0
151 174 0
158 179 0
148 169 0
154 175 0
142 164 0
145 168 0
158 180 0
144 165 0
150 172 0
152 174 0
154 175 0
152 175 0
155 176 0
151 174 0
152 174 0
149 170 0
149 170 0
148 169 0
153 176 0
152 174 0
155 177 0
144 167 0
147 168 0
153 175 0
150 172 0
146 167 0
156 178 0
149 171 0
147 170 0
147 168 0
148 168 0
151 174 0
156 178 0
153 176 0
147 169 0
156 180 0
149 171 0
147 168 0
145 166 0
158 179 0
154 175 0
149 172 0
149 172 0
143 165 0
148 170 0
154 176 0
150 172 0
148 170 0
148 171 0
156 176 0
146 170 0
155 175 0
149 172 0
145 166 0
159 180 0
148 171 0
153 175 0
153 176 0
152 175 0
157 178 0
150 171 0
148 171 0
153 176 0
150 173 0
144 167 0
147 167 0
150 171 0
146 167 0
145 168 0
152 174 0
147 169 0
149 169 0
152 175 0
148 170 0
146 167 0
156 177 0
149 169 0
153 175 0
145 166 0
152 173 0
148 171 0
155 177 0
149 169 0
147 168 0
149 171 0
146 167 0
153 174 0
146 166 0
154 176 0
153 176 0
158 178 0
150 171 0
153 174 0
150 171 0
146 167 0
145 166 0
152 171 0
148 170 0
143 164 0
153 175 0
149 169 0
148 168 0
154 175 0
147 169 0
151 173 0
155 177 0
150 169 0
155 175 0
148 166 0
153 173 0
147 168 0
148 169 0
147 168 0
145 167 0
146 167 0
156 177 0
141 161 0
146 166 0
151 172 0
152 173 0
149 169 0
151 172 0
150 171 0
154 176 0
159 180 0
151 171 0
147 166 0
153 174 0
144 161 0
159 181 0
152 173 0
147 165 0
157 178 0
158 178 0
149 168 0
156 177 0
153 174 0
149 170 0
149 171 0
158 178 0
154 173 0
147 168 0
156 176 0
146 166 0
159 180 0
149 169 0
149 169 0
148 168 0
152 171 0
151 170 0
148 168 0
153 171 0
149 166 0
153 173 0
152 171 0
156 174 0
161 180 0
156 178 0
155 175 0
150 169 0
152 170 0
152 172 0
151 173 0
143 161 0
149 168 0
153 173 0
151 170 0
152 171 0
149 168 0
155 173 0
150 170 0
148 166 0
153 171 0
152 172 0
157 175 0
154 174 0
148 166 0
151 168 0
157 177 0
147 166 0
146 166 0
153 172 0
146 164 0
150 169 0
151 170 0
156 174 0
153 172 0
148 165 0
151 170 0
150 168 0
150 166 0
153 172 0
156 173 0
156 174 0
154 172 0
152 168 0
157 174 0
148 166 0
157 175 0
145 162 0
145 163 0
148 164 0
153 171 0
148 167 0
151 170 0
154 170 0
152 168 0
148 164 0
154 171 0
152 169 0
155 171 0
152 169 0
155 173 0
152 166 0
151 168 0
159 173 0
155 170 0
156 174 0
155 171 0
152 170 0
148 163 0
156 173 0
152 168 0
149 166 0
154 169 0
155 170 0
151 168 0
152 169 0
150 165 0
153 169 0
153 168 0
147 164 0
148 162 0
152 166 0
146 161 0
153 169 0
151 165 0
159 174 0
152 166 0
154 171 0
158 178 0
155 167 0
155 169 0
151 169 0
155 171 0
155 170 0
148 162 0
158 174 0
152 167 0
156 173 0
156 172 0
153 165 0
155 172 0
155 171 0
161 175 0
155 170 0
156 171 0
154 171 0
164 184 0
161 182 0
159 180 0
156 177 0
156 177 0
157 178 0
159 180 0
161 183 0
160 181 0
150 172 0
154 175 0
159 179 0
156 177 0
161 181 0
155 176 0
158 179 0
157 178 0
155 175 0
153 173 0
153 173 0
155 176 0
162 182 0
159 181 0
157 179 0
157 178 0
157 177 0
154 175 0
158 179 0
160 182 0
162 184 0
155 175 0
155 176 0
157 177 0
158 179 0
149 169 0
163 183 0
162 183 0
159 180 0
153 175 0
157 178 0
157 179 0
155 176 0
156 177 0
154 175 0
156 179 0
154 176 0
154 175 0
156 177 0
160 181 0
150 171 0
157 178 0
148 169 0
155 177 0
156 177 0
157 178 0
152 173 0
152 174 0
153 175 0
160 181 0
157 179 0
155 176 0
150 171 0
151 172 0
158 180 0
156 177 0
155 177 0
158 180 0
161 183 0
158 179 0
151 173 0
153 176 0
152 173 0
153 175 0
155 177 0
157 179 0
157 179 0
150 171 0
158 180 0
156 178 0
155 176 0
156 178 0
150 172 0
155 178 0
141 164 0
156 177 0
150 171 0
149 172 0
159 182 0
161 182 0
156 178 0
160 182 0
154 176 0
157 179 0
149 171 0
151 173 0
149 170 0
150 172 0
153 174 0
148 170 0
154 175 0
153 175 0
155 178 0
154 176 0
149 170 0
162 184 0
150 172 0
152 174 0
153 177 0
156 178 0
151 173 0
151 173 0
154 176 0
152 174 0
161 183 0
152 175 0
155 177 0
153 175 0
156 177 0
152 173 0
150 172 0
145 166 0
151 172 0
156 179 0
155 178 0
147 168 0
151 172 0
152 174 0
156 178 0
154 176 0
151 172 0
154 176 0
156 178 0
154 177 0
147 170 0
152 175 0
156 177 0
150 172 0
149 171 0
149 171 0
154 175 0
153 174 0
152 175 0
151 174 0
150 171 0
152 175 0
152 174 0
149 170 0
149 171 0
152 174 0
150 172 0
151 173 0
151 172 0
156 179 0
152 173 0
154 177 0
157 179 0
148 169 0
148 170 0
147 168 0
150 173 0
153 174 0
150 171 0
148 169 0
152 175 0
156 178 0
144 166 0
150 173 0
144 164 0
159 181 0
148 171 0
141 164 0
154 176 0
156 178 0
149 171 0
154 176 0
152 174 0
150 172 0
154 176 0
148 169 0
155 176 0
149 169 0
155 177 0
145 168 0
147 169 0
149 171 0
147 168 0
149 171 0
142 163 0
144 165 0
155 176 0
147 167 0
149 170 0
138 159 0
143 165 0
154 175 0
149 170 0
154 175 0
150 172 0
152 174 0
157 179 0
151 173 0
151 173 0
152 174 0
150 171 0
154 177 0
151 172 0
154 177 0
153 176 0
148 169 0
151 173 0
152 173 0
148 169 0
151 173 0
149 170 0
153 175 0
152 173 0
149 170 0
145 167 0
150 171 0
149 171 0
156 178 0
153 174 0
146 168 0
150 173 0
148 169 0
144 165 0
156 177 0
150 171 0
152 174 0
153 175 0
146 167 0
154 175 0
152 173 0
148 168 0
150 170 0
152 173 0
154 179 0
148 170 0
144 165 0
156 177 0
145 166 0
152 173 0
143 164 0
156 177 0
153 173 0
156 178 0
154 176 0
158 179 0
159 179 0
157 178 0
153 174 0
155 177 0
145 166 0
149 172 0
157 177 0
152 172 0
152 171 0
140 161 0
160 181 0
147 168 0
146 165 0
149 167 0
151 172 0
147 167 0
146 167 0
156 176 0
157 178 0
156 177 0
160 181 0
149 171 0
150 171 0
147 168 0
144 164 0
152 172 0
150 171 0
150 171 0
152 174 0
152 174 0
148 170 0
149 168 0
155 176 0
157 176 0
153 174 0
147 164 0
152 172 0
146 166 0
151 172 0
150 170 0
157 177 0
146 165 0
151 171 0
149 170 0
149 169 0
157 177 0
149 169 0
162 182 0
154 172 0
149 168 0
152 172 0
147 165 0
154 174 0
150 168 0
151 169 0
149 168 0
150 169 0
153 172 0
150 169 0
156 175 0
149 169 0
149 167 0
148 167 0
155 174 0
156 176 0
146 166 0
151 168 0
151 170 0
158 177 0
151 171 0
158 177 0
148 167 0
155 173 0
151 169 0
152 172 0
151 172 0
149 167 0
156 174 0
147 165 0
148 166 0
155 172 0
160 179 0
156 175 0
150 168 0
150 167 0
153 172 0
151 169 0
149 167 0
156 174 0
159 179 0
155 175 0
156 177 0
151 166 0
157 175 0
152 168 0
153 170 0
147 164 0
146 160 0
148 166 0
154 172 0
150 167 0
152 169 0
147 164 0
149 164 0
156 173 0
160 177 0
153 171 0
156 172 0
155 172 0
149 165 0
156 172 0
155 172 0
151 167 0
151 166 0
156 173 0
151 167 0
149 164 0
157 169 0
149 165 0
154 170 0
155 171 0
153 170 0
153 169 0
157 174 0
157 174 0
150 164 0
158 174 0
160 176 0
155 172 0
157 174 0
157 171 0
150 168 0
161 176 0
156 173 0
162 177 0
159 174 0
155 172 0
148 163 0
153 168 0
149 163 0
153 166 0
156 172 0
148 162 0
156 171 0
152 166 0
153 167 0
153 169 0
154 169 0
158 174 0
156 173 0
152 165 0
161 177 0
